; generated by PrusaSlicer 2.3.0-beta3+win64 on 2022-04-15 at 00:48:49 UTC

; 

; external perimeters extrusion width = 0.45mm
; perimeters extrusion width = 0.45mm
; infill extrusion width = 0.45mm
; solid infill extrusion width = 0.45mm
; top infill extrusion width = 0.40mm
; support material extrusion width = 0.38mm
; first layer extrusion width = 0.42mm

M201 X500 Y500 Z100 E5000 ; sets maximum accelerations, mm/sec^2
M203 X500 Y500 Z10 E60 ; sets maximum feedrates, mm/sec
M204 P500 R1000 T500 ; sets acceleration (P, T) and retract acceleration (R), mm/sec^2
M205 X8.00 Y8.00 Z0.40 E5.00 ; sets the jerk limits, mm/sec
M205 S0 T0 ; sets the minimum extruding and travel feed rate, mm/sec
M107
;TYPE:Custom
G90 ; use absolute coordinates
M83 ; extruder relative mode
M104 S220 ; set extruder temp
M140 S60 ; set bed temp
M190 S60 ; wait for bed temp
M109 S220 ; wait for extruder temp
G28 ; home all
G1 Z2 F240
G1 X2 Y10 F3000
G1 Z0.28 F240
G92 E0
G1 Y190 E15 F1500 ; intro line
G1 X2.3 F5000
G92 E0
G1 Y10 E15 F1200 ; intro line
G92 E0
G21 ; set units to millimeters
G90 ; use absolute coordinates
M83 ; use relative distances for extrusion
; Filament gcode
;LAYER_CHANGE
;Z:0.2
;HEIGHT:0.2
;BEFORE_LAYER_CHANGE
G92 E0
;0.2


G1 E-5.00000 F3600.000
G1 Z0.200 F9000.000
;AFTER_LAYER_CHANGE
;0.2
G1 X104.503 Y104.515
G1 E5.00000 F2400.000
;TYPE:Skirt
;WIDTH:0.42
G1 F1200.000
G1 X107.554 Y101.465 E0.13526
G1 X108.088 Y101.066 E0.02090
G1 X108.698 Y100.808 E0.02078
G1 X109.439 Y100.701 E0.02345
G1 X126.787 Y100.701 E0.54393
G1 X127.807 Y100.899 E0.03258
G1 X128.678 Y101.458 E0.03246
G1 X134.754 Y107.777 E0.27487
G1 X135.113 Y108.275 E0.01924
G1 X135.352 Y108.840 E0.01924
G1 X135.467 Y109.608 E0.02434
G1 X135.466 Y126.150 E0.51866
G1 X135.332 Y126.931 E0.02485
G1 X134.880 Y127.948 E0.03489
G1 X134.439 Y128.542 E0.02320
G1 X128.440 Y134.541 E0.26600
G1 X127.880 Y134.952 E0.02180
G1 X127.234 Y135.210 E0.02180
G1 X126.557 Y135.299 E0.02141
G1 X109.181 Y135.298 E0.54483
G1 X108.512 Y135.207 E0.02116
G1 X107.886 Y134.955 E0.02116
G1 X107.257 Y134.479 E0.02473
G1 X101.260 Y128.238 E0.27140
G1 X100.863 Y127.682 E0.02141
G1 X100.616 Y127.045 E0.02141
G1 X100.533 Y126.388 E0.02078
G1 X100.534 Y109.846 E0.51866
G1 X100.669 Y109.065 E0.02485
G1 X101.120 Y108.052 E0.03476
G1 X101.561 Y107.458 E0.02320
G1 X104.461 Y104.558 E0.12860
G1 X104.728 Y104.824 F9000.000
G1 F1200.000
G1 X107.812 Y101.740 E0.13676
G1 X108.278 Y101.392 E0.01823
G1 X108.814 Y101.167 E0.01823
G1 X109.446 Y101.078 E0.02000
G1 X126.786 Y101.078 E0.54371
G1 X127.674 Y101.252 E0.02837
G1 X128.430 Y101.742 E0.02825
G1 X134.471 Y108.026 E0.27328
G1 X134.786 Y108.464 E0.01692
G1 X134.995 Y108.961 E0.01692
G1 X135.090 Y109.611 E0.02060
G1 X135.089 Y126.137 E0.51817
G1 X134.969 Y126.829 E0.02201
G1 X134.543 Y127.778 E0.03262
G1 X134.165 Y128.283 E0.01977
G1 X128.185 Y134.263 E0.26515
G1 X127.699 Y134.621 E0.01894
G1 X127.138 Y134.846 E0.01894
G1 X126.554 Y134.922 E0.01846
G1 X109.191 Y134.921 E0.54442
G1 X108.607 Y134.842 E0.01846
G1 X108.058 Y134.620 E0.01858
G1 X107.521 Y134.209 E0.02119
G1 X101.540 Y127.985 E0.27066
G1 X101.195 Y127.503 E0.01858
G1 X100.981 Y126.950 E0.01858
G1 X100.910 Y126.385 E0.01787
G1 X100.911 Y109.859 E0.51816
G1 X101.033 Y109.167 E0.02201
G1 X101.457 Y108.222 E0.03250
G1 X101.835 Y107.717 E0.01977
G1 X104.685 Y104.867 E0.12639
G1 X105.004 Y105.243 F9000.000
G1 F1200.000
G1 X105.106 Y105.169 E0.00395
G1 X105.173 Y105.073 E0.00368
G1 X106.065 Y104.181 E0.03956
G1 X106.356 Y104.011 E0.01057
G1 X106.527 Y103.720 E0.01057
G1 X107.158 Y103.088 E0.02801
G1 X107.261 Y103.015 E0.00395
G1 X107.328 Y102.918 E0.00368
G1 X108.241 Y102.005 E0.04049
G1 X109.002 Y101.619 E0.02675
G1 X109.332 Y101.570 E0.01048
G1 X127.106 Y101.574 E0.55729
G1 X127.345 Y101.629 E0.00767
G1 X127.665 Y101.780 E0.01109
G1 X128.185 Y102.270 E0.02239
G1 X128.317 Y102.463 E0.00734
G1 X128.392 Y102.644 E0.00614
G1 X129.232 Y103.488 E0.03734
G1 X129.411 Y103.801 E0.01132
G1 X129.648 Y104.079 E0.01145
G1 X129.760 Y104.317 E0.00826
G1 X130.453 Y104.700 E0.02481
G1 X131.365 Y105.612 E0.04045
G1 X131.436 Y105.715 E0.00393
G1 X131.575 Y105.817 E0.00539
G1 X131.911 Y106.188 E0.01569
G1 X132.089 Y106.562 E0.01299
G1 X132.607 Y106.854 E0.01864
G1 X133.520 Y107.767 E0.04048
G1 X133.587 Y107.863 E0.00368
G1 X133.690 Y107.936 E0.00395
G1 X134.163 Y108.409 E0.02097
G1 X134.549 Y109.170 E0.02675
G1 X134.598 Y109.500 E0.01047
G1 X134.598 Y126.334 E0.52781
G1 X134.427 Y126.913 E0.01894
G1 X134.338 Y127.066 E0.00555
G1 X134.274 Y127.322 E0.00825
G1 X134.152 Y127.564 E0.00852
G1 X132.284 Y129.469 E0.08366
G1 X132.036 Y129.624 E0.00916
G1 X131.899 Y129.855 E0.00843
G1 X130.996 Y130.757 E0.04001
G1 X130.894 Y130.831 E0.00395
G1 X130.827 Y130.927 E0.00368
G1 X129.935 Y131.819 E0.03955
G1 X129.644 Y131.989 E0.01057
G1 X129.473 Y132.280 E0.01057
G1 X128.842 Y132.912 E0.02801
G1 X128.739 Y132.985 E0.00395
G1 X128.672 Y133.082 E0.00368
G1 X127.759 Y133.995 E0.04049
G1 X126.998 Y134.381 E0.02675
G1 X126.668 Y134.430 E0.01047
G1 X108.916 Y134.430 E0.55658
G1 X108.371 Y134.245 E0.01806
G1 X108.221 Y134.137 E0.00579
G1 X107.814 Y133.729 E0.01807
G1 X107.683 Y133.537 E0.00728
G1 X107.608 Y133.357 E0.00613
G1 X106.799 Y132.553 E0.03575
G1 X106.591 Y132.201 E0.01284
G1 X106.352 Y131.921 E0.01152
G1 X106.240 Y131.683 E0.00826
G1 X105.547 Y131.300 E0.02481
G1 X104.635 Y130.388 E0.04045
G1 X104.564 Y130.285 E0.00393
G1 X104.425 Y130.183 E0.00539
G1 X104.089 Y129.812 E0.01569
G1 X103.911 Y129.438 E0.01299
G1 X103.393 Y129.146 E0.01864
G1 X102.480 Y128.233 E0.04048
G1 X102.413 Y128.137 E0.00368
G1 X102.310 Y128.064 E0.00395
G1 X101.837 Y127.591 E0.02097
G1 X101.451 Y126.830 E0.02675
G1 X101.402 Y126.500 E0.01048
G1 X101.402 Y109.666 E0.52781
G1 X101.573 Y109.087 E0.01894
G1 X101.662 Y108.934 E0.00555
G1 X101.726 Y108.678 E0.00825
G1 X101.848 Y108.436 E0.00852
G1 X103.716 Y106.531 E0.08366
G1 X103.964 Y106.376 E0.00915
G1 X104.101 Y106.145 E0.00843
G1 X104.961 Y105.285 E0.03813
G1 X105.228 Y105.552 F9000.000
G1 F1200.000
G1 X105.384 Y105.439 E0.00604
G1 X105.458 Y105.322 E0.00434
G1 X106.312 Y104.468 E0.03787
G1 X106.635 Y104.289 E0.01157
G1 X106.814 Y103.966 E0.01157
G1 X107.410 Y103.370 E0.02643
G1 X107.539 Y103.284 E0.00486
G1 X107.613 Y103.167 E0.00434
G1 X108.487 Y102.293 E0.03876
G1 X109.089 Y101.987 E0.02120
G1 X109.347 Y101.947 E0.00818
G1 X127.084 Y101.951 E0.55613
G1 X127.201 Y101.978 E0.00377
G1 X127.474 Y102.107 E0.00947
G1 X127.906 Y102.524 E0.01881
G1 X127.989 Y102.650 E0.00473
G1 X128.067 Y102.852 E0.00677
G1 X128.944 Y103.733 E0.03900
G1 X129.100 Y104.019 E0.01021
G1 X129.319 Y104.266 E0.01035
G1 X129.507 Y104.664 E0.01380
G1 X129.708 Y104.714 E0.00649
G1 X130.206 Y104.986 E0.01778
G1 X131.081 Y105.861 E0.03880
G1 X131.156 Y105.981 E0.00447
G1 X131.312 Y106.089 E0.00593
G1 X131.610 Y106.417 E0.01390
G1 X131.795 Y106.832 E0.01423
G1 X132.361 Y107.140 E0.02019
G1 X133.236 Y108.015 E0.03880
G1 X133.310 Y108.132 E0.00434
G1 X133.439 Y108.218 E0.00486
G1 X133.875 Y108.655 E0.01935
G1 X134.181 Y109.257 E0.02120
G1 X134.221 Y109.515 E0.00818
G1 X134.221 Y126.305 E0.52641
G1 X134.076 Y126.773 E0.01539
G1 X133.984 Y126.918 E0.00535
G1 X133.926 Y127.175 E0.00826
G1 X133.828 Y127.369 E0.00683
G1 X132.900 Y128.320 E0.04165
G1 X132.771 Y128.406 E0.00488
G1 X132.697 Y128.523 E0.00434
G1 X132.036 Y129.184 E0.02930
G1 X131.754 Y129.351 E0.01027
G1 X131.611 Y129.609 E0.00924
G1 X130.745 Y130.475 E0.03841
G1 X130.616 Y130.561 E0.00486
G1 X130.542 Y130.678 E0.00434
G1 X129.688 Y131.532 E0.03787
G1 X129.365 Y131.711 E0.01157
G1 X129.186 Y132.034 E0.01157
G1 X128.590 Y132.630 E0.02643
G1 X128.461 Y132.716 E0.00486
G1 X128.387 Y132.833 E0.00434
G1 X127.513 Y133.707 E0.03876
G1 X126.911 Y134.013 E0.02120
G1 X126.653 Y134.053 E0.00818
G1 X108.948 Y134.053 E0.55511
G1 X108.566 Y133.921 E0.01270
G1 X108.476 Y133.858 E0.00345
G1 X108.095 Y133.477 E0.01688
G1 X108.011 Y133.350 E0.00478
G1 X107.933 Y133.148 E0.00679
G1 X107.084 Y132.305 E0.03751
G1 X106.899 Y131.979 E0.01174
G1 X106.681 Y131.734 E0.01029
G1 X106.493 Y131.336 E0.01380
G1 X106.292 Y131.286 E0.00649
G1 X105.794 Y131.014 E0.01779
G1 X104.919 Y130.139 E0.03880
G1 X104.844 Y130.019 E0.00447
G1 X104.688 Y129.911 E0.00593
G1 X104.390 Y129.583 E0.01391
G1 X104.205 Y129.168 E0.01423
G1 X103.639 Y128.860 E0.02019
G1 X102.764 Y127.985 E0.03880
G1 X102.690 Y127.868 E0.00434
G1 X102.561 Y127.782 E0.00486
G1 X102.125 Y127.345 E0.01936
G1 X101.819 Y126.742 E0.02120
G1 X101.779 Y126.485 E0.00818
G1 X101.779 Y109.695 E0.52641
G1 X101.924 Y109.227 E0.01539
G1 X102.016 Y109.082 E0.00535
G1 X102.074 Y108.825 E0.00826
G1 X102.172 Y108.631 E0.00683
G1 X103.100 Y107.680 E0.04165
G1 X103.229 Y107.594 E0.00488
G1 X103.303 Y107.477 E0.00434
G1 X103.964 Y106.816 E0.02930
G1 X104.246 Y106.649 E0.01027
G1 X104.389 Y106.391 E0.00924
G1 X105.185 Y105.594 E0.03533
G1 X105.452 Y105.861 F9000.000
G1 F1200.000
G1 X105.670 Y105.708 E0.00834
G1 X105.748 Y105.565 E0.00511
G1 X106.556 Y104.757 E0.03585
G1 X106.915 Y104.569 E0.01269
G1 X107.102 Y104.211 E0.01269
G1 X107.658 Y103.655 E0.02463
G1 X107.825 Y103.553 E0.00613
G1 X107.903 Y103.410 E0.00511
G1 X108.732 Y102.581 E0.03679
G1 X109.179 Y102.354 E0.01571
G1 X109.363 Y102.324 E0.00585
G1 X127.032 Y102.324 E0.55400
G1 X127.282 Y102.434 E0.00856
G1 X127.626 Y102.777 E0.01522
G1 X127.744 Y103.063 E0.00971
G1 X128.632 Y103.946 E0.03927
G1 X128.722 Y104.100 E0.00560
G1 X128.752 Y104.200 E0.00326
G1 X128.992 Y104.456 E0.01101
G1 X129.124 Y104.737 E0.00972
G1 X129.160 Y104.990 E0.00803
G1 X129.564 Y105.064 E0.01287
G1 X129.960 Y105.273 E0.01405
G1 X130.791 Y106.104 E0.03683
G1 X130.869 Y106.247 E0.00513
G1 X131.052 Y106.364 E0.00681
G1 X131.307 Y106.645 E0.01189
G1 X131.526 Y107.170 E0.01784
G1 X131.713 Y107.216 E0.00606
G1 X132.115 Y107.428 E0.01423
G1 X132.946 Y108.259 E0.03684
G1 X133.024 Y108.402 E0.00511
G1 X133.190 Y108.503 E0.00613
G1 X133.587 Y108.900 E0.01760
G1 X133.814 Y109.347 E0.01571
G1 X133.844 Y109.531 E0.00585
G1 X133.844 Y126.273 E0.52492
G1 X133.729 Y126.623 E0.01155
G1 X133.634 Y126.756 E0.00512
G1 X133.564 Y127.064 E0.00991
G1 X133.510 Y127.165 E0.00360
G1 X132.651 Y128.036 E0.03834
G1 X132.485 Y128.137 E0.00611
G1 X132.407 Y128.280 E0.00511
G1 X131.789 Y128.898 E0.02738
G1 X131.468 Y129.078 E0.01154
G1 X131.321 Y129.366 E0.01013
G1 X130.497 Y130.190 E0.03656
G1 X130.330 Y130.292 E0.00613
G1 X130.252 Y130.435 E0.00511
G1 X129.444 Y131.243 E0.03585
G1 X129.085 Y131.431 E0.01269
G1 X128.898 Y131.789 E0.01269
G1 X128.342 Y132.345 E0.02463
G1 X128.175 Y132.447 E0.00613
G1 X128.097 Y132.590 E0.00511
G1 X127.268 Y133.419 E0.03679
G1 X126.821 Y133.646 E0.01571
G1 X126.637 Y133.676 E0.00585
G1 X108.982 Y133.676 E0.55355
G1 X108.728 Y133.576 E0.00856
G1 X108.374 Y133.223 E0.01566
G1 X108.256 Y132.937 E0.00971
G1 X107.368 Y132.054 E0.03927
G1 X107.278 Y131.900 E0.00560
G1 X107.248 Y131.800 E0.00326
G1 X107.008 Y131.544 E0.01101
G1 X106.876 Y131.263 E0.00973
G1 X106.840 Y131.010 E0.00803
G1 X106.436 Y130.936 E0.01287
G1 X106.040 Y130.727 E0.01405
G1 X105.209 Y129.896 E0.03683
G1 X105.131 Y129.753 E0.00513
G1 X104.948 Y129.636 E0.00681
G1 X104.693 Y129.355 E0.01189
G1 X104.474 Y128.830 E0.01784
G1 X104.287 Y128.784 E0.00606
G1 X103.885 Y128.572 E0.01423
G1 X103.054 Y127.741 E0.03684
G1 X102.976 Y127.598 E0.00511
G1 X102.810 Y127.497 E0.00613
G1 X102.413 Y127.100 E0.01760
G1 X102.186 Y126.653 E0.01571
G1 X102.156 Y126.469 E0.00585
G1 X102.156 Y109.727 E0.52492
G1 X102.271 Y109.377 E0.01155
G1 X102.366 Y109.244 E0.00512
G1 X102.436 Y108.936 E0.00991
G1 X102.490 Y108.835 E0.00360
G1 X103.349 Y107.964 E0.03834
G1 X103.515 Y107.863 E0.00611
G1 X103.593 Y107.720 E0.00511
G1 X104.211 Y107.102 E0.02738
G1 X104.532 Y106.922 E0.01154
G1 X104.679 Y106.634 E0.01013
G1 X105.410 Y105.903 E0.03242
G1 X105.676 Y106.170 F9000.000
G1 F1200.000
G1 X105.748 Y106.098 E0.00317
G1 X105.973 Y105.974 E0.00808
G1 X106.047 Y105.799 E0.00595
G1 X106.799 Y105.047 E0.03333
G1 X107.198 Y104.853 E0.01393
G1 X107.393 Y104.453 E0.01393
G1 X107.903 Y103.944 E0.02259
G1 X108.128 Y103.819 E0.00808
G1 X108.202 Y103.644 E0.00595
G1 X108.977 Y102.869 E0.03438
G1 X109.272 Y102.720 E0.01035
G1 X109.381 Y102.701 E0.00345
G1 X126.976 Y102.701 E0.55170
G1 X127.045 Y102.730 E0.00235
G1 X127.319 Y103.004 E0.01215
G1 X127.348 Y103.073 E0.00235
G1 X127.348 Y103.264 E0.00597
G1 X127.561 Y103.408 E0.00807
G1 X128.343 Y104.190 E0.03467
G1 X128.397 Y104.380 E0.00621
G1 X128.666 Y104.650 E0.01195
G1 X128.763 Y104.854 E0.00709
G1 X128.782 Y105.395 E0.01696
G1 X129.313 Y105.395 E0.01663
G1 X129.421 Y105.414 E0.00345
G1 X129.716 Y105.562 E0.01035
G1 X130.491 Y106.338 E0.03438
G1 X130.565 Y106.512 E0.00592
G1 X130.797 Y106.643 E0.00835
G1 X131.003 Y106.871 E0.00964
G1 X131.113 Y107.152 E0.00947
G1 X131.129 Y107.549 E0.01246
G1 X131.468 Y107.549 E0.01062
G1 X131.576 Y107.568 E0.00345
G1 X131.871 Y107.717 E0.01035
G1 X132.646 Y108.492 E0.03438
G1 X132.720 Y108.667 E0.00595
G1 X132.946 Y108.792 E0.00808
G1 X133.299 Y109.146 E0.01568
G1 X133.448 Y109.440 E0.01035
G1 X133.467 Y109.549 E0.00345
G1 X133.467 Y110.090 E0.01697
G1 X133.445 Y110.189 E0.00318
G1 X133.467 Y110.288 E0.00318
G1 X133.467 Y111.167 E0.02756
G1 X133.445 Y111.266 E0.00318
G1 X133.467 Y111.366 E0.00318
G1 X133.467 Y112.245 E0.02756
G1 X133.445 Y112.344 E0.00318
G1 X133.467 Y112.443 E0.00318
G1 X133.467 Y113.322 E0.02756
G1 X133.445 Y113.421 E0.00318
G1 X133.467 Y113.520 E0.00318
G1 X133.467 Y114.399 E0.02756
G1 X133.445 Y114.499 E0.00318
G1 X133.467 Y114.598 E0.00318
G1 X133.467 Y115.477 E0.02756
G1 X133.445 Y115.576 E0.00318
G1 X133.467 Y115.675 E0.00318
G1 X133.467 Y116.554 E0.02756
G1 X133.445 Y116.653 E0.00318
G1 X133.467 Y116.752 E0.00318
G1 X133.467 Y117.631 E0.02756
G1 X133.445 Y117.731 E0.00318
G1 X133.467 Y117.830 E0.00318
G1 X133.467 Y118.709 E0.02756
G1 X133.445 Y118.808 E0.00318
G1 X133.467 Y118.907 E0.00318
G1 X133.467 Y119.786 E0.02756
G1 X133.445 Y119.885 E0.00318
G1 X133.467 Y119.985 E0.00318
G1 X133.467 Y120.864 E0.02756
G1 X133.445 Y120.963 E0.00318
G1 X133.467 Y121.062 E0.00318
G1 X133.467 Y121.941 E0.02756
G1 X133.445 Y122.040 E0.00318
G1 X133.467 Y122.139 E0.00318
G1 X133.467 Y123.018 E0.02756
G1 X133.445 Y123.118 E0.00318
G1 X133.467 Y123.217 E0.00318
G1 X133.467 Y124.096 E0.02756
G1 X133.445 Y124.195 E0.00318
G1 X133.467 Y124.294 E0.00318
G1 X133.467 Y125.173 E0.02756
G1 X133.445 Y125.272 E0.00318
G1 X133.467 Y125.371 E0.00318
G1 X133.467 Y126.238 E0.02716
G1 X133.389 Y126.456 E0.00727
G1 X133.283 Y126.584 E0.00521
G1 X133.217 Y126.913 E0.01051
G1 X133.191 Y126.963 E0.00175
G1 X132.407 Y127.747 E0.03478
G1 X132.181 Y127.871 E0.00808
G1 X132.107 Y128.046 E0.00595
G1 X131.544 Y128.609 E0.02496
G1 X131.276 Y128.751 E0.00952
G1 X131.118 Y128.791 E0.00512
G1 X131.063 Y129.068 E0.00884
G1 X131.036 Y129.117 E0.00175
G1 X130.252 Y129.902 E0.03478
G1 X130.026 Y130.026 E0.00808
G1 X129.953 Y130.201 E0.00595
G1 X129.201 Y130.953 E0.03333
G1 X128.802 Y131.147 E0.01393
G1 X128.607 Y131.547 E0.01393
G1 X128.097 Y132.056 E0.02260
G1 X127.872 Y132.181 E0.00808
G1 X127.798 Y132.356 E0.00595
G1 X127.023 Y133.131 E0.03438
G1 X126.728 Y133.280 E0.01035
G1 X126.619 Y133.299 E0.00345
G1 X109.024 Y133.299 E0.55169
G1 X108.955 Y133.270 E0.00235
G1 X108.681 Y132.996 E0.01215
G1 X108.652 Y132.927 E0.00235
G1 X108.652 Y132.736 E0.00597
G1 X108.439 Y132.592 E0.00807
G1 X107.657 Y131.810 E0.03467
G1 X107.603 Y131.620 E0.00621
G1 X107.334 Y131.350 E0.01195
G1 X107.237 Y131.146 E0.00709
G1 X107.218 Y130.605 E0.01696
G1 X106.687 Y130.605 E0.01663
G1 X106.579 Y130.586 E0.00345
G1 X106.284 Y130.438 E0.01035
G1 X105.509 Y129.662 E0.03438
G1 X105.435 Y129.488 E0.00592
G1 X105.203 Y129.357 E0.00835
G1 X104.997 Y129.129 E0.00964
G1 X104.887 Y128.848 E0.00947
G1 X104.871 Y128.451 E0.01246
G1 X104.532 Y128.451 E0.01062
G1 X104.424 Y128.432 E0.00345
G1 X104.129 Y128.283 E0.01035
G1 X103.354 Y127.508 E0.03438
G1 X103.280 Y127.333 E0.00595
G1 X103.054 Y127.208 E0.00808
G1 X102.701 Y126.854 E0.01568
G1 X102.552 Y126.560 E0.01035
