; generated by PrusaSlicer 2.4.2-rc1+win64 on 2022-04-12 at 01:26:26 UTC

; 

; external perimeters extrusion width = 0.45mm
; perimeters extrusion width = 0.45mm
; infill extrusion width = 0.45mm
; solid infill extrusion width = 0.45mm
; top infill extrusion width = 0.40mm
; support material extrusion width = 0.38mm
; first layer extrusion width = 0.50mm

M107
;TYPE:Custom
G90 ; use absolute coordinates
M83 ; extruder relative mode
M140 S65 ; set final bed temp
;M104 S150 ; set temporary nozzle temp to prevent oozing during homing
;G4 S10 ; allow partial nozzle warmup
G28 ; home all axis
G1 Z5 F240
G1 X2 Y10 F3000
M104 S220 ; set final nozzle temp
;M190 S65 ; wait for bed temp to stabilize
;M109 S220 ; wait for nozzle temp to stabilize
G1 Z0.28 F240
G92 E0
G1 Y190 E10 F1500 ; prime the nozzle
G1 X2.3 F5000
G92 E0
G1 Y10 E10 F1200 ; prime the nozzle
G92 E0
G21 ; set units to millimeters
G90 ; use absolute coordinates
M83 ; use relative distances for extrusion
; Filament gcode
M107
;LAYER_CHANGE
;Z:0.2
;HEIGHT:0.2
;BEFORE_LAYER_CHANGE
G92 E0
;0.2


G1 E-5 F3600
G1 Z.2 F9000
;AFTER_LAYER_CHANGE
;0.2
G1 X123.256 Y102.67
G1 E5 F2400
M204 S500
;TYPE:Support material
;WIDTH:0.5
G1 F1200
G1 X123.256 Y103.396 E.0276
G1 X128.656 Y103.396 E.20525
G1 X130.267 Y105.007 E.08659
G1 X130.267 Y105.733 E.0276
G1 X130.993 Y105.733 E.0276
G1 X132.604 Y107.344 E.08659
G1 X132.604 Y112.744 E.20525
G1 X133.33 Y112.744 E.0276
G1 X134.941 Y114.355 E.08659
G1 X134.941 Y121.645 E.27704
G1 X133.33 Y123.256 E.08659
G1 X132.604 Y123.256 E.0276
G1 X132.604 Y128.656 E.20525
G1 X130.993 Y130.267 E.08659
G1 X130.267 Y130.267 E.0276
G1 X130.267 Y130.993 E.0276
G1 X128.656 Y132.604 E.08659
G1 X123.256 Y132.604 E.20525
G1 X123.256 Y133.33 E.0276
G1 X121.645 Y134.941 E.08659
G1 X114.355 Y134.941 E.27704
G1 X112.744 Y133.33 E.08659
G1 X112.744 Y132.604 E.0276
G1 X107.344 Y132.604 E.20525
G1 X105.733 Y130.993 E.08659
G1 X105.733 Y130.267 E.0276
G1 X105.007 Y130.267 E.0276
G1 X103.396 Y128.656 E.08659
G1 X103.396 Y123.256 E.20525
G1 X102.67 Y123.256 E.0276
G1 X101.059 Y121.645 E.08659
G1 X101.059 Y114.355 E.27704
G1 X102.67 Y112.744 E.08659
G1 X103.396 Y112.744 E.0276
G1 X103.396 Y107.344 E.20525
G1 X105.007 Y105.733 E.08659
G1 X105.733 Y105.733 E.0276
G1 X105.733 Y105.007 E.0276
G1 X107.344 Y103.396 E.08659
G1 X112.744 Y103.396 E.20525
G1 X112.744 Y102.67 E.0276
G1 X114.355 Y101.059 E.08659
G1 X121.645 Y101.059 E.27704
G1 X123.207 Y102.621 E.08398
G1 E-5 F3600
G1 X103.101 Y113.156 F9000
G1 E5 F2400
G1 F1200
G1 X103.807 Y113.156 E.02684
G1 E-5 F3600
G1 X132.899 Y122.844 F9000
G1 E5 F2400
G1 F1200
G1 X132.193 Y122.844 E.02684
G1 E-5 F3600
G1 X114.787 Y101.47 F9000
G1 E5 F2400
G1 F1200
G1 X114.526 Y101.47 E.00994
G1 X114.248 Y101.748 E.01494
G1 X121.752 Y101.748 E.28522
G1 X122.26 Y102.256 E.0273
G1 X113.74 Y102.256 E.32382
G1 X113.232 Y102.764 E.0273
G1 X122.768 Y102.764 E.36243
G1 X122.844 Y102.84 E.0041
G1 X122.844 Y103.272 E.0164
G1 X113.156 Y103.272 E.36822
G1 X113.156 Y103.551 E.01062
G1 E-5 F3600
G1 X129.855 Y105.811 F9000
G1 E5 F2400
G1 F1200
G1 X106.145 Y105.811 E.90117
G1 X106.145 Y105.303 E.0193
G1 X129.855 Y105.303 E.90117
G1 X129.855 Y105.177 E.00479
G1 X129.474 Y104.795 E.02053
G1 X106.526 Y104.795 E.87214
G1 X107.034 Y104.288 E.0273
G1 X128.966 Y104.288 E.83354
G1 X128.486 Y103.807 E.02581
G1 X122.844 Y103.807 E.21441
G1 X122.844 Y103.78 E.00105
G1 X113.156 Y103.78 E.36822
G1 X113.156 Y103.807 E.00105
G1 X107.514 Y103.807 E.21441
G1 E-5 F3600
G1 X105.003 Y106.319 F9000
G1 E5 F2400
G1 F1200
G1 X130.997 Y106.319 E.98795
G1 X131.505 Y106.827 E.0273
G1 X104.495 Y106.827 E1.02656
G1 X103.987 Y107.335 E.0273
G1 X132.013 Y107.335 E1.06516
G1 X132.193 Y107.514 E.00966
G1 X132.193 Y107.843 E.01247
G1 X103.807 Y107.843 E1.07881
G1 X103.807 Y108.351 E.0193
G1 X132.193 Y108.351 E1.07881
G1 X132.193 Y108.858 E.0193
G1 X103.807 Y108.858 E1.07881
G1 X103.807 Y109.366 E.0193
G1 X132.193 Y109.366 E1.07881
G1 X132.193 Y109.874 E.0193
G1 X103.807 Y109.874 E1.07881
G1 X103.807 Y110.382 E.0193
G1 X132.193 Y110.382 E1.07881
G1 X132.193 Y110.89 E.0193
G1 X103.807 Y110.89 E1.07881
G1 X103.807 Y111.398 E.0193
G1 X132.193 Y111.398 E1.07881
G1 X132.193 Y111.906 E.0193
G1 X103.807 Y111.906 E1.07881
G1 X103.807 Y112.413 E.0193
G1 X132.193 Y112.413 E1.07881
G1 X132.193 Y112.921 E.0193
G1 X103.807 Y112.921 E1.07881
G1 E-5 F3600
G1 X132.899 Y122.844 F9000
G1 E5 F2400
G1 F1200
G1 X133.16 Y122.844 E.00991
G1 X133.433 Y122.571 E.0147
G1 X102.567 Y122.571 E1.17312
G1 X102.059 Y122.063 E.0273
G1 X133.941 Y122.063 E1.21172
G1 X134.449 Y121.555 E.0273
G1 X101.551 Y121.555 E1.25033
G1 X101.47 Y121.474 E.00434
G1 X101.47 Y121.047 E.01623
G1 X134.53 Y121.047 E1.25646
G1 X134.53 Y120.539 E.0193
G1 X101.47 Y120.539 E1.25646
G1 X101.47 Y120.031 E.0193
G1 X134.53 Y120.031 E1.25646
G1 X134.53 Y119.524 E.0193
G1 X101.47 Y119.524 E1.25646
G1 X101.47 Y119.016 E.0193
G1 X134.53 Y119.016 E1.25646
G1 X134.53 Y118.508 E.0193
G1 X101.47 Y118.508 E1.25646
G1 X101.47 Y118 E.0193
G1 X134.53 Y118 E1.25646
G1 X134.53 Y117.492 E.0193
G1 X101.47 Y117.492 E1.25646
G1 X101.47 Y116.984 E.0193
G1 X134.53 Y116.984 E1.25646
G1 X134.53 Y116.476 E.0193
G1 X101.47 Y116.476 E1.25646
G1 X101.47 Y115.969 E.0193
G1 X134.53 Y115.969 E1.25646
G1 X134.53 Y115.461 E.0193
G1 X101.47 Y115.461 E1.25646
G1 X101.47 Y114.953 E.0193
G1 X134.53 Y114.953 E1.25646
G1 X134.53 Y114.526 E.01623
G1 X134.449 Y114.445 E.00434
G1 X101.551 Y114.445 E1.25032
G1 X102.059 Y113.937 E.0273
G1 X133.941 Y113.937 E1.21172
G1 X133.433 Y113.429 E.0273
G1 X102.567 Y113.429 E1.17312
G1 X102.84 Y113.156 E.0147
G1 X103.101 Y113.156 E.00991
G1 E-5 F3600
G1 X103.807 Y123.079 F9000
G1 E5 F2400
G1 F1200
G1 X132.193 Y123.079 E1.07881
G1 X132.193 Y123.587 E.0193
G1 X103.807 Y123.587 E1.07881
G1 X103.807 Y124.094 E.0193
G1 X132.193 Y124.094 E1.07881
G1 X132.193 Y124.602 E.0193
G1 X103.807 Y124.602 E1.07881
G1 X103.807 Y125.11 E.0193
G1 X132.193 Y125.11 E1.07881
G1 X132.193 Y125.618 E.0193
G1 X103.807 Y125.618 E1.07881
G1 X103.807 Y126.126 E.0193
G1 X132.193 Y126.126 E1.07881
G1 X132.193 Y126.634 E.0193
G1 X103.807 Y126.634 E1.07881
G1 X103.807 Y127.142 E.0193
G1 X132.193 Y127.142 E1.07881
G1 X132.193 Y127.649 E.0193
G1 X103.807 Y127.649 E1.07881
G1 X103.807 Y128.157 E.0193
G1 X132.193 Y128.157 E1.07881
G1 X132.193 Y128.486 E.01248
G1 X132.013 Y128.665 E.00965
G1 X103.987 Y128.665 E1.06516
G1 X104.495 Y129.173 E.0273
G1 X131.505 Y129.173 E1.02656
G1 X130.997 Y129.681 E.0273
G1 X105.003 Y129.681 E.98795
G1 E-5 F3600
G1 X128.486 Y132.193 F9000
G1 E5 F2400
G1 F1200
G1 X122.844 Y132.193 E.21441
G1 X122.844 Y132.22 E.00105
G1 X113.156 Y132.22 E.36822
G1 X113.156 Y132.193 E.00105
G1 X107.514 Y132.193 E.21441
G1 X107.034 Y131.712 E.02581
G1 X128.966 Y131.712 E.83354
G1 X129.474 Y131.205 E.0273
G1 X106.526 Y131.205 E.87214
G1 X106.145 Y130.823 E.02053
G1 X106.145 Y130.697 E.00479
G1 X129.855 Y130.697 E.90117
G1 X129.855 Y130.189 E.0193
G1 X106.145 Y130.189 E.90117
G1 E-5 F3600
G1 X113.156 Y132.449 F9000
G1 E5 F2400
G1 F1200
G1 X113.156 Y132.728 E.01062
G1 X122.844 Y132.728 E.36822
G1 X122.844 Y133.16 E.0164
G1 X122.768 Y133.236 E.0041
G1 X113.232 Y133.236 E.36243
G1 X113.74 Y133.744 E.0273
G1 X122.26 Y133.744 E.32382
G1 X121.752 Y134.252 E.0273
G1 X114.248 Y134.252 E.28522
G1 X114.526 Y134.53 E.01494
G1 X114.787 Y134.53 E.00994
M106 S255
;LAYER_CHANGE
;Z:0.5
;HEIGHT:0.3
;BEFORE_LAYER_CHANGE
G92 E0
;0.5


G1 E-3.5 F3600
;WIPE_START
G1 F7200
G1 X114.526 Y134.53 E-.12421
G1 X114.248 Y134.252 E-.18671
G1 X116.593 Y134.252 E-1.11409
;WIPE_END
G1 E-.075 F3600
G1 Z.5 F9000
;AFTER_LAYER_CHANGE
;0.5
G1 X115.315 Y132.48
G1 E5 F2400
;TYPE:Support material interface
;WIDTH:0.38
G1 X115.315 Y103.52 E1.14003
G1 X115.357 Y103.478 E.00236
G1 X115.852 Y103.478 E.01947
G1 X115.852 Y132.522 E1.14338
G1 X116.389 Y132.522 E.02114
G1 X116.389 Y103.478 E1.14338
G1 X116.926 Y103.478 E.02114
G1 X116.926 Y132.522 E1.14338
G1 X117.463 Y132.522 E.02114
G1 X117.463 Y103.478 E1.14338
G1 X118 Y103.478 E.02114
G1 X118 Y132.522 E1.14338
G1 X118.537 Y132.522 E.02114
G1 X118.537 Y103.478 E1.14338
G1 X119.074 Y103.478 E.02114
G1 X119.074 Y132.522 E1.14338
G1 X119.611 Y132.522 E.02114
G1 X119.611 Y103.478 E1.14338
G1 X120.148 Y103.478 E.02114
G1 X120.148 Y132.522 E1.14338
G1 X120.643 Y132.522 E.01947
G1 X120.685 Y132.48 E.00236
G1 X120.685 Y103.52 E1.14003
G1 E-5 F3600
G1 X115.045 Y105.815 F9000
G1 E5 F2400
G1 X114.778 Y105.815 E.01053
G1 X114.778 Y130.185 E.95938
G1 X114.24 Y130.185 E.02114
G1 X114.24 Y105.815 E.95938
G1 X113.703 Y105.815 E.02114
G1 X113.703 Y130.185 E.95938
G1 X113.166 Y130.185 E.02114
G1 X113.166 Y105.815 E.95938
G1 X112.629 Y105.815 E.02114
G1 X112.629 Y130.185 E.95938
G1 X112.092 Y130.185 E.02114
G1 X112.092 Y105.815 E.95938
G1 X111.555 Y105.815 E.02114
G1 X111.555 Y130.185 E.95938
G1 X111.018 Y130.185 E.02114
G1 X111.018 Y105.815 E.95938
G1 X110.481 Y105.815 E.02114
G1 X110.481 Y130.185 E.95938
G1 X109.944 Y130.185 E.02114
G1 X109.944 Y105.815 E.95938
G1 X109.407 Y105.815 E.02114
G1 X109.407 Y130.185 E.95938
G1 X108.87 Y130.185 E.02114
G1 X108.87 Y105.815 E.95938
G1 X108.346 Y105.815 E.02062
G1 X108.333 Y105.828 E.00074
G1 X108.333 Y130.172 E.95833
G1 X108.152 Y129.991 E.01007
G1 X108.152 Y129.799 E.00756
G1 E-5 F3600
G1 X105.815 Y127.654 F9000
G1 E5 F2400
G1 X105.815 Y120.837 E.26836
G1 X105.647 Y120.837 E.00659
G1 X105.647 Y115.163 E.22337
G1 X105.815 Y115.163 E.00659
G1 X105.815 Y108.346 E.26836
G1 X106.009 Y108.152 E.01081
G1 X106.184 Y108.152 E.00691
G1 X106.184 Y127.848 E.77537
G1 X106.721 Y127.848 E.02114
G1 X106.721 Y108.152 E.77537
G1 X107.258 Y108.152 E.02114
G1 X107.258 Y127.848 E.77537
G1 X107.795 Y127.848 E.02114
G1 X107.796 Y108.152 E.77537
G1 X108.063 Y108.152 E.01053
G1 E-5 F3600
G1 X105.479 Y115.163 F9000
G1 E5 F2400
G1 X105.11 Y115.163 E.01451
G1 X105.11 Y120.837 E.22337
G1 X104.573 Y120.837 E.02114
G1 X104.573 Y115.163 E.22337
G1 X104.036 Y115.163 E.02114
G1 X104.036 Y120.837 E.22337
G1 X103.672 Y120.837 E.01434
G1 X103.499 Y120.664 E.00962
G1 X103.499 Y115.336 E.20976
G1 E-5 F3600
G1 X120.955 Y130.185 F9000
G1 E5 F2400
G1 X121.222 Y130.185 E.01053
G1 X121.222 Y105.815 E.95938
G1 X121.76 Y105.815 E.02114
G1 X121.76 Y130.185 E.95938
G1 X122.297 Y130.185 E.02114
G1 X122.297 Y105.815 E.95938
G1 X122.834 Y105.815 E.02114
G1 X122.834 Y130.185 E.95938
G1 X123.371 Y130.185 E.02114
G1 X123.371 Y105.815 E.95938
G1 X123.908 Y105.815 E.02114
G1 X123.908 Y130.185 E.95938
G1 X124.445 Y130.185 E.02114
G1 X124.445 Y105.815 E.95938
G1 X124.982 Y105.815 E.02114
G1 X124.982 Y130.185 E.95938
G1 X125.519 Y130.185 E.02114
G1 X125.519 Y105.815 E.95938
G1 X126.056 Y105.815 E.02114
G1 X126.056 Y130.185 E.95938
G1 X126.593 Y130.185 E.02114
G1 X126.593 Y105.815 E.95938
G1 X127.13 Y105.815 E.02114
G1 X127.13 Y130.185 E.95938
G1 X127.654 Y130.185 E.02062
G1 X127.667 Y130.172 E.00074
G1 X127.667 Y105.828 E.95833
G1 X127.848 Y106.009 E.01007
G1 X127.848 Y106.201 E.00756
G1 E-5 F3600
G1 X130.185 Y108.346 F9000
G1 E5 F2400
G1 X130.185 Y115.163 E.26836
G1 X130.353 Y115.163 E.00659
G1 X130.353 Y120.837 E.22337
G1 X130.185 Y120.837 E.00659
G1 X130.185 Y127.654 E.26836
G1 X129.991 Y127.848 E.01081
G1 X129.816 Y127.848 E.00691
G1 X129.816 Y108.152 E.77537
G1 X129.279 Y108.152 E.02114
G1 X129.279 Y127.848 E.77537
G1 X128.742 Y127.848 E.02114
G1 X128.742 Y108.152 E.77537
G1 X128.205 Y108.152 E.02114
G1 X128.205 Y127.848 E.77537
G1 X127.937 Y127.848 E.01053
G1 E-5 F3600
G1 X130.521 Y115.163 F9000
G1 E5 F2400
G1 X130.89 Y115.163 E.01451
G1 X130.89 Y120.837 E.22337
G1 X131.427 Y120.837 E.02114
G1 X131.427 Y115.163 E.22337
G1 X131.964 Y115.163 E.02114
G1 X131.964 Y120.837 E.22337
G1 X132.328 Y120.837 E.01434
G1 X132.501 Y120.664 E.00962
G1 X132.501 Y115.336 E.20976
;LAYER_CHANGE
;Z:0.8
;HEIGHT:0.3
;BEFORE_LAYER_CHANGE
G92 E0
;0.8


G1 E-3.5 F3600
;WIPE_START
G1 F7200
G1 X132.501 Y118.336 E-1.425
;WIPE_END
G1 E-.075 F3600
G1 Z.8 F9000
;AFTER_LAYER_CHANGE
;0.8
G1 X131.964 Y115.663
G1 E5 F2400
G1 X131.964 Y120.337 E.184
G1 X131.427 Y120.337 E.02114
G1 X131.427 Y115.663 E.184
G1 X130.89 Y115.663 E.02114
G1 X130.89 Y120.337 E.184
G1 X130.353 Y120.337 E.02114
G1 X130.353 Y115.663 E.184
G1 X129.984 Y115.663 E.01451
G1 E-5 F3600
G1 X127.4 Y127.348 F9000
G1 E5 F2400
G1 X127.667 Y127.348 E.01053
G1 X127.667 Y108.652 E.73601
G1 X128.205 Y108.652 E.02114
G1 X128.205 Y127.348 E.73601
G1 X128.742 Y127.348 E.02114
G1 X128.742 Y108.652 E.73601
G1 X129.279 Y108.652 E.02114
G1 X129.279 Y127.348 E.73601
G1 X129.685 Y127.348 E.01601
G1 X129.685 Y120.337 E.276
G1 X129.816 Y120.337 E.00513
G1 X129.816 Y115.663 E.184
G1 X129.685 Y115.663 E.00513
G1 X129.685 Y108.652 E.276
G1 E-5 F3600
G1 X127.348 Y106.729 F9000
G1 E5 F2400
G1 X127.348 Y106.315 E.01631
G1 X127.13 Y106.315 E.00858
G1 X127.13 Y129.685 E.92001
G1 X126.593 Y129.685 E.02114
G1 X126.593 Y106.315 E.92001
G1 X126.056 Y106.315 E.02114
G1 X126.056 Y129.685 E.92001
G1 X125.519 Y129.685 E.02114
G1 X125.519 Y106.315 E.92001
G1 X124.982 Y106.315 E.02114
G1 X124.982 Y129.685 E.92001
G1 X124.445 Y129.685 E.02114
G1 X124.445 Y106.315 E.92001
G1 X123.908 Y106.315 E.02114
G1 X123.908 Y129.685 E.92001
G1 X123.371 Y129.685 E.02114
G1 X123.371 Y106.315 E.92001
G1 X122.834 Y106.315 E.02114
G1 X122.834 Y129.685 E.92001
G1 X122.297 Y129.685 E.02114
G1 X122.297 Y106.315 E.92001
G1 X121.76 Y106.315 E.02114
G1 X121.76 Y129.685 E.92001
G1 X121.222 Y129.685 E.02114
G1 X121.222 Y106.315 E.92001
G1 X120.685 Y106.315 E.02114
G1 X120.685 Y129.685 E.92001
G1 X120.418 Y129.685 E.01053
G1 E-5 F3600
G1 X115.663 Y131.642 F9000
G1 E5 F2400
G1 X115.663 Y132.022 E.01498
G1 X115.852 Y132.022 E.00743
G1 X115.852 Y103.978 E1.10401
G1 X116.389 Y103.978 E.02114
G1 X116.389 Y132.022 E1.10401
G1 X116.926 Y132.022 E.02114
G1 X116.926 Y103.978 E1.10401
G1 X117.463 Y103.978 E.02114
G1 X117.463 Y132.022 E1.10401
G1 X118 Y132.022 E.02114
G1 X118 Y103.978 E1.10401
G1 X118.537 Y103.978 E.02114
G1 X118.537 Y132.022 E1.10401
G1 X119.074 Y132.022 E.02114
G1 X119.074 Y103.978 E1.10401
G1 X119.611 Y103.978 E.02114
G1 X119.611 Y132.022 E1.10401
G1 X120.148 Y132.022 E.02114
G1 X120.148 Y103.978 E1.10401
G1 X120.337 Y103.978 E.00743
G1 X120.337 Y104.358 E.01498
G1 E-5 F3600
G1 X115.582 Y106.315 F9000
G1 E5 F2400
G1 X115.315 Y106.315 E.01053
G1 X115.315 Y129.685 E.92001
G1 X114.778 Y129.685 E.02114
G1 X114.778 Y106.315 E.92001
G1 X114.24 Y106.315 E.02114
G1 X114.24 Y129.685 E.92001
G1 X113.703 Y129.685 E.02114
G1 X113.703 Y106.315 E.92001
G1 X113.166 Y106.315 E.02114
G1 X113.166 Y129.685 E.92001
G1 X112.629 Y129.685 E.02114
G1 X112.629 Y106.315 E.92001
G1 X112.092 Y106.315 E.02114
G1 X112.092 Y129.685 E.92001
G1 X111.555 Y129.685 E.02114
G1 X111.555 Y106.315 E.92001
G1 X111.018 Y106.315 E.02114
G1 X111.018 Y129.685 E.92001
G1 X110.481 Y129.685 E.02114
G1 X110.481 Y106.315 E.92001
G1 X109.944 Y106.315 E.02114
G1 X109.944 Y129.685 E.92001
G1 X109.407 Y129.685 E.02114
G1 X109.407 Y106.315 E.92001
G1 X108.87 Y106.315 E.02114
G1 X108.87 Y129.685 E.92001
G1 X108.652 Y129.685 E.00858
G1 X108.652 Y129.271 E.01631
G1 E-5 F3600
G1 X106.315 Y127.348 F9000
G1 E5 F2400
G1 X106.315 Y120.337 E.276
G1 X106.184 Y120.337 E.00513
G1 X106.184 Y115.663 E.184
G1 X106.315 Y115.663 E.00513
G1 X106.315 Y108.652 E.276
G1 X106.721 Y108.652 E.01601
G1 X106.721 Y127.348 E.73601
G1 X107.258 Y127.348 E.02114
G1 X107.258 Y108.652 E.73601
G1 X107.796 Y108.652 E.02114
G1 X107.795 Y127.348 E.73601
G1 X108.333 Y127.348 E.02114
G1 X108.333 Y108.652 E.73601
G1 X108.6 Y108.652 E.01053
G1 E-5 F3600
G1 X106.016 Y115.663 F9000
G1 E5 F2400
G1 X105.647 Y115.663 E.01451
G1 X105.647 Y120.337 E.184
G1 X105.11 Y120.337 E.02114
G1 X105.11 Y115.663 E.184
G1 X104.573 Y115.663 E.02114
G1 X104.573 Y120.337 E.184
G1 X104.036 Y120.337 E.02114
G1 X104.036 Y115.663 E.184
;LAYER_CHANGE
;Z:1.1
;HEIGHT:0.3
;BEFORE_LAYER_CHANGE
G92 E0
;1.1


G1 E-3.5 F3600
;WIPE_START
G1 F7200
G1 X104.036 Y118.663 E-1.425
;WIPE_END
G1 E-.075 F3600
G1 Z1.1 F9000
;AFTER_LAYER_CHANGE
;1.1
G1 X109.029 Y119.261
G1 X111.026 Y119.444
G1 X117.263 Y121.022
G1 X117.484 Y121.068
