; generated by PrusaSlicer 2.3.0-beta3+win64 on 2022-04-04 at 04:34:34 UTC

; 

; external perimeters extrusion width = 0.45mm
; perimeters extrusion width = 0.45mm
; infill extrusion width = 0.45mm
; solid infill extrusion width = 0.45mm
; top infill extrusion width = 0.40mm
; support material extrusion width = 0.38mm
; first layer extrusion width = 0.42mm

M201 X500 Y500 Z100 E5000 ; sets maximum accelerations, mm/sec^2
M203 X500 Y500 Z10 E60 ; sets maximum feedrates, mm/sec
M204 P500 R1000 T500 ; sets acceleration (P, T) and retract acceleration (R), mm/sec^2
M205 X8.00 Y8.00 Z0.40 E5.00 ; sets the jerk limits, mm/sec
M205 S0 T0 ; sets the minimum extruding and travel feed rate, mm/sec
M107
;TYPE:Custom
G90 ; use absolute coordinates
M83 ; extruder relative mode
M104 S230 ; set extruder temp
M140 S65 ; set bed temp
M190 S65 ; wait for bed temp
M109 S230 ; wait for extruder temp
G28 ; home all
G1 Z2 F240
G1 X2 Y10 F3000
G1 Z0.28 F240
G92 E0
G1 Y190 E15 F1500 ; intro line
G1 X2.3 F5000
G92 E0
G1 Y10 E15 F1200 ; intro line
G92 E0
G21 ; set units to millimeters
G90 ; use absolute coordinates
M83 ; use relative distances for extrusion
; Filament gcode
;LAYER_CHANGE
;Z:0.2
;HEIGHT:0.2
;BEFORE_LAYER_CHANGE
G92 E0
;0.2


G1 E-5.00000 F3600.000
G1 Z0.200 F9000.000
;AFTER_LAYER_CHANGE
;0.2
G1 X85.109 Y86.185
G1 E5.00000 F2400.000
;TYPE:Skirt
;WIDTH:0.42
G1 F1200.000
G1 X86.909 Y84.407 E0.07536
G1 X88.168 Y83.701 E0.04298
G1 X89.589 Y83.379 E0.04341
G1 X97.357 Y83.430 E0.23138
G1 X98.442 Y83.732 E0.03357
G1 X99.343 Y84.207 E0.03033
G1 X99.993 Y84.780 E0.02581
G1 X100.671 Y84.911 E0.02058
G1 X101.358 Y85.214 E0.02235
G1 X134.185 Y85.222 E0.97781
G1 X134.748 Y84.664 E0.02362
G1 X135.531 Y84.108 E0.02860
G1 X136.491 Y83.704 E0.03103
G1 X137.042 Y83.587 E0.01677
G1 X137.604 Y83.430 E0.01739
G1 X139.677 Y83.376 E0.06175
G1 X145.773 Y83.382 E0.18158
G1 X147.310 Y83.756 E0.04713
G1 X148.636 Y84.567 E0.04629
G1 X153.059 Y88.990 E0.18633
G1 X153.754 Y90.161 E0.04056
G1 X154.071 Y91.465 E0.03996
G1 X154.071 Y92.430 E0.02875
G1 X153.958 Y93.090 E0.01995
G1 X153.961 Y100.909 E0.23291
G1 X153.704 Y102.185 E0.03878
G1 X153.449 Y102.751 E0.01849
G1 X153.461 Y146.366 E1.29914
G1 X153.021 Y147.953 E0.04906
G1 X152.267 Y149.111 E0.04115
G1 X151.593 Y149.753 E0.02772
G1 X150.840 Y150.250 E0.02689
G1 X149.029 Y150.787 E0.05627
G1 X136.549 Y150.778 E0.37174
G1 X135.794 Y151.485 E0.03080
G1 X134.533 Y152.233 E0.04368
G1 X133.035 Y152.624 E0.04612
G1 X125.469 Y152.611 E0.22536
G1 X125.255 Y152.626 E0.00638
G1 X124.025 Y152.583 E0.03665
G1 X122.847 Y152.265 E0.03635
G1 X121.788 Y151.679 E0.03607
G1 X120.838 Y150.778 E0.03900
G1 X120.457 Y150.774 E0.01133
G1 X115.170 Y150.785 E0.15748
G1 X114.657 Y151.283 E0.02131
G1 X114.380 Y151.474 E0.01002
G1 X114.164 Y151.653 E0.00838
G1 X113.288 Y152.192 E0.03062
G1 X111.793 Y152.615 E0.04627
G1 X103.001 Y152.624 E0.26190
G1 X101.650 Y152.341 E0.04111
G1 X100.502 Y151.755 E0.03839
G1 X99.451 Y150.783 E0.04264
G1 X89.155 Y150.783 E0.30668
G1 X88.508 Y150.897 E0.01958
G1 X87.584 Y150.902 E0.02752
G1 X86.236 Y150.586 E0.04125
G1 X85.091 Y149.911 E0.03957
G1 X83.517 Y148.281 E0.06751
G1 X82.932 Y147.267 E0.03484
G1 X82.595 Y146.108 E0.03596
G1 X82.544 Y137.501 E0.25640
G1 X82.296 Y136.949 E0.01802
G1 X82.039 Y135.674 E0.03874
G1 X82.039 Y127.068 E0.25635
G1 X82.296 Y125.793 E0.03874
G1 X82.541 Y125.246 E0.01784
G1 X82.539 Y102.728 E0.67074
G1 X82.296 Y102.184 E0.01776
G1 X82.039 Y100.907 E0.03879
G1 X82.052 Y91.907 E0.26808
G1 X82.038 Y91.699 E0.00621
G1 X82.074 Y90.647 E0.03135
G1 X82.311 Y89.635 E0.03096
G1 X83.224 Y88.047 E0.05457
G1 X85.067 Y86.227 E0.07714
G1 X85.330 Y86.493 F9000.000
G1 F1200.000
G1 X87.116 Y84.724 E0.07489
G1 X88.328 Y84.044 E0.04139
G1 X89.608 Y83.756 E0.03907
G1 X97.281 Y83.800 E0.22856
G1 X98.285 Y84.076 E0.03101
G1 X99.147 Y84.529 E0.02900
G1 X99.820 Y85.132 E0.02694
G1 X100.540 Y85.265 E0.02180
G1 X101.278 Y85.591 E0.02404
G1 X134.343 Y85.598 E0.98488
G1 X134.981 Y84.961 E0.02686
G1 X135.697 Y84.447 E0.02626
G1 X136.620 Y84.058 E0.02982
G1 X137.133 Y83.953 E0.01560
G1 X137.639 Y83.806 E0.01570
G1 X139.679 Y83.753 E0.06077
G1 X145.750 Y83.759 E0.18085
G1 X147.140 Y84.094 E0.04258
G1 X148.385 Y84.850 E0.04340
G1 X152.775 Y89.240 E0.18492
G1 X153.415 Y90.328 E0.03759
G1 X153.694 Y91.487 E0.03551
G1 X153.694 Y92.413 E0.02759
G1 X153.581 Y93.056 E0.01946
G1 X153.584 Y100.890 E0.23334
G1 X153.339 Y102.087 E0.03641
G1 X153.071 Y102.667 E0.01903
G1 X153.084 Y146.340 E1.30085
G1 X152.666 Y147.823 E0.04589
G1 X151.990 Y148.853 E0.03671
G1 X151.371 Y149.448 E0.02557
G1 X150.656 Y149.920 E0.02554
G1 X149.002 Y150.410 E0.05137
G1 X136.399 Y150.401 E0.37541
G1 X135.583 Y151.172 E0.03341
G1 X134.363 Y151.895 E0.04226
G1 X133.011 Y152.247 E0.04161
G1 X125.455 Y152.234 E0.22507
G1 X125.258 Y152.248 E0.00590
G1 X124.060 Y152.207 E0.03570
G1 X123.008 Y151.924 E0.03245
G1 X122.029 Y151.388 E0.03323
G1 X120.990 Y150.402 E0.04268
G1 X120.459 Y150.397 E0.01582
G1 X115.017 Y150.408 E0.16209
G1 X114.407 Y151.000 E0.02533
G1 X114.154 Y151.171 E0.00909
G1 X113.934 Y151.354 E0.00855
G1 X113.114 Y151.857 E0.02865
G1 X111.767 Y152.238 E0.04168
G1 X103.020 Y152.247 E0.26056
G1 X101.799 Y151.994 E0.03714
G1 X100.698 Y151.431 E0.03683
G1 X99.601 Y150.406 E0.04473
G1 X89.122 Y150.406 E0.31214
G1 X88.489 Y150.520 E0.01914
G1 X87.604 Y150.525 E0.02638
G1 X86.400 Y150.246 E0.03679
G1 X85.343 Y149.630 E0.03644
G1 X83.832 Y148.072 E0.06466
G1 X83.271 Y147.099 E0.03344
G1 X82.964 Y146.030 E0.03313
G1 X82.921 Y137.416 E0.25657
G1 X82.661 Y136.851 E0.01853
G1 X82.416 Y135.655 E0.03638
G1 X82.416 Y127.087 E0.25520
G1 X82.661 Y125.891 E0.03637
G1 X82.918 Y125.330 E0.01838
G1 X82.916 Y102.645 E0.67570
G1 X82.661 Y102.086 E0.01830
G1 X82.416 Y100.888 E0.03643
G1 X82.429 Y91.893 E0.26793
G1 X82.415 Y91.700 E0.00577
G1 X82.445 Y90.715 E0.02937
G1 X82.672 Y89.748 E0.02956
G1 X83.507 Y88.297 E0.04988
G1 X85.287 Y86.535 E0.07459
G1 X85.550 Y86.800 F9000.000
G1 F1200.000
G1 X87.325 Y85.039 E0.07448
G1 X88.440 Y84.405 E0.03820
G1 X89.628 Y84.134 E0.03631
G1 X97.207 Y84.170 E0.22574
G1 X98.128 Y84.419 E0.02843
G1 X98.949 Y84.852 E0.02764
G1 X99.647 Y85.485 E0.02809
G1 X100.409 Y85.619 E0.02304
G1 X101.199 Y85.968 E0.02570
G1 X134.501 Y85.974 E0.99196
G1 X135.215 Y85.257 E0.03014
G1 X135.864 Y84.786 E0.02388
G1 X136.748 Y84.414 E0.02857
G1 X137.221 Y84.320 E0.01437
G1 X137.720 Y84.175 E0.01547
G1 X139.680 Y84.130 E0.05840
G1 X145.727 Y84.136 E0.18011
G1 X147.021 Y84.453 E0.03970
G1 X148.135 Y85.132 E0.03884
G1 X152.491 Y89.489 E0.18352
G1 X153.075 Y90.493 E0.03459
G1 X153.317 Y91.509 E0.03111
G1 X153.317 Y92.396 E0.02642
G1 X153.203 Y93.022 E0.01896
G1 X153.207 Y100.870 E0.23378
G1 X152.975 Y101.988 E0.03399
G1 X152.694 Y102.582 E0.01957
G1 X152.707 Y146.313 E1.30259
G1 X152.312 Y147.690 E0.04268
G1 X151.713 Y148.597 E0.03235
G1 X151.148 Y149.143 E0.02342
G1 X150.471 Y149.590 E0.02417
G1 X148.975 Y150.033 E0.04647
G1 X136.247 Y150.024 E0.37912
G1 X135.372 Y150.858 E0.03601
G1 X134.194 Y151.557 E0.04081
G1 X132.988 Y151.870 E0.03711
G1 X125.440 Y151.857 E0.22482
G1 X125.258 Y151.871 E0.00545
G1 X124.135 Y151.837 E0.03348
G1 X123.166 Y151.581 E0.02983
G1 X122.270 Y151.097 E0.03034
G1 X121.141 Y150.026 E0.04634
G1 X120.460 Y150.020 E0.02030
G1 X114.863 Y150.031 E0.16673
G1 X114.181 Y150.698 E0.02839
G1 X113.926 Y150.870 E0.00918
G1 X113.724 Y151.041 E0.00788
G1 X112.939 Y151.522 E0.02744
G1 X111.741 Y151.861 E0.03707
G1 X103.039 Y151.870 E0.25919
G1 X101.902 Y151.630 E0.03461
G1 X100.895 Y151.109 E0.03378
G1 X99.751 Y150.029 E0.04687
G1 X89.087 Y150.029 E0.31766
G1 X88.470 Y150.143 E0.01869
G1 X87.623 Y150.148 E0.02523
G1 X86.563 Y149.905 E0.03238
G1 X85.595 Y149.347 E0.03329
G1 X84.145 Y147.861 E0.06183
G1 X83.626 Y146.972 E0.03065
G1 X83.334 Y145.951 E0.03164
G1 X83.297 Y137.331 E0.25677
G1 X83.025 Y136.752 E0.01906
G1 X82.793 Y135.635 E0.03397
G1 X82.793 Y127.107 E0.25403
G1 X83.025 Y125.990 E0.03397
G1 X83.295 Y125.415 E0.01893
G1 X83.293 Y102.560 E0.68075
G1 X83.025 Y101.987 E0.01885
G1 X82.793 Y100.869 E0.03402
G1 X82.806 Y91.878 E0.26780
G1 X82.792 Y91.701 E0.00530
G1 X82.821 Y90.746 E0.02847
G1 X83.032 Y89.863 E0.02704
G1 X83.791 Y88.547 E0.04525
G1 X85.508 Y86.843 E0.07205
G1 X85.772 Y87.108 F9000.000
G1 F1200.000
G1 X87.535 Y85.353 E0.07411
G1 X88.553 Y84.765 E0.03501
G1 X89.649 Y84.511 E0.03351
G1 X97.134 Y84.541 E0.22295
G1 X97.972 Y84.763 E0.02582
G1 X98.751 Y85.173 E0.02624
G1 X99.474 Y85.839 E0.02927
G1 X100.279 Y85.974 E0.02431
G1 X101.119 Y86.345 E0.02734
G1 X134.659 Y86.349 E0.99904
G1 X135.472 Y85.533 E0.03431
G1 X136.031 Y85.125 E0.02062
G1 X136.875 Y84.769 E0.02729
G1 X137.308 Y84.687 E0.01312
G1 X137.801 Y84.545 E0.01528
G1 X139.682 Y84.508 E0.05603
G1 X145.704 Y84.513 E0.17940
G1 X146.852 Y84.791 E0.03516
G1 X147.884 Y85.415 E0.03595
G1 X152.206 Y89.737 E0.18207
G1 X152.734 Y90.656 E0.03156
G1 X152.940 Y91.530 E0.02675
G1 X152.940 Y92.378 E0.02524
G1 X152.826 Y92.986 E0.01845
G1 X152.830 Y100.850 E0.23424
G1 X152.611 Y101.886 E0.03154
G1 X152.320 Y102.490 E0.01996
G1 X152.317 Y102.588 E0.00291
G1 X152.330 Y146.286 E1.30162
G1 X151.958 Y147.556 E0.03943
G1 X151.437 Y148.339 E0.02802
G1 X150.899 Y148.859 E0.02228
G1 X150.288 Y149.260 E0.02177
G1 X148.948 Y149.655 E0.04161
G1 X136.096 Y149.647 E0.38281
G1 X135.132 Y150.567 E0.03970
G1 X134.713 Y150.797 E0.01423
G1 X134.020 Y151.221 E0.02421
G1 X132.965 Y151.493 E0.03246
G1 X125.424 Y151.480 E0.22461
G1 X125.258 Y151.494 E0.00497
G1 X124.168 Y151.461 E0.03247
G1 X123.287 Y151.223 E0.02719
G1 X122.474 Y150.779 E0.02762
G1 X121.295 Y149.651 E0.04860
G1 X120.461 Y149.643 E0.02482
G1 X114.707 Y149.654 E0.17140
G1 X113.956 Y150.395 E0.03144
G1 X113.696 Y150.571 E0.00932
G1 X113.513 Y150.727 E0.00718
G1 X112.764 Y151.187 E0.02619
G1 X111.715 Y151.484 E0.03247
G1 X103.058 Y151.493 E0.25784
G1 X102.053 Y151.283 E0.03059
G1 X101.093 Y150.787 E0.03219
G1 X99.903 Y149.652 E0.04899
G1 X89.051 Y149.652 E0.32323
G1 X88.450 Y149.766 E0.01822
G1 X87.643 Y149.770 E0.02403
G1 X86.677 Y149.544 E0.02957
G1 X85.846 Y149.065 E0.02858
G1 X84.459 Y147.651 E0.05899
G1 X83.964 Y146.804 E0.02922
G1 X83.704 Y145.874 E0.02874
G1 X83.674 Y137.243 E0.25709
G1 X83.389 Y136.650 E0.01960
G1 X83.170 Y135.615 E0.03153
G1 X83.170 Y127.127 E0.25284
G1 X83.389 Y126.091 E0.03152
G1 X83.672 Y125.501 E0.01949
G1 X83.670 Y102.474 E0.68591
G1 X83.389 Y101.886 E0.01941
G1 X83.170 Y100.849 E0.03156
G1 X83.183 Y91.862 E0.26769
G1 X83.169 Y91.700 E0.00486
G1 X83.193 Y90.814 E0.02639
G1 X83.393 Y89.977 E0.02563
G1 X84.075 Y88.796 E0.04062
G1 X85.729 Y87.150 E0.06952
G1 X85.993 Y87.415 F9000.000
G1 F1200.000
G1 X87.747 Y85.665 E0.07378
G1 X88.668 Y85.126 E0.03181
G1 X89.671 Y84.888 E0.03068
G1 X97.061 Y84.912 E0.22013
G1 X97.854 Y85.122 E0.02443
G1 X98.551 Y85.494 E0.02355
G1 X99.332 Y86.222 E0.03181
G1 X99.537 Y86.228 E0.00612
G1 X100.149 Y86.329 E0.01847
G1 X101.040 Y86.722 E0.02900
G1 X134.817 Y86.725 E1.00611
G1 X135.729 Y85.809 E0.03850
G1 X136.199 Y85.464 E0.01736
G1 X137.002 Y85.125 E0.02596
G1 X137.393 Y85.055 E0.01185
G1 X137.881 Y84.914 E0.01514
G1 X139.683 Y84.885 E0.05366
G1 X145.681 Y84.890 E0.17867
G1 X146.733 Y85.150 E0.03227
G1 X147.633 Y85.698 E0.03141
G1 X151.921 Y89.986 E0.18063
G1 X152.392 Y90.817 E0.02847
G1 X152.563 Y91.552 E0.02245
G1 X152.563 Y92.359 E0.02405
G1 X152.449 Y92.950 E0.01792
G1 X152.452 Y100.830 E0.23472
G1 X152.247 Y101.783 E0.02904
G1 X151.945 Y102.397 E0.02037
G1 X151.940 Y102.583 E0.00555
G1 X151.952 Y146.258 E1.30093
G1 X151.606 Y147.420 E0.03613
G1 X151.160 Y148.083 E0.02378
G1 X150.677 Y148.554 E0.02010
G1 X150.104 Y148.929 E0.02039
G1 X148.921 Y149.278 E0.03674
G1 X135.946 Y149.270 E0.38650
G1 X134.891 Y150.275 E0.04340
G1 X134.527 Y150.469 E0.01228
G1 X133.848 Y150.885 E0.02373
G1 X132.942 Y151.115 E0.02784
G1 X125.406 Y151.103 E0.22446
G1 X125.257 Y151.117 E0.00446
G1 X124.203 Y151.085 E0.03142
G1 X123.410 Y150.866 E0.02451
G1 X122.678 Y150.461 E0.02490
G1 X121.449 Y149.275 E0.05090
G1 X120.463 Y149.266 E0.02937
G1 X114.551 Y149.278 E0.17608
G1 X113.729 Y150.093 E0.03449
G1 X113.465 Y150.272 E0.00952
G1 X113.302 Y150.415 E0.00646
G1 X112.589 Y150.852 E0.02491
G1 X111.688 Y151.107 E0.02787
G1 X103.078 Y151.115 E0.25647
G1 X102.157 Y150.920 E0.02804
G1 X101.293 Y150.466 E0.02908
G1 X100.055 Y149.275 E0.05117
G1 X89.014 Y149.275 E0.32887
G1 X88.430 Y149.389 E0.01773
G1 X87.663 Y149.393 E0.02284
G1 X86.838 Y149.202 E0.02522
G1 X86.095 Y148.781 E0.02545
G1 X84.771 Y147.438 E0.05617
G1 X84.321 Y146.677 E0.02633
G1 X84.074 Y145.797 E0.02723
G1 X84.051 Y137.155 E0.25744
G1 X83.753 Y136.547 E0.02015
G1 X83.548 Y135.595 E0.02903
G1 X83.548 Y127.147 E0.25163
G1 X83.753 Y126.194 E0.02903
G1 X84.049 Y125.590 E0.02006
G1 X84.048 Y102.386 E0.69117
G1 X83.753 Y101.783 E0.01998
G1 X83.547 Y100.829 E0.02906
G1 X83.560 Y91.845 E0.26762
G1 X83.546 Y91.696 E0.00444
G1 X83.564 Y90.882 E0.02427
G1 X83.753 Y90.092 E0.02420
G1 X84.358 Y89.046 E0.03599
G1 X85.951 Y87.457 E0.06700
G1 X86.215 Y87.722 F9000.000
G1 F1200.000
G1 X87.961 Y85.977 E0.07352
G1 X88.786 Y85.485 E0.02861
G1 X89.693 Y85.265 E0.02780
G1 X96.990 Y85.283 E0.21736
G1 X97.696 Y85.466 E0.02174
G1 X98.351 Y85.815 E0.02210
G1 X99.180 Y86.599 E0.03400
G1 X99.495 Y86.602 E0.00937
G1 X100.020 Y86.684 E0.01584
G1 X100.960 Y87.099 E0.03060
G1 X134.975 Y87.101 E1.01319
G1 X135.986 Y86.086 E0.04266
G1 X136.402 Y85.782 E0.01536
G1 X137.125 Y85.482 E0.02330
G1 X137.480 Y85.423 E0.01072
G1 X137.915 Y85.290 E0.01356
G1 X139.684 Y85.262 E0.05269
G1 X145.658 Y85.267 E0.17796
G1 X146.563 Y85.488 E0.02775
G1 X147.383 Y85.981 E0.02850
G1 X151.636 Y90.233 E0.17913
G1 X152.050 Y90.977 E0.02534
G1 X152.186 Y91.573 E0.01821
G1 X152.186 Y92.344 E0.02297
G1 X152.112 Y92.758 E0.01252
G1 X152.072 Y92.875 E0.00369
G1 X152.075 Y100.810 E0.23634
G1 X151.885 Y101.678 E0.02649
G1 X151.570 Y102.302 E0.02080
G1 X151.563 Y102.578 E0.00824
G1 X151.575 Y146.229 E1.30022
G1 X151.254 Y147.282 E0.03278
G1 X150.884 Y147.826 E0.01959
G1 X150.427 Y148.271 E0.01898
G1 X149.923 Y148.598 E0.01792
G1 X148.894 Y148.901 E0.03193
G1 X135.793 Y148.892 E0.39025
G1 X134.690 Y149.955 E0.04562
G1 X134.337 Y150.143 E0.01191
G1 X133.723 Y150.528 E0.02159
G1 X132.918 Y150.738 E0.02480
G1 X125.386 Y150.726 E0.22433
G1 X125.253 Y150.739 E0.00398
G1 X124.278 Y150.715 E0.02906
G1 X123.572 Y150.525 E0.02179
G1 X122.883 Y150.144 E0.02344
G1 X121.604 Y148.899 E0.05317
G1 X120.464 Y148.889 E0.03395
G1 X114.396 Y148.901 E0.18076
G1 X113.478 Y149.811 E0.03851
G1 X113.233 Y149.973 E0.00873
G1 X113.086 Y150.105 E0.00588
G1 X112.457 Y150.498 E0.02210
G1 X111.660 Y150.730 E0.02471
G1 X103.098 Y150.738 E0.25504
G1 X102.264 Y150.558 E0.02543
G1 X101.495 Y150.147 E0.02597
G1 X100.209 Y148.897 E0.05341
G1 X88.939 Y148.898 E0.33568
G1 X88.822 Y148.938 E0.00369
G1 X88.412 Y149.012 E0.01239
G1 X87.682 Y149.016 E0.02175
G1 X86.997 Y148.859 E0.02093
G1 X86.343 Y148.496 E0.02229
G1 X85.084 Y147.226 E0.05328
G1 X84.658 Y146.508 E0.02485
G1 X84.444 Y145.723 E0.02423
G1 X84.428 Y137.064 E0.25792
G1 X84.115 Y136.442 E0.02073
G1 X83.925 Y135.574 E0.02649
G1 X83.925 Y127.168 E0.25038
G1 X84.115 Y126.299 E0.02649
G1 X84.427 Y125.680 E0.02064
G1 X84.425 Y102.296 E0.69654
G1 X84.115 Y101.678 E0.02056
G1 X83.925 Y100.809 E0.02651
G1 X83.937 Y91.825 E0.26759
G1 X83.924 Y91.692 E0.00399
G1 X83.941 Y90.911 E0.02328
G1 X84.113 Y90.208 E0.02156
G1 X84.642 Y89.295 E0.03143
G1 X86.173 Y87.764 E0.06448
G1 X86.440 Y88.031 F9000.000
G1 F1200.000
G1 X88.210 Y86.261 E0.07457
G1 X88.952 Y85.824 E0.02564
G1 X89.714 Y85.642 E0.02335
G1 X96.919 Y85.654 E0.21459
G1 X97.579 Y85.825 E0.02032
G1 X98.148 Y86.133 E0.01928
G1 X99.028 Y86.975 E0.03628
G1 X99.456 Y86.978 E0.01274
G1 X99.894 Y87.040 E0.01319
G1 X100.702 Y87.392 E0.02623
G1 X100.823 Y87.476 E0.00439
G1 X135.133 Y87.476 E1.02197
G1 X136.242 Y86.363 E0.04680
G1 X136.604 Y86.101 E0.01332
G1 X137.244 Y85.840 E0.02059
G1 X137.562 Y85.792 E0.00957
G1 X137.999 Y85.659 E0.01361
G1 X139.684 Y85.639 E0.05020
G1 X145.634 Y85.644 E0.17723
G1 X146.444 Y85.846 E0.02485
