; generated by PrusaSlicer 2.3.0-beta3+win64 on 2022-04-06 at 00:31:20 UTC

; 

; external perimeters extrusion width = 0.45mm
; perimeters extrusion width = 0.50mm
; infill extrusion width = 0.45mm
; solid infill extrusion width = 0.45mm
; top infill extrusion width = 0.40mm
; support material extrusion width = 0.38mm
; first layer extrusion width = 0.50mm

M201 X500 Y500 Z100 E5000 ; sets maximum accelerations, mm/sec^2
M203 X500 Y500 Z10 E60 ; sets maximum feedrates, mm/sec
M204 P500 R1000 T500 ; sets acceleration (P, T) and retract acceleration (R), mm/sec^2
M205 X8.00 Y8.00 Z0.40 E5.00 ; sets the jerk limits, mm/sec
M205 S0 T0 ; sets the minimum extruding and travel feed rate, mm/sec
M107
;TYPE:Custom
G90 ; use absolute coordinates
M83 ; extruder relative mode
M104 S215 ; set extruder temp
M140 S55 ; set bed temp
M190 S55 ; wait for bed temp
M109 S215 ; wait for extruder temp
G28 ; home all
G1 Z2 F240
G1 X2 Y10 F3000
G1 Z0.28 F240
G92 E0
G1 Y190 E15 F1500 ; intro line
G1 X2.3 F5000
G92 E0
G1 Y10 E15 F1200 ; intro line
G92 E0
G21 ; set units to millimeters
G90 ; use absolute coordinates
M83 ; use relative distances for extrusion
; Filament gcode
;LAYER_CHANGE
;Z:0.2
;HEIGHT:0.2
;BEFORE_LAYER_CHANGE
G92 E0
;0.2


G1 E-5.00000 F3600.000
G1 Z0.200 F9000.000
;AFTER_LAYER_CHANGE
;0.2
G1 X84.837 Y85.024
G1 E5.00000 F2400.000
;TYPE:Skirt
;WIDTH:0.5
G1 F1200.000
G1 X85.726 Y84.137 E0.04770
G1 X86.423 Y83.609 E0.03326
G1 X87.594 Y82.888 E0.05226
G1 X89.508 Y82.376 E0.07531
G1 X97.156 Y82.395 E0.29067
G1 X98.937 Y82.857 E0.06991
G1 X99.916 Y83.388 E0.04235
G1 X100.465 Y83.858 E0.02747
G1 X101.059 Y83.986 E0.02309
G1 X101.581 Y84.216 E0.02166
G1 X128.347 Y84.224 E1.01729
G1 X129.364 Y84.219 E0.03864
G1 X130.155 Y84.080 E0.03051
G1 X131.243 Y84.074 E0.04136
G1 X132.298 Y84.247 E0.04063
G1 X132.446 Y84.293 E0.00590
G1 X132.817 Y84.224 E0.01434
G1 X133.823 Y84.224 E0.03824
G1 X134.785 Y83.363 E0.04907
G1 X136.021 Y82.740 E0.05262
G1 X137.297 Y82.421 E0.04997
G1 X138.595 Y82.376 E0.04939
G1 X146.014 Y82.381 E0.28195
G1 X147.752 Y82.790 E0.06784
G1 X149.296 Y83.680 E0.06776
G1 X153.891 Y88.253 E0.24639
G1 X154.430 Y89.036 E0.03611
G1 X154.808 Y89.865 E0.03464
G1 X155.101 Y91.299 E0.05565
G1 X155.094 Y92.397 E0.04173
G1 X154.957 Y93.181 E0.03023
G1 X154.961 Y100.946 E0.29513
G1 X154.698 Y102.351 E0.05434
G1 X154.450 Y102.954 E0.02474
G1 X154.460 Y113.025 E0.38276
G1 X154.600 Y113.907 E0.03396
G1 X154.594 Y114.984 E0.04091
G1 X154.456 Y115.774 E0.03051
G1 X154.450 Y116.791 E0.03864
G1 X154.461 Y146.434 E1.12662
G1 X154.019 Y148.133 E0.06671
G1 X153.885 Y148.449 E0.01307
G1 X152.662 Y150.095 E0.07794
G1 X151.396 Y150.988 E0.05889
G1 X150.179 Y151.488 E0.05001
G1 X148.913 Y151.738 E0.04903
G1 X148.606 Y151.746 E0.01168
G1 X148.264 Y151.787 E0.01307
G1 X136.919 Y151.787 E0.43119
G1 X135.913 Y152.685 E0.05126
G1 X134.704 Y153.269 E0.05104
G1 X133.098 Y153.624 E0.06251
G1 X124.181 Y153.610 E0.33890
G1 X122.479 Y153.193 E0.06659
G1 X121.302 Y152.559 E0.05079
G1 X120.453 Y151.785 E0.04369
G1 X115.574 Y151.776 E0.18543
G1 X115.039 Y152.280 E0.02796
G1 X114.208 Y152.803 E0.03729
G1 X113.424 Y153.139 E0.03243
G1 X112.017 Y153.538 E0.05559
G1 X109.614 Y153.625 E0.09140
G1 X104.771 Y153.620 E0.18404
G1 X103.988 Y153.757 E0.03020
G1 X102.901 Y153.763 E0.04134
G1 X101.804 Y153.579 E0.04228
G1 X100.735 Y153.152 E0.04374
G1 X99.912 Y152.610 E0.03744
G1 X99.060 Y151.786 E0.04505
G1 X86.911 Y151.745 E0.46176
G1 X85.461 Y151.364 E0.05696
G1 X84.196 Y150.670 E0.05482
G1 X82.561 Y149.112 E0.08587
G1 X82.062 Y148.375 E0.03381
G1 X81.692 Y147.558 E0.03409
G1 X81.404 Y146.184 E0.05336
G1 X81.405 Y145.036 E0.04363
G1 X81.543 Y144.243 E0.03059
G1 X81.539 Y135.515 E0.33173
G1 X81.435 Y135.272 E0.01006
G1 X81.039 Y133.589 E0.06570
G1 X81.039 Y124.177 E0.35770
G1 X81.391 Y122.663 E0.05909
G1 X81.541 Y122.340 E0.01353
G1 X81.539 Y102.242 E0.76386
G1 X81.302 Y101.663 E0.02377
G1 X81.039 Y100.259 E0.05430
G1 X81.039 Y92.736 E0.28592
G1 X81.163 Y90.152 E0.09834
G1 X81.716 Y88.708 E0.05876
G1 X81.913 Y88.417 E0.01336
G1 X82.170 Y87.900 E0.02193
G1 X82.778 Y87.079 E0.03881
G1 X84.795 Y85.066 E0.10831
G1 X85.117 Y85.389 F9000.000
G1 F1200.000
G1 X86.015 Y84.492 E0.04822
G1 X86.673 Y83.993 E0.03140
G1 X87.805 Y83.295 E0.05056
G1 X89.537 Y82.833 E0.06812
G1 X97.126 Y82.852 E0.28843
G1 X98.743 Y83.272 E0.06349
G1 X99.675 Y83.778 E0.04031
G1 X100.256 Y84.282 E0.02922
G1 X100.898 Y84.415 E0.02494
G1 X101.485 Y84.673 E0.02435
G1 X128.348 Y84.681 E1.02098
G1 X129.406 Y84.675 E0.04021
G1 X130.178 Y84.537 E0.02978
G1 X131.226 Y84.531 E0.03984
G1 X132.201 Y84.694 E0.03758
G1 X132.414 Y84.767 E0.00856
G1 X132.841 Y84.681 E0.01656
G1 X134.001 Y84.681 E0.04407
G1 X135.020 Y83.756 E0.05233
G1 X136.160 Y83.177 E0.04857
G1 X137.337 Y82.877 E0.04620
G1 X138.599 Y82.833 E0.04798
G1 X145.987 Y82.838 E0.28077
G1 X147.612 Y83.226 E0.06350
G1 X149.040 Y84.059 E0.06285
G1 X153.527 Y88.531 E0.24077
G1 X154.023 Y89.244 E0.03300
G1 X154.382 Y90.031 E0.03285
G1 X154.643 Y91.320 E0.05001
G1 X154.637 Y92.375 E0.04007
G1 X154.500 Y93.140 E0.02955
G1 X154.504 Y100.924 E0.29586
G1 X154.254 Y102.241 E0.05094
G1 X153.995 Y102.856 E0.02535
G1 X153.993 Y102.953 E0.00368
G1 X154.003 Y113.062 E0.38422
G1 X154.143 Y113.924 E0.03318
G1 X154.137 Y114.961 E0.03941
G1 X153.999 Y115.732 E0.02978
G1 X153.993 Y116.790 E0.04020
G1 X154.004 Y146.404 E1.12553
G1 X153.582 Y147.998 E0.06268
G1 X153.476 Y148.244 E0.01018
G1 X152.367 Y149.744 E0.07090
G1 X151.198 Y150.576 E0.05453
G1 X150.026 Y151.056 E0.04812
G1 X148.847 Y151.285 E0.04565
G1 X148.575 Y151.290 E0.01036
G1 X148.250 Y151.330 E0.01245
G1 X136.742 Y151.330 E0.43737
G1 X135.684 Y152.288 E0.05425
G1 X134.529 Y152.846 E0.04875
G1 X133.073 Y153.167 E0.05665
G1 X124.209 Y153.153 E0.33692
G1 X122.670 Y152.776 E0.06021
G1 X121.545 Y152.171 E0.04856
G1 X120.633 Y151.328 E0.04720
G1 X115.390 Y151.318 E0.19926
G1 X114.774 Y151.907 E0.03239
G1 X114.011 Y152.391 E0.03435
G1 X113.283 Y152.704 E0.03011
G1 X111.972 Y153.082 E0.05186
G1 X109.610 Y153.168 E0.08983
G1 X104.730 Y153.163 E0.18545
G1 X103.966 Y153.300 E0.02953
G1 X102.918 Y153.306 E0.03980
G1 X101.906 Y153.132 E0.03904
G1 X100.929 Y152.737 E0.04006
G1 X100.184 Y152.241 E0.03401
G1 X99.247 Y151.329 E0.04970
G1 X86.997 Y151.295 E0.46558
G1 X85.656 Y150.949 E0.05265
G1 X84.442 Y150.284 E0.05258
G1 X82.926 Y148.836 E0.07970
G1 X82.452 Y148.136 E0.03212
G1 X82.119 Y147.394 E0.03090
G1 X81.861 Y146.161 E0.04787
G1 X81.862 Y145.057 E0.04195
G1 X82.000 Y144.284 E0.02985
G1 X81.996 Y135.415 E0.33708
G1 X81.874 Y135.142 E0.01136
G1 X81.496 Y133.562 E0.06176
G1 X81.496 Y124.204 E0.35564
G1 X81.829 Y122.795 E0.05504
G1 X81.998 Y122.447 E0.01468
G1 X81.996 Y102.149 E0.77147
G1 X81.746 Y101.553 E0.02456
G1 X81.496 Y100.237 E0.05091
G1 X81.496 Y92.741 E0.28492
G1 X81.604 Y90.278 E0.09367
G1 X82.109 Y88.942 E0.05432
G1 X82.310 Y88.646 E0.01358
G1 X82.550 Y88.154 E0.02082
G1 X83.113 Y87.390 E0.03604
G1 X85.074 Y85.431 E0.10536
G1 X85.397 Y85.754 F9000.000
G1 F1200.000
G1 X86.326 Y84.827 E0.04990
G1 X86.922 Y84.376 E0.02837
G1 X88.017 Y83.702 E0.04887
G1 X89.566 Y83.290 E0.06093
G1 X97.096 Y83.309 E0.28620
G1 X98.550 Y83.687 E0.05707
G1 X99.434 Y84.167 E0.03823
G1 X100.046 Y84.707 E0.03103
G1 X100.738 Y84.844 E0.02684
G1 X101.389 Y85.130 E0.02700
G1 X128.350 Y85.138 E1.02467
G1 X129.450 Y85.132 E0.04181
G1 X130.201 Y84.994 E0.02903
G1 X131.208 Y84.988 E0.03827
G1 X132.101 Y85.141 E0.03444
G1 X132.381 Y85.242 E0.01130
G1 X132.867 Y85.138 E0.01889
G1 X134.180 Y85.139 E0.04990
G1 X135.257 Y84.148 E0.05564
G1 X136.300 Y83.613 E0.04453
G1 X137.379 Y83.333 E0.04237
G1 X138.603 Y83.290 E0.04655
G1 X145.959 Y83.295 E0.27957
G1 X147.470 Y83.662 E0.05911
G1 X148.783 Y84.438 E0.05794
G1 X153.165 Y88.810 E0.23529
G1 X153.616 Y89.454 E0.02986
G1 X153.955 Y90.197 E0.03103
G1 X154.186 Y91.341 E0.04437
G1 X154.180 Y92.351 E0.03840
G1 X154.043 Y93.098 E0.02885
G1 X154.047 Y100.902 E0.29662
G1 X153.810 Y102.129 E0.04748
G1 X153.540 Y102.757 E0.02596
G1 X153.536 Y102.949 E0.00729
G1 X153.546 Y113.100 E0.38583
G1 X153.686 Y113.941 E0.03239
G1 X153.680 Y114.937 E0.03787
G1 X153.542 Y115.689 E0.02903
G1 X153.536 Y116.789 E0.04181
G1 X153.547 Y146.373 E1.12441
G1 X153.146 Y147.861 E0.05856
G1 X153.068 Y148.037 E0.00729
G1 X152.071 Y149.394 E0.06403
G1 X150.998 Y150.164 E0.05018
G1 X149.915 Y150.612 E0.04455
G1 X148.819 Y150.829 E0.04245
G1 X148.541 Y150.833 E0.01057
G1 X148.234 Y150.872 E0.01175
G1 X136.563 Y150.872 E0.44359
G1 X135.452 Y151.892 E0.05731
G1 X134.402 Y152.406 E0.04444
G1 X133.048 Y152.710 E0.05272
G1 X124.236 Y152.696 E0.33490
G1 X122.861 Y152.360 E0.05382
G1 X121.788 Y151.783 E0.04629
G1 X120.815 Y150.871 E0.05069
G1 X115.205 Y150.861 E0.21322
G1 X114.508 Y151.535 E0.03684
G1 X113.811 Y151.979 E0.03142
G1 X113.152 Y152.265 E0.02730
G1 X112.679 Y152.389 E0.01862
G1 X112.520 Y152.454 E0.00650
G1 X111.927 Y152.626 E0.02348
G1 X109.606 Y152.711 E0.08827
G1 X104.689 Y152.706 E0.18689
G1 X103.942 Y152.843 E0.02883
G1 X102.937 Y152.849 E0.03823
G1 X102.010 Y152.687 E0.03575
G1 X101.124 Y152.323 E0.03640
G1 X100.488 Y151.899 E0.02906
G1 X99.433 Y150.872 E0.05594
G1 X87.083 Y150.846 E0.46937
G1 X85.799 Y150.514 E0.05043
G1 X84.690 Y149.899 E0.04817
G1 X83.290 Y148.558 E0.07370
G1 X82.861 Y147.929 E0.02893
G1 X82.546 Y147.229 E0.02917
G1 X82.319 Y146.138 E0.04237
G1 X82.320 Y145.079 E0.04026
G1 X82.457 Y144.326 E0.02909
G1 X82.453 Y135.311 E0.34262
G1 X82.312 Y135.010 E0.01265
G1 X81.953 Y133.534 E0.05772
G1 X81.953 Y124.232 E0.35354
G1 X82.267 Y122.930 E0.05088
G1 X82.455 Y122.559 E0.01582
G1 X82.453 Y102.054 E0.77932
G1 X82.190 Y101.441 E0.02535
G1 X81.953 Y100.215 E0.04746
G1 X81.953 Y92.745 E0.28393
G1 X82.045 Y90.403 E0.08906
G1 X82.503 Y89.175 E0.04981
G1 X82.708 Y88.874 E0.01384
G1 X82.932 Y88.406 E0.01973
G1 X83.449 Y87.701 E0.03321
G1 X85.355 Y85.797 E0.10240
G1 X85.678 Y86.120 F9000.000
G1 F1200.000
G1 X86.638 Y85.161 E0.05157
G1 X87.170 Y84.760 E0.02534
G1 X88.228 Y84.109 E0.04719
G1 X89.594 Y83.747 E0.05374
G1 X97.066 Y83.766 E0.28397
G1 X98.356 Y84.102 E0.05065
G1 X99.191 Y84.555 E0.03613
G1 X99.835 Y85.133 E0.03289
G1 X100.579 Y85.273 E0.02878
G1 X101.293 Y85.587 E0.02962
G1 X128.351 Y85.595 E1.02837
G1 X129.494 Y85.589 E0.04347
G1 X130.225 Y85.451 E0.02826
G1 X131.190 Y85.445 E0.03667
G1 X131.999 Y85.587 E0.03121
G1 X132.347 Y85.719 E0.01416
G1 X132.894 Y85.595 E0.02131
G1 X134.360 Y85.596 E0.05574
G1 X135.496 Y84.538 E0.05898
G1 X136.442 Y84.048 E0.04049
G1 X137.421 Y83.789 E0.03849
G1 X138.607 Y83.748 E0.04509
G1 X145.930 Y83.752 E0.27835
G1 X147.326 Y84.097 E0.05465
G1 X148.523 Y84.815 E0.05303
G1 X152.802 Y89.089 E0.22987
G1 X153.229 Y89.698 E0.02826
G1 X153.528 Y90.360 E0.02761
G1 X153.729 Y91.361 E0.03881
G1 X153.723 Y92.327 E0.03671
G1 X153.586 Y93.055 E0.02813
G1 X153.590 Y100.880 E0.29741
G1 X153.366 Y102.015 E0.04396
G1 X153.085 Y102.655 E0.02660
G1 X153.079 Y102.944 E0.01098
G1 X153.089 Y113.140 E0.38749
G1 X153.229 Y113.959 E0.03158
G1 X153.223 Y114.913 E0.03628
G1 X153.085 Y115.644 E0.02826
G1 X153.079 Y116.788 E0.04346
G1 X153.090 Y146.342 E1.12326
G1 X152.710 Y147.721 E0.05433
G1 X152.662 Y147.826 E0.00439
G1 X151.773 Y149.046 E0.05739
G1 X150.798 Y149.752 E0.04576
G1 X149.762 Y150.181 E0.04261
G1 X148.756 Y150.375 E0.03894
G1 X148.511 Y150.376 E0.00931
G1 X148.218 Y150.415 E0.01122
G1 X136.382 Y150.415 E0.44984
G1 X135.218 Y151.498 E0.06041
G1 X134.273 Y151.967 E0.04011
G1 X133.023 Y152.253 E0.04874
G1 X124.264 Y152.239 E0.33287
G1 X123.049 Y151.943 E0.04754
G1 X122.078 Y151.428 E0.04177
G1 X120.996 Y150.415 E0.05635
G1 X115.020 Y150.403 E0.22711
G1 X114.207 Y151.190 E0.04299
G1 X113.613 Y151.567 E0.02675
G1 X112.988 Y151.839 E0.02591
G1 X112.532 Y151.955 E0.01788
G1 X112.379 Y152.019 E0.00629
G1 X111.828 Y152.179 E0.02183
G1 X109.603 Y152.253 E0.08460
G1 X104.645 Y152.249 E0.18841
G1 X103.918 Y152.386 E0.02812
G1 X102.955 Y152.392 E0.03661
G1 X102.115 Y152.241 E0.03244
G1 X101.356 Y151.929 E0.03118
G1 X100.793 Y151.558 E0.02566
G1 X99.708 Y150.489 E0.05786
G1 X99.430 Y150.415 E0.01092
G1 X87.167 Y150.396 E0.46608
G1 X85.994 Y150.099 E0.04600
G1 X84.938 Y149.514 E0.04588
G1 X83.654 Y148.281 E0.06765
G1 X83.250 Y147.689 E0.02723
G1 X82.974 Y147.066 E0.02590
G1 X82.776 Y146.115 E0.03695
G1 X82.777 Y145.101 E0.03854
G1 X82.914 Y144.369 E0.02830
G1 X82.911 Y135.203 E0.34836
G1 X82.749 Y134.874 E0.01392
G1 X82.410 Y133.506 E0.05357
G1 X82.410 Y124.260 E0.35139
G1 X82.703 Y123.069 E0.04660
G1 X82.912 Y122.675 E0.01696
G1 X82.910 Y101.957 E0.78742
G1 X82.634 Y101.327 E0.02616
G1 X82.410 Y100.192 E0.04394
G1 X82.410 Y92.748 E0.28294
G1 X82.487 Y90.525 E0.08452
G1 X82.897 Y89.408 E0.04524
G1 X83.106 Y89.100 E0.01415
G1 X83.315 Y88.656 E0.01863
G1 X83.785 Y88.011 E0.03031
G1 X85.636 Y86.163 E0.09943
G1 X85.959 Y86.486 F9000.000
G1 F1200.000
G1 X86.950 Y85.496 E0.05324
G1 X87.419 Y85.143 E0.02231
G1 X88.438 Y84.516 E0.04550
G1 X89.623 Y84.204 E0.04654
G1 X97.036 Y84.223 E0.28175
G1 X98.162 Y84.517 E0.04423
G1 X98.948 Y84.943 E0.03398
G1 X99.625 Y85.561 E0.03481
G1 X100.421 Y85.703 E0.03076
G1 X101.197 Y86.044 E0.03219
G1 X128.352 Y86.052 E1.03206
G1 X129.540 Y86.046 E0.04517
G1 X130.250 Y85.908 E0.02747
G1 X131.171 Y85.902 E0.03502
G1 X131.893 Y86.032 E0.02789
G1 X132.313 Y86.199 E0.01715
G1 X132.922 Y86.052 E0.02381
G1 X134.542 Y86.053 E0.06159
G1 X135.736 Y84.929 E0.06229
G1 X136.629 Y84.465 E0.03826
G1 X137.509 Y84.238 E0.03457
G1 X138.609 Y84.205 E0.04182
G1 X145.901 Y84.209 E0.27714
G1 X147.180 Y84.532 E0.05012
G1 X148.261 Y85.190 E0.04812
G1 X152.441 Y89.370 E0.22465
G1 X152.822 Y89.907 E0.02502
G1 X153.100 Y90.524 E0.02575
G1 X153.272 Y91.382 E0.03324
G1 X153.266 Y92.303 E0.03500
G1 X153.129 Y93.010 E0.02739
G1 X153.132 Y100.857 E0.29823
G1 X152.924 Y101.898 E0.04037
G1 X152.630 Y102.552 E0.02724
G1 X152.622 Y102.940 E0.01475
G1 X152.632 Y113.223 E0.39080
G1 X152.675 Y113.363 E0.00558
G1 X152.772 Y113.973 E0.02348
G1 X152.766 Y114.889 E0.03479
G1 X152.628 Y115.598 E0.02747
G1 X152.622 Y116.787 E0.04517
G1 X152.632 Y146.310 E1.12209
G1 X152.261 Y147.608 E0.05129
G1 X151.473 Y148.699 E0.05116
G1 X150.597 Y149.340 E0.04127
G1 X149.608 Y149.750 E0.04067
G1 X148.733 Y149.918 E0.03386
G1 X148.477 Y149.919 E0.00976
G1 X148.201 Y149.958 E0.01059
G1 X136.200 Y149.958 E0.45612
G1 X134.982 Y151.106 E0.06358
G1 X134.141 Y151.528 E0.03577
G1 X132.996 Y151.795 E0.04469
G1 X124.293 Y151.782 E0.33077
G1 X123.188 Y151.506 E0.04328
G1 X122.322 Y151.041 E0.03738
G1 X121.179 Y149.958 E0.05985
G1 X115.033 Y149.946 E0.23359
G1 X114.830 Y149.951 E0.00770
G1 X113.907 Y150.844 E0.04881
G1 X113.386 Y151.170 E0.02334
G1 X112.825 Y151.411 E0.02322
G1 X112.385 Y151.521 E0.01725
G1 X112.232 Y151.587 E0.00633
G1 X111.781 Y151.723 E0.01791
G1 X109.599 Y151.796 E0.08296
G1 X104.601 Y151.792 E0.18996
G1 X103.894 Y151.929 E0.02738
G1 X102.973 Y151.935 E0.03499
G1 X102.264 Y151.809 E0.02737
G1 X101.586 Y151.533 E0.02781
G1 X101.096 Y151.216 E0.02218
G1 X99.943 Y150.079 E0.06155
G1 X99.490 Y149.958 E0.01779
G1 X87.249 Y149.945 E0.46526
G1 X86.188 Y149.684 E0.04151
G1 X85.186 Y149.129 E0.04356
G1 X84.017 Y148.002 E0.06170
G1 X83.659 Y147.484 E0.02395
G1 X83.401 Y146.903 E0.02414
G1 X83.233 Y146.092 E0.03150
G1 X83.234 Y145.123 E0.03680
G1 X83.371 Y144.413 E0.02750
G1 X83.368 Y135.090 E0.35432
G1 X83.185 Y134.734 E0.01520
G1 X82.868 Y133.477 E0.04930
G1 X82.868 Y124.289 E0.34920
G1 X83.138 Y123.212 E0.04219
G1 X83.369 Y122.796 E0.01811
G1 X83.367 Y101.858 E0.79577
G1 X83.076 Y101.210 E0.02698
G1 X82.868 Y100.169 E0.04036
G1 X82.867 Y92.751 E0.28196
G1 X82.929 Y90.645 E0.08005
G1 X83.292 Y89.640 E0.04061
G1 X83.506 Y89.324 E0.01451
G1 X83.699 Y88.905 E0.01755
G1 X84.121 Y88.322 E0.02735
G1 X85.916 Y86.528 E0.09644
G1 X86.239 Y86.852 F9000.000
G1 F1200.000
G1 X87.261 Y85.831 E0.05489
G1 X87.667 Y85.527 E0.01928
G1 X88.649 Y84.923 E0.04382
G1 X89.651 Y84.662 E0.03935
G1 X97.006 Y84.680 E0.27954
G1 X97.968 Y84.932 E0.03781
G1 X98.704 Y85.331 E0.03181
G1 X99.414 Y85.989 E0.03679
G1 X100.264 Y86.133 E0.03279
