; generated by PrusaSlicer 2.3.0-beta3+win64 on 2022-03-27 at 06:54:43 UTC

; 

; external perimeters extrusion width = 0.45mm
; perimeters extrusion width = 0.45mm
; infill extrusion width = 0.45mm
; solid infill extrusion width = 0.45mm
; top infill extrusion width = 0.40mm
; support material extrusion width = 0.38mm
; first layer extrusion width = 0.42mm

M201 X500 Y500 Z100 E5000 ; sets maximum accelerations, mm/sec^2
M203 X500 Y500 Z10 E60 ; sets maximum feedrates, mm/sec
M204 P500 R1000 T500 ; sets acceleration (P, T) and retract acceleration (R), mm/sec^2
M205 X8.00 Y8.00 Z0.40 E5.00 ; sets the jerk limits, mm/sec
M205 S0 T0 ; sets the minimum extruding and travel feed rate, mm/sec
M107
;TYPE:Custom
G90 ; use absolute coordinates
M83 ; extruder relative mode
M104 S210 ; set extruder temp
M140 S55 ; set bed temp
M190 S55 ; wait for bed temp
M109 S210 ; wait for extruder temp
G28 ; home all
G1 Z2 F240
G1 X2 Y10 F3000
G1 Z0.28 F240
G92 E0
G1 Y190 E15 F1500 ; intro line
G1 X2.3 F5000
G92 E0
G1 Y10 E15 F1200 ; intro line
G92 E0
G21 ; set units to millimeters
G90 ; use absolute coordinates
M83 ; use relative distances for extrusion
; Filament gcode
;LAYER_CHANGE
;Z:0.2
;HEIGHT:0.2
;BEFORE_LAYER_CHANGE
G92 E0
;0.2


G1 E-5.00000 F3600.000
G1 Z0.200 F9000.000
;AFTER_LAYER_CHANGE
;0.2
G1 X110.857 Y115.460
G1 E5.00000 F2400.000
;TYPE:Skirt
;WIDTH:0.42
G1 F1200.000
G1 X111.817 Y114.945 E0.03416
G1 X112.821 Y114.689 E0.03246
G1 X123.086 Y114.690 E0.32187
G1 X124.745 Y115.267 E0.05508
G1 X125.355 Y115.707 E0.02358
G1 X125.998 Y116.319 E0.02781
G1 X126.720 Y117.417 E0.04122
G1 X127.123 Y118.681 E0.04161
G1 X127.179 Y127.211 E0.26744
G1 X126.793 Y128.632 E0.04619
G1 X126.152 Y129.654 E0.03783
G1 X125.452 Y130.360 E0.03115
G1 X124.630 Y130.916 E0.03111
G1 X122.951 Y131.403 E0.05483
G1 X113.238 Y131.417 E0.30453
G1 X111.682 Y130.996 E0.05056
G1 X110.710 Y130.404 E0.03567
G1 X109.840 Y129.545 E0.03834
G1 X109.204 Y128.474 E0.03906
G1 X108.821 Y126.928 E0.04993
G1 X108.821 Y118.934 E0.25065
G1 X109.109 Y117.652 E0.04120
G1 X109.745 Y116.528 E0.04048
G1 X110.814 Y115.501 E0.04647
G1 X111.071 Y115.767 F9000.000
G1 F1200.000
G1 X111.933 Y115.305 E0.03066
G1 X112.891 Y115.060 E0.03100
G1 X122.994 Y115.057 E0.31676
G1 X124.548 Y115.590 E0.05154
G1 X125.105 Y115.989 E0.02147
G1 X125.721 Y116.576 E0.02669
G1 X126.389 Y117.601 E0.03834
G1 X126.755 Y118.767 E0.03831
G1 X126.802 Y127.186 E0.26400
G1 X126.438 Y128.504 E0.04286
G1 X125.845 Y129.433 E0.03456
G1 X125.199 Y130.080 E0.02866
G1 X124.445 Y130.586 E0.02849
G1 X122.924 Y131.026 E0.04964
G1 X113.264 Y131.040 E0.30289
G1 X111.808 Y130.640 E0.04732
G1 X110.928 Y130.095 E0.03247
G1 X110.123 Y129.295 E0.03556
G1 X109.543 Y128.307 E0.03594
G1 X109.198 Y126.905 E0.04526
G1 X109.198 Y118.954 E0.24930
G1 X109.452 Y117.811 E0.03673
G1 X110.027 Y116.779 E0.03705
G1 X111.028 Y115.809 E0.04369
G1 X111.279 Y116.081 F9000.000
G1 F1200.000
G1 X112.090 Y115.649 E0.02879
G1 X112.959 Y115.431 E0.02811
G1 X122.962 Y115.434 E0.31362
G1 X124.352 Y115.913 E0.04609
G1 X124.855 Y116.272 E0.01937
G1 X125.445 Y116.834 E0.02556
G1 X126.058 Y117.783 E0.03542
G1 X126.386 Y118.850 E0.03502
G1 X126.425 Y127.161 E0.26058
G1 X126.083 Y128.373 E0.03948
G1 X125.541 Y129.210 E0.03127
G1 X124.947 Y129.799 E0.02621
G1 X124.260 Y130.256 E0.02588
G1 X122.897 Y130.649 E0.04448
G1 X113.289 Y130.663 E0.30124
G1 X111.937 Y130.285 E0.04402
G1 X111.147 Y129.788 E0.02926
G1 X110.408 Y129.047 E0.03281
G1 X109.883 Y128.142 E0.03282
G1 X109.575 Y126.883 E0.04064
G1 X109.575 Y118.974 E0.24797
G1 X109.796 Y117.968 E0.03231
G1 X110.312 Y117.028 E0.03361
G1 X111.236 Y116.123 E0.04057
G1 X111.483 Y116.399 F9000.000
G1 F1200.000
G1 X112.205 Y116.009 E0.02572
G1 X113.029 Y115.803 E0.02663
G1 X122.871 Y115.801 E0.30859
G1 X124.157 Y116.237 E0.04258
G1 X124.605 Y116.554 E0.01721
G1 X125.169 Y117.092 E0.02443
G1 X125.705 Y117.919 E0.03091
G1 X126.018 Y118.934 E0.03332
G1 X126.048 Y127.135 E0.25713
G1 X125.729 Y128.241 E0.03608
G1 X125.260 Y128.957 E0.02685
G1 X124.722 Y129.495 E0.02386
G1 X124.076 Y129.926 E0.02436
G1 X122.870 Y130.272 E0.03931
G1 X113.316 Y130.285 E0.29958
G1 X112.067 Y129.930 E0.04070
G1 X111.399 Y129.507 E0.02478
G1 X110.693 Y128.799 E0.03136
G1 X110.224 Y127.978 E0.02964
G1 X109.952 Y126.861 E0.03606
G1 X109.952 Y118.994 E0.24665
G1 X110.141 Y118.122 E0.02797
G1 X110.598 Y117.275 E0.03017
G1 X111.441 Y116.441 E0.03718
G1 X111.687 Y116.717 F9000.000
G1 F1200.000
G1 X112.362 Y116.352 E0.02405
G1 X113.095 Y116.175 E0.02364
G1 X122.839 Y116.178 E0.30553
G1 X123.962 Y116.561 E0.03719
G1 X124.355 Y116.837 E0.01506
G1 X124.892 Y117.349 E0.02326
G1 X125.373 Y118.099 E0.02794
G1 X125.649 Y119.016 E0.03002
G1 X125.670 Y127.108 E0.25372
G1 X125.376 Y128.106 E0.03263
G1 X124.981 Y128.704 E0.02247
G1 X124.469 Y129.215 E0.02266
G1 X123.892 Y129.595 E0.02167
G1 X122.849 Y129.894 E0.03404
G1 X122.229 Y129.887 E0.01943
G1 X122.039 Y129.908 E0.00599
G1 X113.343 Y129.908 E0.27266
G1 X112.199 Y129.576 E0.03735
G1 X111.650 Y129.225 E0.02043
G1 X111.007 Y128.589 E0.02835
G1 X110.564 Y127.815 E0.02798
G1 X110.330 Y126.839 E0.03147
G1 X110.330 Y119.014 E0.24535
G1 X110.487 Y118.274 E0.02370
G1 X110.885 Y117.521 E0.02673
G1 X111.645 Y116.760 E0.03372
G1 X111.892 Y117.035 F9000.000
G1 F1200.000
G1 X112.519 Y116.696 E0.02234
G1 X113.159 Y116.547 E0.02061
G1 X122.749 Y116.545 E0.30071
G1 X123.769 Y116.886 E0.03372
G1 X124.106 Y117.120 E0.01285
G1 X124.615 Y117.605 E0.02205
G1 X125.040 Y118.277 E0.02492
G1 X125.279 Y119.095 E0.02672
G1 X125.293 Y127.080 E0.25035
G1 X125.024 Y127.969 E0.02913
G1 X124.701 Y128.450 E0.01816
G1 X124.217 Y128.934 E0.02147
G1 X123.711 Y129.264 E0.01895
G1 X122.826 Y129.517 E0.02886
G1 X122.208 Y129.510 E0.01937
G1 X122.027 Y129.531 E0.00571
G1 X113.371 Y129.531 E0.27141
G1 X112.334 Y129.222 E0.03394
G1 X111.900 Y128.942 E0.01620
G1 X111.321 Y128.378 E0.02532
G1 X110.905 Y127.651 E0.02627
G1 X110.707 Y126.817 E0.02689
G1 X110.707 Y119.033 E0.24407
G1 X110.834 Y118.423 E0.01951
G1 X111.175 Y117.764 E0.02328
G1 X111.850 Y117.078 E0.03018
G1 X112.098 Y117.353 F9000.000
G1 F1200.000
G1 X112.674 Y117.041 E0.02056
G1 X113.219 Y116.919 E0.01751
G1 X122.718 Y116.922 E0.29783
G1 X123.577 Y117.212 E0.02843
G1 X123.857 Y117.404 E0.01063
G1 X124.337 Y117.862 E0.02080
G1 X124.705 Y118.453 E0.02184
G1 X124.909 Y119.172 E0.02345
G1 X124.916 Y127.050 E0.24702
G1 X124.673 Y127.828 E0.02555
G1 X124.423 Y128.195 E0.01393
G1 X123.965 Y128.653 E0.02029
G1 X123.531 Y128.932 E0.01618
G1 X122.803 Y129.140 E0.02374
G1 X122.186 Y129.132 E0.01936
G1 X122.015 Y129.154 E0.00540
G1 X113.400 Y129.154 E0.27011
G1 X112.471 Y128.870 E0.03045
G1 X112.148 Y128.658 E0.01213
G1 X111.635 Y128.167 E0.02227
G1 X111.246 Y127.488 E0.02453
G1 X111.084 Y126.795 E0.02230
G1 X111.084 Y119.051 E0.24281
G1 X111.182 Y118.569 E0.01542
G1 X111.467 Y118.004 E0.01983
G1 X112.056 Y117.396 E0.02655
G1 X112.304 Y117.670 F9000.000
G1 F1200.000
G1 X112.830 Y117.385 E0.01875
G1 X113.239 Y117.296 E0.01313
G1 X122.687 Y117.299 E0.29623
G1 X123.387 Y117.538 E0.02319
G1 X123.608 Y117.688 E0.00839
G1 X124.060 Y118.119 E0.01956
G1 X124.350 Y118.581 E0.01712
G1 X124.539 Y119.250 E0.02178
G1 X124.539 Y127.020 E0.24362
G1 X124.324 Y127.683 E0.02188
G1 X124.145 Y127.940 E0.00980
G1 X123.714 Y128.371 E0.01911
G1 X123.353 Y128.598 E0.01337
G1 X122.780 Y128.762 E0.01870
G1 X122.161 Y128.755 E0.01942
G1 X122.001 Y128.777 E0.00507
G1 X113.429 Y128.777 E0.26874
G1 X112.612 Y128.520 E0.02686
G1 X112.395 Y128.372 E0.00824
G1 X111.947 Y127.954 E0.01921
G1 X111.587 Y127.325 E0.02273
G1 X111.461 Y126.774 E0.01771
G1 X111.461 Y119.069 E0.24158
G1 X111.532 Y118.711 E0.01146
G1 X111.761 Y118.241 E0.01638
G1 X112.263 Y117.713 E0.02283
G1 X112.532 Y117.976 F9000.000
G1 F1200.000
G1 X112.980 Y117.732 E0.01597
G1 X113.258 Y117.673 E0.00893
G1 X122.598 Y117.667 E0.29284
G1 X123.200 Y117.867 E0.01990
G1 X123.361 Y117.973 E0.00604
G1 X123.783 Y118.376 E0.01829
G1 X123.996 Y118.714 E0.01253
G1 X124.162 Y119.278 E0.01843
G1 X124.162 Y126.987 E0.24173
G1 X123.977 Y127.533 E0.01806
G1 X123.869 Y127.683 E0.00579
G1 X123.461 Y128.090 E0.01806
G1 X123.218 Y128.245 E0.00906
G1 X122.754 Y128.385 E0.01518
G1 X122.133 Y128.378 E0.01948
G1 X121.985 Y128.400 E0.00469
G1 X113.459 Y128.400 E0.26734
G1 X112.798 Y128.191 E0.02172
G1 X112.640 Y128.086 E0.00595
G1 X112.227 Y127.699 E0.01774
G1 X111.930 Y127.166 E0.01912
G1 X111.838 Y126.754 E0.01325
G1 X111.838 Y119.086 E0.24041
G1 X111.883 Y118.853 E0.00745
G1 X112.086 Y118.434 E0.01460
G1 X112.490 Y118.019 E0.01818
G1 X112.756 Y118.284 F9000.000
G1 F1200.000
G1 X112.794 Y118.246 E0.00169
G1 X113.123 Y118.081 E0.01153
G1 X113.279 Y118.050 E0.00497
G1 X115.016 Y118.039 E0.05448
G1 X122.512 Y118.035 E0.23501
G1 X123.019 Y118.198 E0.01670
G1 X123.115 Y118.259 E0.00357
G1 X123.506 Y118.633 E0.01697
G1 X123.644 Y118.850 E0.00807
G1 X123.785 Y119.307 E0.01500
G1 X123.785 Y126.956 E0.23980
G1 X123.653 Y127.338 E0.01270
G1 X123.590 Y127.428 E0.00345
G1 X123.208 Y127.810 E0.01692
G1 X123.077 Y127.895 E0.00491
G1 X122.727 Y128.007 E0.01153
G1 X122.101 Y128.000 E0.01961
G1 X121.967 Y128.023 E0.00426
G1 X113.488 Y128.023 E0.26585
G1 X112.981 Y127.860 E0.01670
G1 X112.885 Y127.798 E0.00360
G1 X112.508 Y127.446 E0.01616
G1 X112.276 Y127.013 E0.01541
G1 X112.215 Y126.734 E0.00894
G1 X112.215 Y119.101 E0.23933
G1 X112.234 Y118.993 E0.00345
G1 X112.411 Y118.629 E0.01270
G1 X112.714 Y118.326 E0.01341
G1 X112.980 Y118.593 F9000.000
G1 F1200.000
G1 X113.036 Y118.538 E0.00246
G1 X113.290 Y118.428 E0.00869
G1 X113.936 Y118.436 E0.02026
G1 X114.054 Y118.412 E0.00375
G1 X122.481 Y118.412 E0.26423
G1 X122.873 Y118.550 E0.01305
G1 X123.206 Y118.862 E0.01430
G1 X123.295 Y118.995 E0.00503
G1 X123.408 Y119.339 E0.01134
G1 X123.408 Y126.922 E0.23776
G1 X123.308 Y127.176 E0.00856
G1 X122.954 Y127.531 E0.01571
G1 X122.695 Y127.630 E0.00869
G1 X122.064 Y127.622 E0.01981
G1 X121.946 Y127.646 E0.00376
G1 X113.519 Y127.646 E0.26422
G1 X113.127 Y127.508 E0.01305
G1 X112.791 Y127.194 E0.01440
G1 X112.624 Y126.866 E0.01155
G1 X112.592 Y126.716 E0.00483
G1 X112.592 Y119.122 E0.23810
G1 X112.702 Y118.872 E0.00856
G1 X112.938 Y118.636 E0.01047
G1 X113.204 Y118.902 F9000.000
G1 F1200.000
G1 X113.272 Y118.834 E0.00301
G1 X113.343 Y118.806 E0.00239
G1 X113.985 Y118.813 E0.02015
G1 X114.082 Y118.789 E0.00312
G1 X114.941 Y118.789 E0.02694
G1 X115.027 Y118.806 E0.00276
G1 X115.146 Y118.789 E0.00376
G1 X116.012 Y118.789 E0.02715
G1 X116.120 Y118.814 E0.00348
G1 X116.228 Y118.789 E0.00348
G1 X117.086 Y118.789 E0.02689
G1 X117.194 Y118.814 E0.00348
G1 X117.303 Y118.789 E0.00348
G1 X118.160 Y118.789 E0.02689
G1 X118.269 Y118.814 E0.00348
G1 X118.377 Y118.789 E0.00348
G1 X119.234 Y118.789 E0.02689
G1 X119.343 Y118.814 E0.00348
G1 X119.451 Y118.789 E0.00348
G1 X120.309 Y118.789 E0.02689
G1 X120.417 Y118.814 E0.00348
G1 X120.525 Y118.789 E0.00348
G1 X121.383 Y118.789 E0.02689
G1 X121.491 Y118.814 E0.00348
G1 X121.599 Y118.789 E0.00348
G1 X122.446 Y118.789 E0.02655
G1 X122.658 Y118.865 E0.00708
G1 X122.933 Y119.122 E0.01180
G1 X123.031 Y119.374 E0.00847
G1 X123.031 Y126.880 E0.23534
G1 X123.002 Y126.949 E0.00235
G1 X122.728 Y127.224 E0.01216
G1 X122.657 Y127.252 E0.00239
G1 X122.015 Y127.245 E0.02015
G1 X121.918 Y127.269 E0.00312
G1 X121.062 Y127.269 E0.02685
G1 X120.954 Y127.244 E0.00348
G1 X120.846 Y127.269 E0.00348
G1 X119.988 Y127.269 E0.02689
G1 X119.880 Y127.244 E0.00348
G1 X119.772 Y127.269 E0.00348
G1 X118.914 Y127.269 E0.02689
G1 X118.806 Y127.244 E0.00348
G1 X118.697 Y127.269 E0.00348
G1 X117.840 Y127.269 E0.02689
G1 X117.731 Y127.244 E0.00348
G1 X117.623 Y127.269 E0.00348
G1 X116.766 Y127.269 E0.02689
G1 X116.657 Y127.244 E0.00348
G1 X116.549 Y127.269 E0.00348
G1 X115.691 Y127.269 E0.02689
G1 X115.583 Y127.244 E0.00348
G1 X115.475 Y127.269 E0.00348
G1 X114.617 Y127.269 E0.02689
G1 X114.509 Y127.244 E0.00348
G1 X114.401 Y127.269 E0.00348
G1 X113.554 Y127.269 E0.02655
G1 X113.342 Y127.193 E0.00708
G1 X113.077 Y126.945 E0.01135
G1 X112.969 Y126.698 E0.00846
G1 X112.969 Y119.178 E0.23579
G1 X112.998 Y119.109 E0.00235
G1 X113.162 Y118.945 E0.00728
G1 X113.429 Y119.211 F9000.000
G1 F1200.000
G1 X113.456 Y119.184 E0.00120
G1 X114.072 Y119.191 E0.01934
G1 X114.133 Y119.166 E0.00206
G1 X114.885 Y119.166 E0.02357
G1 X115.046 Y119.233 E0.00547
G1 X115.207 Y119.166 E0.00547
G1 X115.959 Y119.166 E0.02357
G1 X116.120 Y119.233 E0.00547
G1 X116.281 Y119.166 E0.00547
G1 X117.033 Y119.166 E0.02357
G1 X117.194 Y119.233 E0.00547
G1 X117.356 Y119.166 E0.00547
G1 X118.107 Y119.166 E0.02357
G1 X118.269 Y119.233 E0.00547
G1 X118.430 Y119.166 E0.00547
G1 X119.182 Y119.166 E0.02357
G1 X119.343 Y119.233 E0.00547
G1 X119.504 Y119.166 E0.00547
G1 X120.256 Y119.166 E0.02357
G1 X120.417 Y119.233 E0.00547
G1 X120.578 Y119.166 E0.00547
G1 X121.330 Y119.166 E0.02357
G1 X121.491 Y119.233 E0.00547
G1 X121.652 Y119.166 E0.00547
G1 X122.404 Y119.166 E0.02357
G1 X122.473 Y119.195 E0.00235
G1 X122.625 Y119.347 E0.00673
G1 X122.654 Y119.416 E0.00235
G1 X122.654 Y126.764 E0.23040
G1 X122.544 Y126.874 E0.00486
G1 X121.928 Y126.867 E0.01934
G1 X121.867 Y126.892 E0.00206
G1 X121.115 Y126.892 E0.02357
G1 X120.954 Y126.825 E0.00547
G1 X120.793 Y126.892 E0.00547
G1 X120.041 Y126.892 E0.02357
G1 X119.880 Y126.825 E0.00547
G1 X119.719 Y126.892 E0.00547
G1 X118.967 Y126.892 E0.02357
G1 X118.806 Y126.825 E0.00547
G1 X118.644 Y126.892 E0.00547
G1 X117.893 Y126.892 E0.02357
G1 X117.731 Y126.825 E0.00547
G1 X117.570 Y126.892 E0.00547
G1 X116.818 Y126.892 E0.02357
G1 X116.657 Y126.825 E0.00547
G1 X116.496 Y126.892 E0.00547
G1 X115.744 Y126.892 E0.02357
G1 X115.583 Y126.825 E0.00547
G1 X115.422 Y126.892 E0.00547
G1 X114.670 Y126.892 E0.02357
G1 X114.509 Y126.825 E0.00547
G1 X114.348 Y126.892 E0.00547
G1 X113.596 Y126.892 E0.02357
G1 X113.527 Y126.863 E0.00235
G1 X113.375 Y126.711 E0.00673
G1 X113.346 Y126.642 E0.00235
G1 X113.346 Y119.294 E0.23040
G1 X113.386 Y119.254 E0.00177
G1 E-3.50000 F3600.000
;WIPE_START
G1 F7200.000
G1 X113.456 Y119.184 E-0.04672
G1 X114.072 Y119.191 E-0.29294
G1 X114.133 Y119.166 E-0.03121
G1 X114.885 Y119.166 E-0.35710
G1 X115.046 Y119.233 E-0.08287
G1 X115.207 Y119.166 E-0.08287
G1 X115.959 Y119.166 E-0.35710
G1 X116.120 Y119.233 E-0.08287
G1 X116.281 Y119.166 E-0.08287
G1 X116.299 Y119.166 E-0.00844
;WIPE_END
G1 E-0.07500 F3600.000
G1 X113.386 Y101.035 F9000.000
G1 E5.00000 F2400.000
G1 F1200.000
G1 X87.448 Y101.035 E0.81328
G1 X85.597 Y100.471 E0.06067
G1 X84.881 Y99.983 E0.02716
G1 X84.165 Y99.295 E0.03113
G1 X83.453 Y98.148 E0.04234
G1 X83.099 Y97.010 E0.03737
G1 X83.132 Y90.246 E0.21207
G1 X83.404 Y89.426 E0.02711
G1 X83.820 Y88.674 E0.02695
G1 X84.763 Y87.659 E0.04344
G1 X85.808 Y86.996 E0.03879
G1 X86.996 Y86.647 E0.03880
G1 X88.135 Y86.596 E0.03576
G1 X147.223 Y86.596 E1.85264
G1 X149.065 Y86.674 E0.05782
G1 X149.894 Y86.929 E0.02721
G1 X150.828 Y87.429 E0.03319
G1 X152.165 Y88.765 E0.05928
G1 X152.619 Y89.652 E0.03125
G1 X152.938 Y90.890 E0.04007
G1 X152.921 Y97.078 E0.19404
G1 X152.622 Y98.146 E0.03476
G1 X152.009 Y99.179 E0.03766
G1 X151.090 Y100.094 E0.04064
G1 X150.118 Y100.666 E0.03538
G1 X149.033 Y100.979 E0.03540
G1 X147.861 Y101.035 E0.03679
G1 X113.446 Y101.035 E1.07906
G1 X113.446 Y100.658 F9000.000
G1 F1200.000
G1 X87.477 Y100.658 E0.81426
G1 X85.737 Y100.120 E0.05709
G1 X85.131 Y99.700 E0.02313
G1 X84.473 Y99.076 E0.02844
G1 X83.787 Y97.970 E0.04078
G1 X83.468 Y96.928 E0.03419
G1 X83.509 Y90.280 E0.20842
G1 X83.755 Y89.564 E0.02375
G1 X84.114 Y88.912 E0.02334
G1 X84.988 Y87.962 E0.04048
G1 X85.941 Y87.350 E0.03551
G1 X87.077 Y87.017 E0.03711
G1 X87.921 Y86.996 E0.02649
G1 X88.149 Y86.973 E0.00718
G1 X147.219 Y86.973 E1.85209
G1 X148.979 Y87.042 E0.05523
G1 X149.736 Y87.271 E0.02479
G1 X150.583 Y87.717 E0.03003
G1 X151.845 Y88.965 E0.05563
G1 X152.260 Y89.769 E0.02838
G1 X152.561 Y90.914 E0.03711
G1 X152.544 Y97.051 E0.19242
G1 X152.267 Y98.018 E0.03154
G1 X151.698 Y98.964 E0.03461
G1 X150.843 Y99.808 E0.03768
G1 X149.950 Y100.328 E0.03241
G1 X148.954 Y100.610 E0.03245
G1 X148.091 Y100.634 E0.02706
