; generated by PrusaSlicer 2.3.0-beta3+win64 on 2022-04-05 at 01:02:58 UTC

; 

; external perimeters extrusion width = 0.50mm
; perimeters extrusion width = 0.50mm
; infill extrusion width = 0.45mm
; solid infill extrusion width = 0.45mm
; top infill extrusion width = 0.40mm
; support material extrusion width = 0.38mm
; first layer extrusion width = 0.42mm

M201 X500 Y500 Z100 E5000 ; sets maximum accelerations, mm/sec^2
M203 X500 Y500 Z10 E60 ; sets maximum feedrates, mm/sec
M204 P500 R1000 T500 ; sets acceleration (P, T) and retract acceleration (R), mm/sec^2
M205 X8.00 Y8.00 Z0.40 E5.00 ; sets the jerk limits, mm/sec
M205 S0 T0 ; sets the minimum extruding and travel feed rate, mm/sec
M107
;TYPE:Custom
G90 ; use absolute coordinates
M83 ; extruder relative mode
M104 S210 ; set extruder temp
M140 S65 ; set bed temp
M190 S65 ; wait for bed temp
M109 S210 ; wait for extruder temp
G28 ; home all
G1 Z2 F240
G1 X2 Y10 F3000
G1 Z0.28 F240
G92 E0
G1 Y190 E15 F1500 ; intro line
G1 X2.3 F5000
G92 E0
G1 Y10 E15 F1200 ; intro line
G92 E0
G21 ; set units to millimeters
G90 ; use absolute coordinates
M83 ; use relative distances for extrusion
; Filament gcode
;LAYER_CHANGE
;Z:0.2
;HEIGHT:0.2
;BEFORE_LAYER_CHANGE
G92 E0
;0.2


G1 E-5.00000 F3600.000
G1 Z0.200 F9000.000
;AFTER_LAYER_CHANGE
;0.2
G1 X84.223 Y85.056
G1 E5.00000 F2400.000
;TYPE:Skirt
;WIDTH:0.42
G1 F1200.000
G1 X85.432 Y84.293 E0.04258
G1 X86.404 Y83.963 E0.03058
G1 X87.817 Y83.897 E0.04214
G1 X88.858 Y83.481 E0.03340
G1 X89.710 Y83.376 E0.02556
G1 X98.312 Y83.376 E0.25621
G1 X99.815 Y83.753 E0.04618
G1 X100.071 Y83.876 E0.00844
G1 X130.967 Y83.876 E0.92031
G1 X131.788 Y84.030 E0.02488
G1 X132.431 Y83.876 E0.01969
G1 X135.946 Y83.876 E0.10470
G1 X136.490 Y83.633 E0.01774
G1 X137.764 Y83.376 E0.03872
G1 X146.370 Y83.376 E0.25635
G1 X147.645 Y83.633 E0.03874
G1 X148.223 Y83.893 E0.01886
G1 X149.005 Y83.940 E0.02335
G1 X150.189 Y84.296 E0.03682
G1 X151.424 Y85.076 E0.04351
G1 X152.514 Y86.160 E0.04579
G1 X153.138 Y87.112 E0.03390
G1 X153.516 Y88.258 E0.03596
G1 X153.572 Y89.613 E0.04039
G1 X153.529 Y89.920 E0.00923
G1 X153.584 Y90.046 E0.00410
G1 X153.961 Y91.550 E0.04617
G1 X153.961 Y100.828 E0.27635
G1 X153.727 Y101.953 E0.03423
G1 X153.459 Y102.540 E0.01923
G1 X153.449 Y112.462 E0.29555
G1 X153.457 Y113.243 E0.02325
G1 X153.576 Y113.826 E0.01774
G1 X153.571 Y114.798 E0.02896
G1 X153.455 Y115.456 E0.01990
G1 X153.448 Y116.293 E0.02491
G1 X153.461 Y147.720 E0.93611
G1 X152.759 Y149.809 E0.06566
G1 X152.276 Y150.435 E0.02354
G1 X151.703 Y151.010 E0.02417
G1 X150.403 Y151.783 E0.04504
G1 X148.959 Y152.124 E0.04422
G1 X134.694 Y152.120 E0.42488
G1 X134.192 Y152.372 E0.01675
G1 X133.019 Y152.624 E0.03572
G1 X124.394 Y152.624 E0.25693
G1 X123.119 Y152.367 E0.03872
G1 X122.575 Y152.124 E0.01775
G1 X114.782 Y152.122 E0.23212
G1 X114.524 Y152.247 E0.00854
G1 X113.020 Y152.624 E0.04618
G1 X103.000 Y152.624 E0.29847
G1 X101.725 Y152.367 E0.03876
G1 X101.169 Y152.116 E0.01817
G1 X88.969 Y152.120 E0.36339
G1 X88.303 Y152.234 E0.02012
G1 X87.135 Y152.210 E0.03479
G1 X86.217 Y151.989 E0.02814
G1 X85.351 Y151.572 E0.02861
G1 X83.766 Y150.125 E0.06394
G1 X82.917 Y148.752 E0.04807
G1 X82.539 Y147.172 E0.04841
G1 X82.540 Y136.547 E0.31648
G1 X81.570 Y135.496 E0.04261
G1 X80.984 Y134.347 E0.03841
G1 X80.702 Y132.996 E0.04110
G1 X80.714 Y127.133 E0.17465
G1 X80.700 Y126.908 E0.00672
G1 X80.766 Y125.202 E0.05085
G1 X81.096 Y124.102 E0.03420
G1 X81.647 Y123.124 E0.03344
G1 X82.539 Y122.180 E0.03870
G1 X82.539 Y102.728 E0.57939
G1 X82.296 Y102.184 E0.01775
G1 X82.039 Y100.910 E0.03872
G1 X82.047 Y90.890 E0.29845
G1 X82.296 Y89.692 E0.03645
G1 X82.541 Y89.146 E0.01783
G1 X82.556 Y88.255 E0.02654
G1 X82.819 Y87.088 E0.03561
G1 X83.402 Y85.970 E0.03758
G1 X84.183 Y85.100 E0.03482
G1 X84.463 Y85.352 F9000.000
G1 F1200.000
G1 X85.612 Y84.625 E0.04049
G1 X86.498 Y84.329 E0.02782
G1 X87.899 Y84.272 E0.04176
G1 X88.930 Y83.852 E0.03318
G1 X89.721 Y83.753 E0.02372
G1 X98.288 Y83.753 E0.25519
G1 X99.701 Y84.113 E0.04342
G1 X99.979 Y84.253 E0.00930
G1 X130.949 Y84.253 E0.92248
G1 X131.799 Y84.416 E0.02579
G1 X132.455 Y84.253 E0.02013
G1 X136.029 Y84.253 E0.10646
G1 X136.588 Y83.998 E0.01829
G1 X137.784 Y83.753 E0.03637
G1 X146.351 Y83.753 E0.25520
G1 X147.548 Y83.998 E0.03637
G1 X148.131 Y84.266 E0.01911
G1 X148.919 Y84.308 E0.02352
G1 X150.055 Y84.649 E0.03534
G1 X151.203 Y85.382 E0.04057
G1 X152.233 Y86.412 E0.04338
G1 X152.808 Y87.296 E0.03140
G1 X153.149 Y88.349 E0.03296
G1 X153.195 Y89.607 E0.03752
G1 X153.138 Y89.980 E0.01122
G1 X153.224 Y90.161 E0.00597
G1 X153.584 Y91.574 E0.04343
G1 X153.584 Y100.808 E0.27505
G1 X153.363 Y101.853 E0.03182
G1 X153.082 Y102.456 E0.01981
G1 X153.071 Y112.464 E0.29812
G1 X153.081 Y113.285 E0.02445
G1 X153.199 Y113.845 E0.01705
G1 X153.194 Y114.779 E0.02784
G1 X153.078 Y115.421 E0.01941
G1 X153.071 Y116.291 E0.02593
G1 X153.084 Y147.690 E0.93525
G1 X152.441 Y149.604 E0.06016
G1 X151.985 Y150.195 E0.02223
G1 X151.453 Y150.727 E0.02240
G1 X150.287 Y151.423 E0.04045
G1 X148.936 Y151.747 E0.04138
G1 X134.602 Y151.743 E0.42698
G1 X134.086 Y152.010 E0.01729
G1 X132.999 Y152.247 E0.03314
G1 X124.413 Y152.247 E0.25574
G1 X123.217 Y152.002 E0.03636
G1 X122.658 Y151.747 E0.01830
G1 X114.691 Y151.745 E0.23732
G1 X114.409 Y151.887 E0.00940
G1 X112.997 Y152.247 E0.04342
G1 X103.020 Y152.247 E0.29718
G1 X101.823 Y152.002 E0.03639
G1 X101.252 Y151.739 E0.01871
G1 X88.935 Y151.743 E0.36689
G1 X88.290 Y151.857 E0.01950
G1 X87.203 Y151.838 E0.03240
G1 X86.325 Y151.627 E0.02689
G1 X85.541 Y151.246 E0.02596
G1 X84.041 Y149.865 E0.06072
G1 X83.254 Y148.581 E0.04486
G1 X82.916 Y147.150 E0.04381
G1 X82.918 Y136.397 E0.32028
G1 X81.893 Y135.300 E0.04471
G1 X81.331 Y134.198 E0.03685
G1 X81.079 Y132.978 E0.03712
G1 X81.092 Y127.120 E0.17448
G1 X81.078 Y126.912 E0.00622
G1 X81.142 Y125.241 E0.04980
G1 X81.450 Y124.233 E0.03141
G1 X81.963 Y123.331 E0.03091
G1 X82.916 Y122.331 E0.04116
G1 X82.916 Y102.645 E0.58638
G1 X82.661 Y102.087 E0.01829
G1 X82.416 Y100.891 E0.03636
G1 X82.420 Y90.948 E0.29616
G1 X82.661 Y89.790 E0.03522
G1 X82.917 Y89.230 E0.01833
G1 X82.928 Y88.316 E0.02723
G1 X83.165 Y87.239 E0.03287
G1 X83.699 Y86.203 E0.03468
G1 X84.423 Y85.397 E0.03229
G1 X84.702 Y85.650 F9000.000
G1 F1200.000
G1 X84.746 Y85.602 E0.00195
G1 X85.790 Y84.958 E0.03653
G1 X86.589 Y84.696 E0.02505
G1 X87.980 Y84.646 E0.04146
G1 X89.004 Y84.223 E0.03300
G1 X89.732 Y84.130 E0.02186
G1 X98.264 Y84.130 E0.25414
G1 X99.583 Y84.472 E0.04059
G1 X99.885 Y84.630 E0.01015
G1 X130.930 Y84.630 E0.92475
G1 X131.811 Y84.803 E0.02674
G1 X132.480 Y84.630 E0.02057
G1 X136.114 Y84.630 E0.10825
G1 X136.687 Y84.362 E0.01884
G1 X137.803 Y84.130 E0.03397
G1 X146.332 Y84.130 E0.25403
G1 X147.448 Y84.362 E0.03397
G1 X148.038 Y84.639 E0.01941
G1 X148.836 Y84.676 E0.02379
G1 X149.877 Y84.982 E0.03231
G1 X150.952 Y85.664 E0.03792
G1 X151.952 Y86.664 E0.04215
G1 X152.477 Y87.478 E0.02885
G1 X152.781 Y88.437 E0.02995
G1 X152.817 Y89.599 E0.03464
G1 X152.744 Y90.043 E0.01339
G1 X152.865 Y90.278 E0.00788
G1 X153.207 Y91.598 E0.04060
G1 X153.207 Y100.787 E0.27372
G1 X152.999 Y101.751 E0.02936
G1 X152.705 Y102.370 E0.02040
G1 X152.694 Y112.466 E0.30074
G1 X152.704 Y113.329 E0.02569
G1 X152.822 Y113.864 E0.01634
G1 X152.817 Y114.760 E0.02668
G1 X152.701 Y115.384 E0.01891
G1 X152.694 Y116.290 E0.02697
G1 X152.707 Y147.659 E0.93438
G1 X152.123 Y149.399 E0.05468
G1 X151.709 Y149.937 E0.02020
G1 X151.203 Y150.443 E0.02131
G1 X150.120 Y151.084 E0.03748
G1 X148.914 Y151.370 E0.03692
G1 X134.506 Y151.366 E0.42917
G1 X133.978 Y151.647 E0.01784
G1 X132.978 Y151.870 E0.03051
G1 X124.432 Y151.870 E0.25453
G1 X123.316 Y151.638 E0.03396
G1 X122.743 Y151.369 E0.01885
G1 X114.596 Y151.368 E0.24267
G1 X114.292 Y151.528 E0.01025
G1 X112.972 Y151.870 E0.04060
G1 X103.039 Y151.870 E0.29587
G1 X101.922 Y151.638 E0.03398
G1 X101.338 Y151.362 E0.01925
G1 X88.900 Y151.366 E0.37046
G1 X88.276 Y151.480 E0.01889
G1 X87.268 Y151.466 E0.03003
G1 X86.471 Y151.279 E0.02440
G1 X85.732 Y150.919 E0.02448
G1 X84.316 Y149.607 E0.05749
G1 X83.614 Y148.464 E0.03995
G1 X83.293 Y147.127 E0.04094
G1 X83.295 Y136.247 E0.32409
G1 X82.217 Y135.104 E0.04679
G1 X81.679 Y134.050 E0.03526
G1 X81.456 Y132.960 E0.03314
G1 X81.469 Y127.106 E0.17435
G1 X81.455 Y126.916 E0.00570
G1 X81.518 Y125.281 E0.04871
G1 X81.803 Y124.366 E0.02856
G1 X82.278 Y123.540 E0.02839
G1 X83.293 Y122.483 E0.04364
G1 X83.293 Y102.560 E0.59344
G1 X83.025 Y101.987 E0.01884
G1 X82.793 Y100.871 E0.03396
G1 X82.793 Y91.005 E0.29386
G1 X83.025 Y89.889 E0.03397
G1 X83.293 Y89.316 E0.01884
G1 X83.301 Y88.375 E0.02802
G1 X83.512 Y87.389 E0.03006
G1 X84.022 Y86.398 E0.03317
G1 X84.662 Y85.695 E0.02833
G1 X84.941 Y85.948 F9000.000
G1 F1200.000
G1 X85.007 Y85.876 E0.00291
G1 X85.966 Y85.292 E0.03345
G1 X86.678 Y85.063 E0.02229
G1 X88.062 Y85.021 E0.04123
G1 X89.078 Y84.593 E0.03285
G1 X89.743 Y84.507 E0.01996
G1 X98.239 Y84.507 E0.25308
G1 X99.463 Y84.830 E0.03769
G1 X99.786 Y85.007 E0.01099
G1 X130.911 Y85.007 E0.92711
G1 X131.824 Y85.190 E0.02773
G1 X132.505 Y85.007 E0.02101
G1 X136.200 Y85.007 E0.11006
G1 X136.788 Y84.726 E0.01940
G1 X137.823 Y84.508 E0.03152
G1 X146.312 Y84.508 E0.25284
G1 X147.347 Y84.726 E0.03152
G1 X147.945 Y85.014 E0.01976
G1 X148.752 Y85.045 E0.02407
G1 X149.745 Y85.336 E0.03080
G1 X150.699 Y85.945 E0.03373
G1 X151.671 Y86.916 E0.04092
G1 X152.145 Y87.659 E0.02625
G1 X152.413 Y88.522 E0.02693
G1 X152.440 Y89.589 E0.03177
G1 X152.349 Y90.109 E0.01574
G1 X152.507 Y90.399 E0.00983
G1 X152.830 Y91.623 E0.03769
G1 X152.830 Y100.766 E0.27236
G1 X152.636 Y101.647 E0.02686
G1 X152.328 Y102.282 E0.02101
G1 X152.317 Y112.468 E0.30341
G1 X152.328 Y113.374 E0.02700
G1 X152.445 Y113.885 E0.01561
G1 X152.440 Y114.740 E0.02548
G1 X152.325 Y115.347 E0.01839
G1 X152.317 Y116.288 E0.02805
G1 X152.330 Y147.629 E0.93352
G1 X151.804 Y149.195 E0.04922
G1 X151.434 Y149.679 E0.01816
G1 X150.953 Y150.160 E0.02024
G1 X150.004 Y150.724 E0.03290
G1 X148.892 Y150.992 E0.03408
G1 X134.408 Y150.989 E0.43141
G1 X133.867 Y151.286 E0.01839
G1 X132.956 Y151.492 E0.02782
G1 X124.452 Y151.492 E0.25330
G1 X123.417 Y151.274 E0.03152
G1 X122.829 Y150.992 E0.01941
G1 X114.498 Y150.991 E0.24818
G1 X114.171 Y151.170 E0.01109
G1 X112.947 Y151.492 E0.03770
G1 X103.059 Y151.492 E0.29454
G1 X102.023 Y151.274 E0.03153
G1 X101.425 Y150.984 E0.01981
G1 X88.865 Y150.989 E0.37412
G1 X88.261 Y151.103 E0.01831
G1 X87.334 Y151.094 E0.02760
G1 X86.579 Y150.917 E0.02311
G1 X85.924 Y150.593 E0.02174
G1 X84.593 Y149.349 E0.05427
G1 X83.952 Y148.294 E0.03678
G1 X83.670 Y147.106 E0.03638
G1 X83.672 Y136.096 E0.32796
G1 X82.539 Y134.906 E0.04892
G1 X82.042 Y133.947 E0.03217
G1 X81.833 Y132.941 E0.03062
G1 X81.846 Y127.091 E0.17423
G1 X81.832 Y126.918 E0.00517
G1 X81.893 Y125.322 E0.04758
G1 X82.156 Y124.501 E0.02567
G1 X82.592 Y123.749 E0.02590
G1 X83.670 Y122.636 E0.04616
G1 X83.670 Y102.474 E0.60057
G1 X83.389 Y101.886 E0.01940
G1 X83.170 Y100.851 E0.03152
G1 X83.170 Y91.025 E0.29267
G1 X83.389 Y89.990 E0.03152
G1 X83.670 Y89.403 E0.01939
G1 X83.674 Y88.433 E0.02891
G1 X83.860 Y87.536 E0.02728
G1 X84.319 Y86.633 E0.03017
G1 X84.900 Y85.993 E0.02577
G1 X85.177 Y86.247 F9000.000
G1 F1200.000
G1 X85.265 Y86.152 E0.00385
G1 X86.140 Y85.628 E0.03038
G1 X86.765 Y85.431 E0.01954
G1 X88.144 Y85.396 E0.04108
G1 X89.154 Y84.963 E0.03273
G1 X89.754 Y84.884 E0.01804
G1 X98.214 Y84.885 E0.25199
G1 X99.339 Y85.187 E0.03471
G1 X99.684 Y85.385 E0.01184
G1 X130.892 Y85.385 E0.92957
G1 X131.839 Y85.578 E0.02878
G1 X132.532 Y85.385 E0.02145
G1 X136.289 Y85.385 E0.11189
G1 X136.891 Y85.090 E0.01997
G1 X137.844 Y84.885 E0.02903
G1 X146.291 Y84.885 E0.25163
G1 X147.244 Y85.090 E0.02903
G1 X147.852 Y85.388 E0.02017
G1 X148.670 Y85.414 E0.02438
G1 X149.612 Y85.691 E0.02925
G1 X150.447 Y86.226 E0.02954
G1 X151.389 Y87.168 E0.03968
G1 X151.813 Y87.838 E0.02361
G1 X152.045 Y88.605 E0.02388
G1 X152.063 Y89.576 E0.02891
G1 X151.953 Y90.178 E0.01825
G1 X152.150 Y90.523 E0.01182
G1 X152.452 Y91.648 E0.03471
G1 X152.452 Y100.745 E0.27097
G1 X152.273 Y101.542 E0.02432
G1 X151.951 Y102.193 E0.02164
G1 X151.940 Y112.470 E0.30612
G1 X151.951 Y113.422 E0.02836
G1 X152.068 Y113.907 E0.01484
G1 X152.063 Y114.720 E0.02423
G1 X151.948 Y115.308 E0.01786
G1 X151.940 Y116.287 E0.02915
G1 X151.953 Y147.598 E0.93265
G1 X151.485 Y148.992 E0.04378
G1 X151.158 Y149.422 E0.01611
G1 X150.704 Y149.876 E0.01912
G1 X149.838 Y150.384 E0.02992
G1 X148.870 Y150.615 E0.02964
G1 X134.308 Y150.612 E0.43376
G1 X133.754 Y150.925 E0.01896
G1 X132.934 Y151.115 E0.02506
G1 X124.473 Y151.115 E0.25204
G1 X123.520 Y150.910 E0.02903
G1 X122.918 Y150.615 E0.01997
G1 X114.396 Y150.613 E0.25384
G1 X114.048 Y150.813 E0.01194
G1 X112.922 Y151.115 E0.03472
G1 X103.080 Y151.115 E0.29318
G1 X102.127 Y150.910 E0.02903
G1 X101.514 Y150.607 E0.02037
G1 X88.828 Y150.612 E0.37787
G1 X88.243 Y150.726 E0.01775
G1 X87.397 Y150.722 E0.02520
G1 X86.725 Y150.568 E0.02052
G1 X86.117 Y150.268 E0.02021
G1 X84.870 Y149.093 E0.05103
G1 X84.311 Y148.177 E0.03196
G1 X84.047 Y147.083 E0.03351
G1 X84.049 Y135.943 E0.33182
G1 X82.860 Y134.707 E0.05110
G1 X82.406 Y133.843 E0.02907
G1 X82.210 Y132.921 E0.02806
G1 X82.223 Y127.074 E0.17416
G1 X82.209 Y126.920 E0.00461
G1 X82.269 Y125.364 E0.04639
G1 X82.507 Y124.639 E0.02272
G1 X82.905 Y123.960 E0.02344
G1 X84.047 Y122.790 E0.04870
G1 X84.047 Y102.386 E0.60779
G1 X83.753 Y101.783 E0.01997
G1 X83.548 Y100.831 E0.02903
G1 X83.548 Y91.046 E0.29145
G1 X83.753 Y90.093 E0.02903
G1 X84.047 Y89.491 E0.01997
G1 X84.047 Y88.487 E0.02990
G1 X84.208 Y87.683 E0.02443
G1 X84.643 Y86.827 E0.02859
G1 X85.136 Y86.291 E0.02170
G1 X85.414 Y86.547 F9000.000
G1 F1200.000
G1 X85.523 Y86.428 E0.00479
G1 X86.311 Y85.964 E0.02723
G1 X86.850 Y85.799 E0.01679
G1 X88.226 Y85.772 E0.04101
G1 X89.231 Y85.333 E0.03266
G1 X89.766 Y85.261 E0.01607
G1 X98.188 Y85.262 E0.25087
G1 X99.212 Y85.543 E0.03164
G1 X99.578 Y85.762 E0.01269
G1 X130.874 Y85.762 E0.93218
G1 X131.633 Y85.914 E0.02306
G1 X131.800 Y85.983 E0.00538
G1 X132.560 Y85.762 E0.02359
G1 X136.379 Y85.762 E0.11375
G1 X136.996 Y85.453 E0.02056
G1 X137.864 Y85.262 E0.02649
G1 X146.270 Y85.262 E0.25038
G1 X147.139 Y85.453 E0.02649
G1 X147.758 Y85.764 E0.02064
G1 X148.591 Y85.783 E0.02482
G1 X149.434 Y86.024 E0.02612
G1 X150.195 Y86.507 E0.02686
G1 X151.107 Y87.419 E0.03840
G1 X151.478 Y88.014 E0.02091
G1 X151.675 Y88.685 E0.02083
G1 X151.686 Y89.562 E0.02611
G1 X151.612 Y89.973 E0.01243
G1 X151.573 Y90.089 E0.00365
G1 X151.573 Y90.281 E0.00573
G1 X151.794 Y90.650 E0.01280
G1 X152.075 Y91.674 E0.03164
G1 X152.075 Y100.723 E0.26955
G1 X151.913 Y101.429 E0.02157
G1 X151.684 Y101.856 E0.01444
G1 X151.574 Y102.127 E0.00871
G1 X151.563 Y112.472 E0.30813
G1 X151.574 Y113.472 E0.02980
G1 X151.690 Y113.930 E0.01405
G1 X151.686 Y114.703 E0.02303
G1 X151.612 Y115.112 E0.01240
G1 X151.571 Y115.232 E0.00376
G1 X151.563 Y116.286 E0.03139
G1 X151.575 Y147.568 E0.93179
G1 X151.166 Y148.789 E0.03837
G1 X150.882 Y149.165 E0.01403
G1 X150.455 Y149.591 E0.01797
G1 X149.674 Y150.044 E0.02690
G1 X148.849 Y150.238 E0.02525
G1 X134.204 Y150.235 E0.43620
G1 X133.638 Y150.565 E0.01955
G1 X132.912 Y150.738 E0.02223
G1 X124.494 Y150.738 E0.25074
G1 X123.625 Y150.547 E0.02649
G1 X123.008 Y150.238 E0.02056
G1 X114.290 Y150.236 E0.25968
G1 X113.921 Y150.456 E0.01279
G1 X112.896 Y150.738 E0.03166
G1 X103.100 Y150.738 E0.29179
G1 X102.232 Y150.547 E0.02648
G1 X101.604 Y150.230 E0.02095
G1 X88.753 Y150.235 E0.38280
G1 X88.635 Y150.275 E0.00369
G1 X88.226 Y150.349 E0.01238
G1 X87.457 Y150.349 E0.02293
G1 X86.871 Y150.220 E0.01786
G1 X86.310 Y149.943 E0.01865
G1 X85.149 Y148.838 E0.04773
G1 X84.649 Y148.008 E0.02885
G1 X84.425 Y147.061 E0.02898
G1 X84.426 Y135.790 E0.33574
G1 X83.179 Y134.505 E0.05334
G1 X82.768 Y133.736 E0.02595
G1 X82.587 Y132.901 E0.02545
G1 X82.600 Y127.055 E0.17414
G1 X82.587 Y126.919 E0.00407
G1 X82.636 Y125.454 E0.04368
G1 X82.843 Y124.812 E0.02009
G1 X83.219 Y124.171 E0.02211
G1 X84.425 Y122.945 E0.05123
G1 X84.425 Y102.296 E0.61508
G1 X84.115 Y101.678 E0.02056
