; generated by PrusaSlicer 2.3.0-beta3+win64 on 2022-04-10 at 00:07:00 UTC

; 

; external perimeters extrusion width = 0.45mm
; perimeters extrusion width = 0.45mm
; infill extrusion width = 0.45mm
; solid infill extrusion width = 0.45mm
; top infill extrusion width = 0.40mm
; support material extrusion width = 0.38mm
; first layer extrusion width = 0.42mm

M201 X500 Y500 Z100 E5000 ; sets maximum accelerations, mm/sec^2
M203 X500 Y500 Z10 E60 ; sets maximum feedrates, mm/sec
M204 P500 R1000 T500 ; sets acceleration (P, T) and retract acceleration (R), mm/sec^2
M205 X8.00 Y8.00 Z0.40 E5.00 ; sets the jerk limits, mm/sec
M205 S0 T0 ; sets the minimum extruding and travel feed rate, mm/sec
M107
;TYPE:Custom
G90 ; use absolute coordinates
M83 ; extruder relative mode
M104 S190 ; set extruder temp
M140 S65 ; set bed temp
M190 S65 ; wait for bed temp
M109 S190 ; wait for extruder temp
G28 ; home all
G1 Z2 F240
G1 X2 Y10 F3000
G1 Z0.28 F240
G92 E0
G1 Y190 E15 F1500 ; intro line
G1 X2.3 F5000
G92 E0
G1 Y10 E15 F1200 ; intro line
G92 E0
G21 ; set units to millimeters
G90 ; use absolute coordinates
M83 ; use relative distances for extrusion
; Filament gcode
;LAYER_CHANGE
;Z:0.2
;HEIGHT:0.2
;BEFORE_LAYER_CHANGE
G92 E0
;0.2


G1 E-5.00000 F3600.000
G1 Z0.200 F9000.000
;AFTER_LAYER_CHANGE
;0.2
G1 X84.219 Y85.744
G1 E5.00000 F2400.000
;TYPE:Skirt
;WIDTH:0.42
G1 F1200.000
G1 X85.407 Y84.782 E0.04793
G1 X86.413 Y84.358 E0.03424
G1 X87.456 Y84.168 E0.03323
G1 X132.266 Y84.168 E1.40497
G1 X132.485 Y84.196 E0.00693
G1 X133.231 Y84.196 E0.02338
G1 X133.491 Y84.168 E0.00820
G1 X148.605 Y84.173 E0.47388
G1 X149.747 Y84.410 E0.03659
G1 X150.837 Y84.937 E0.03796
G1 X151.846 Y85.812 E0.04188
G1 X152.685 Y87.124 E0.04881
G1 X153.068 Y88.609 E0.04809
G1 X153.068 Y147.609 E1.84992
G1 X152.736 Y148.926 E0.04259
G1 X151.998 Y150.124 E0.04412
G1 X151.151 Y150.928 E0.03662
G1 X150.141 Y151.498 E0.03636
G1 X149.051 Y151.783 E0.03531
G1 X148.026 Y151.803 E0.03217
G1 X147.759 Y151.831 E0.00840
G1 X146.341 Y151.831 E0.04446
G1 X145.736 Y151.806 E0.01898
G1 X145.497 Y151.831 E0.00755
G1 X138.045 Y151.831 E0.23363
G1 X137.441 Y151.806 E0.01898
G1 X137.201 Y151.831 E0.00755
G1 X123.716 Y151.831 E0.42280
G1 X123.112 Y151.806 E0.01898
G1 X122.872 Y151.831 E0.00755
G1 X101.846 Y151.831 E0.65926
G1 X101.241 Y151.806 E0.01898
G1 X101.001 Y151.831 E0.00755
G1 X99.583 Y151.831 E0.04446
G1 X98.978 Y151.806 E0.01898
G1 X98.739 Y151.831 E0.00755
G1 X88.240 Y151.831 E0.32918
G1 X87.942 Y151.799 E0.00939
G1 X86.646 Y151.741 E0.04067
G1 X85.746 Y151.445 E0.02973
G1 X84.617 Y150.743 E0.04168
G1 X83.639 Y149.649 E0.04601
G1 X83.230 Y148.832 E0.02865
G1 X82.932 Y147.609 E0.03947
G1 X82.932 Y88.613 E1.84978
G1 X83.339 Y87.070 E0.05003
G1 X84.185 Y85.794 E0.04802
G1 X84.479 Y86.017 F9000.000
G1 F1200.000
G1 X85.580 Y85.118 E0.04457
G1 X86.503 Y84.725 E0.03145
G1 X87.474 Y84.546 E0.03095
G1 X132.253 Y84.546 E1.40401
G1 X132.459 Y84.573 E0.00654
G1 X133.252 Y84.573 E0.02485
G1 X133.502 Y84.546 E0.00787
G1 X148.584 Y84.550 E0.47291
G1 X149.646 Y84.774 E0.03401
G1 X150.649 Y85.264 E0.03499
G1 X151.577 Y86.078 E0.03872
G1 X152.328 Y87.249 E0.04360
G1 X152.691 Y88.633 E0.04489
G1 X152.691 Y147.585 E1.84839
G1 X152.378 Y148.804 E0.03946
G1 X151.719 Y149.868 E0.03925
G1 X150.944 Y150.611 E0.03367
G1 X149.978 Y151.157 E0.03481
G1 X148.981 Y151.412 E0.03227
G1 X148.002 Y151.426 E0.03068
G1 X147.748 Y151.454 E0.00801
G1 X146.345 Y151.454 E0.04400
G1 X145.723 Y151.428 E0.01952
G1 X145.486 Y151.454 E0.00748
G1 X138.049 Y151.454 E0.23317
G1 X137.427 Y151.428 E0.01952
G1 X137.190 Y151.454 E0.00748
G1 X123.720 Y151.454 E0.42234
G1 X123.098 Y151.428 E0.01952
G1 X122.861 Y151.454 E0.00748
G1 X101.850 Y151.454 E0.65880
G1 X101.228 Y151.428 E0.01952
G1 X100.990 Y151.454 E0.00748
G1 X99.587 Y151.454 E0.04400
G1 X98.965 Y151.428 E0.01952
G1 X98.728 Y151.454 E0.00748
G1 X88.251 Y151.454 E0.32849
G1 X87.971 Y151.423 E0.00884
G1 X86.737 Y151.374 E0.03873
G1 X85.923 Y151.111 E0.02682
G1 X84.878 Y150.470 E0.03844
G1 X83.964 Y149.455 E0.04283
G1 X83.590 Y148.719 E0.02587
G1 X83.309 Y147.585 E0.03664
G1 X83.309 Y88.638 E1.84826
G1 X83.695 Y87.198 E0.04675
G1 X84.446 Y86.067 E0.04255
G1 X84.742 Y86.290 F9000.000
G1 F1200.000
G1 X85.755 Y85.453 E0.04119
G1 X86.594 Y85.091 E0.02865
G1 X87.491 Y84.923 E0.02863
G1 X132.238 Y84.923 E1.40301
G1 X132.432 Y84.950 E0.00613
G1 X133.274 Y84.950 E0.02641
G1 X133.513 Y84.923 E0.00753
G1 X148.564 Y84.927 E0.47192
G1 X149.543 Y85.138 E0.03139
G1 X150.458 Y85.590 E0.03202
G1 X151.307 Y86.342 E0.03555
G1 X151.993 Y87.425 E0.04020
G1 X152.314 Y88.657 E0.03992
G1 X152.314 Y147.562 E1.84691
G1 X152.042 Y148.632 E0.03463
G1 X151.441 Y149.613 E0.03608
G1 X150.701 Y150.322 E0.03213
G1 X149.817 Y150.816 E0.03175
G1 X148.912 Y151.041 E0.02923
G1 X147.979 Y151.049 E0.02927
G1 X147.737 Y151.077 E0.00763
G1 X146.349 Y151.077 E0.04352
G1 X145.709 Y151.050 E0.02009
G1 X145.474 Y151.077 E0.00740
G1 X138.053 Y151.077 E0.23269
G1 X137.413 Y151.050 E0.02009
G1 X137.179 Y151.077 E0.00740
G1 X123.724 Y151.077 E0.42185
G1 X123.084 Y151.050 E0.02009
G1 X122.850 Y151.077 E0.00740
G1 X101.854 Y151.077 E0.65832
G1 X101.213 Y151.050 E0.02009
G1 X100.979 Y151.077 E0.00740
G1 X99.591 Y151.077 E0.04352
G1 X98.951 Y151.050 E0.02009
G1 X98.717 Y151.077 E0.00740
G1 X88.263 Y151.077 E0.32777
G1 X87.999 Y151.046 E0.00832
G1 X86.825 Y151.007 E0.03684
G1 X86.098 Y150.777 E0.02391
G1 X85.138 Y150.195 E0.03519
G1 X84.287 Y149.260 E0.03965
G1 X83.950 Y148.605 E0.02309
G1 X83.686 Y147.561 E0.03376
G1 X83.686 Y88.662 E1.84674
G1 X84.027 Y87.378 E0.04165
G1 X84.709 Y86.340 E0.03896
G1 X85.006 Y86.560 F9000.000
G1 F1200.000
G1 X85.931 Y85.788 E0.03780
G1 X86.686 Y85.458 E0.02583
G1 X87.510 Y85.300 E0.02629
G1 X132.223 Y85.300 E1.40195
G1 X132.402 Y85.327 E0.00568
G1 X133.298 Y85.327 E0.02808
G1 X133.525 Y85.300 E0.00717
G1 X148.543 Y85.304 E0.47089
G1 X149.438 Y85.501 E0.02873
G1 X150.266 Y85.916 E0.02903
G1 X151.036 Y86.605 E0.03241
G1 X151.637 Y87.550 E0.03511
G1 X151.937 Y88.682 E0.03672
G1 X151.937 Y147.537 E1.84535
G1 X151.684 Y148.509 E0.03149
G1 X151.161 Y149.359 E0.03130
G1 X150.495 Y150.005 E0.02909
G1 X149.656 Y150.473 E0.03013
G1 X148.846 Y150.669 E0.02612
G1 X147.955 Y150.672 E0.02794
G1 X147.725 Y150.700 E0.00726
G1 X146.353 Y150.700 E0.04301
G1 X145.693 Y150.672 E0.02070
G1 X145.463 Y150.700 E0.00729
G1 X138.057 Y150.700 E0.23218
G1 X137.398 Y150.672 E0.02070
G1 X137.167 Y150.700 E0.00729
G1 X123.728 Y150.700 E0.42135
G1 X123.069 Y150.672 E0.02070
G1 X122.838 Y150.700 E0.00729
G1 X101.858 Y150.700 E0.65781
G1 X101.198 Y150.672 E0.02070
G1 X100.967 Y150.700 E0.00729
G1 X99.595 Y150.700 E0.04301
G1 X98.936 Y150.672 E0.02070
G1 X98.705 Y150.700 E0.00729
G1 X88.275 Y150.700 E0.32702
G1 X88.028 Y150.670 E0.00781
G1 X86.911 Y150.639 E0.03504
G1 X86.271 Y150.441 E0.02100
G1 X85.396 Y149.919 E0.03193
G1 X84.609 Y149.063 E0.03647
G1 X84.310 Y148.488 E0.02031
G1 X84.063 Y147.537 E0.03082
G1 X84.063 Y88.686 E1.84522
G1 X84.360 Y87.557 E0.03660
G1 X84.973 Y86.610 E0.03538
G1 X85.271 Y86.830 F9000.000
G1 F1200.000
G1 X86.108 Y86.122 E0.03437
G1 X86.818 Y85.812 E0.02429
G1 X87.527 Y85.677 E0.02264
G1 X132.206 Y85.677 E1.40087
G1 X132.405 Y85.710 E0.00634
G1 X132.536 Y85.694 E0.00412
G1 X133.318 Y85.705 E0.02455
G1 X133.537 Y85.677 E0.00692
G1 X148.522 Y85.681 E0.46983
G1 X149.332 Y85.863 E0.02602
G1 X150.071 Y86.240 E0.02603
G1 X150.764 Y86.867 E0.02930
G1 X151.280 Y87.677 E0.03012
G1 X151.560 Y88.708 E0.03347
G1 X151.560 Y147.512 E1.84376
G1 X151.328 Y148.384 E0.02831
G1 X150.880 Y149.106 E0.02663
G1 X150.287 Y149.690 E0.02611
G1 X149.541 Y150.113 E0.02687
G1 X148.780 Y150.297 E0.02455
G1 X147.931 Y150.295 E0.02662
G1 X147.712 Y150.323 E0.00692
G1 X146.370 Y150.323 E0.04210
G1 X146.179 Y150.302 E0.00602
G1 X145.669 Y150.295 E0.01599
G1 X145.450 Y150.323 E0.00692
G1 X138.074 Y150.323 E0.23127
G1 X137.883 Y150.302 E0.00602
G1 X137.373 Y150.295 E0.01599
G1 X137.154 Y150.323 E0.00692
G1 X123.745 Y150.323 E0.42044
G1 X123.554 Y150.302 E0.00602
G1 X123.044 Y150.295 E0.01599
G1 X122.825 Y150.323 E0.00692
G1 X101.874 Y150.323 E0.65690
G1 X101.683 Y150.302 E0.00602
G1 X101.173 Y150.295 E0.01599
G1 X100.954 Y150.323 E0.00692
G1 X99.612 Y150.323 E0.04210
G1 X99.421 Y150.302 E0.00602
G1 X98.911 Y150.295 E0.01599
G1 X98.692 Y150.323 E0.00692
G1 X88.288 Y150.323 E0.32622
G1 X88.056 Y150.293 E0.00732
G1 X86.994 Y150.270 E0.03332
G1 X86.441 Y150.104 E0.01810
G1 X85.653 Y149.642 E0.02864
G1 X84.930 Y148.863 E0.03331
G1 X84.668 Y148.370 E0.01752
G1 X84.440 Y147.512 E0.02783
G1 X84.440 Y88.712 E1.84364
G1 X84.716 Y87.684 E0.03335
G1 X85.238 Y86.880 E0.03007
G1 X85.538 Y87.097 F9000.000
G1 F1200.000
G1 X86.287 Y86.455 E0.03094
G1 X86.912 Y86.177 E0.02142
G1 X87.546 Y86.054 E0.02025
G1 X132.187 Y86.054 E1.39969
G1 X132.399 Y86.093 E0.00677
G1 X132.548 Y86.071 E0.00471
G1 X133.342 Y86.082 E0.02491
G1 X133.551 Y86.054 E0.00661
G1 X148.500 Y86.058 E0.46872
G1 X149.223 Y86.225 E0.02326
G1 X149.875 Y86.562 E0.02302
G1 X150.491 Y87.128 E0.02622
G1 X150.925 Y87.806 E0.02525
G1 X151.183 Y88.734 E0.03019
G1 X151.183 Y147.486 E1.84213
G1 X150.972 Y148.257 E0.02508
G1 X150.600 Y148.853 E0.02200
G1 X150.041 Y149.403 E0.02460
G1 X149.382 Y149.770 E0.02365
G1 X148.718 Y149.924 E0.02137
G1 X147.907 Y149.918 E0.02544
G1 X147.699 Y149.946 E0.00659
G1 X146.381 Y149.946 E0.04132
G1 X146.204 Y149.926 E0.00560
G1 X145.645 Y149.918 E0.01752
G1 X145.436 Y149.946 E0.00661
G1 X138.085 Y149.946 E0.23049
G1 X137.908 Y149.926 E0.00560
G1 X137.349 Y149.918 E0.01752
G1 X137.141 Y149.946 E0.00661
G1 X123.756 Y149.946 E0.41966
G1 X123.579 Y149.926 E0.00560
G1 X123.020 Y149.918 E0.01752
G1 X122.812 Y149.946 E0.00661
G1 X101.886 Y149.946 E0.65612
G1 X101.708 Y149.926 E0.00560
G1 X101.150 Y149.918 E0.01752
G1 X100.941 Y149.946 E0.00661
G1 X99.623 Y149.946 E0.04132
G1 X99.446 Y149.926 E0.00560
G1 X98.887 Y149.918 E0.01752
G1 X98.678 Y149.946 E0.00661
G1 X88.301 Y149.946 E0.32537
G1 X88.085 Y149.916 E0.00685
G1 X87.074 Y149.901 E0.03171
G1 X86.608 Y149.765 E0.01521
G1 X85.908 Y149.362 E0.02532
G1 X85.249 Y148.661 E0.03016
G1 X85.025 Y148.248 E0.01474
G1 X84.817 Y147.486 E0.02477
G1 X84.817 Y88.736 E1.84206
G1 X85.050 Y87.862 E0.02836
G1 X85.506 Y87.147 E0.02658
G1 X85.806 Y87.363 F9000.000
G1 F1200.000
G1 X86.469 Y86.786 E0.02754
G1 X87.008 Y86.543 E0.01855
G1 X87.565 Y86.431 E0.01781
G1 X132.166 Y86.431 E1.39843
G1 X132.394 Y86.478 E0.00730
G1 X132.562 Y86.448 E0.00536
G1 X133.368 Y86.460 E0.02525
G1 X133.565 Y86.431 E0.00626
G1 X148.479 Y86.435 E0.46760
G1 X149.071 Y86.571 E0.01904
G1 X149.678 Y86.885 E0.02144
G1 X150.216 Y87.387 E0.02308
G1 X150.571 Y87.937 E0.02052
G1 X150.806 Y88.761 E0.02685
G1 X150.806 Y147.459 E1.84044
G1 X150.617 Y148.128 E0.02179
G1 X150.319 Y148.602 E0.01755
G1 X149.834 Y149.087 E0.02151
G1 X149.223 Y149.427 E0.02191
G1 X148.660 Y149.551 E0.01809
G1 X147.882 Y149.540 E0.02440
G1 X147.684 Y149.569 E0.00626
G1 X146.393 Y149.569 E0.04047
G1 X146.230 Y149.549 E0.00515
G1 X145.619 Y149.540 E0.01916
G1 X145.422 Y149.569 E0.00626
G1 X138.098 Y149.569 E0.22964
G1 X137.935 Y149.549 E0.00515
G1 X137.324 Y149.540 E0.01916
G1 X137.126 Y149.569 E0.00626
G1 X123.769 Y149.569 E0.41881
G1 X123.606 Y149.549 E0.00515
G1 X122.995 Y149.540 E0.01916
G1 X122.797 Y149.569 E0.00626
G1 X101.898 Y149.569 E0.65527
G1 X101.735 Y149.549 E0.00515
G1 X101.124 Y149.540 E0.01916
G1 X100.926 Y149.569 E0.00626
G1 X99.635 Y149.569 E0.04047
G1 X99.473 Y149.549 E0.00515
G1 X98.862 Y149.540 E0.01916
G1 X98.664 Y149.569 E0.00626
G1 X88.316 Y149.569 E0.32445
G1 X88.114 Y149.539 E0.00638
G1 X87.150 Y149.531 E0.03024
G1 X86.771 Y149.425 E0.01233
G1 X86.160 Y149.081 E0.02197
G1 X85.567 Y148.456 E0.02703
G1 X85.382 Y148.123 E0.01196
G1 X85.194 Y147.459 E0.02162
G1 X85.194 Y88.762 E1.84041
G1 X85.406 Y87.990 E0.02510
G1 X85.774 Y87.414 E0.02144
G1 X86.076 Y87.627 F9000.000
G1 F1200.000
G1 X86.653 Y87.116 E0.02417
G1 X87.107 Y86.907 E0.01566
G1 X87.585 Y86.808 E0.01531
G1 X88.856 Y86.808 E0.03985
G1 X88.965 Y86.824 E0.00346
G1 X89.074 Y86.808 E0.00346
G1 X90.364 Y86.808 E0.04044
G1 X90.473 Y86.824 E0.00346
G1 X90.582 Y86.808 E0.00346
G1 X91.872 Y86.808 E0.04044
G1 X91.982 Y86.824 E0.00346
G1 X92.091 Y86.808 E0.00346
G1 X93.381 Y86.808 E0.04044
G1 X93.490 Y86.824 E0.00346
G1 X93.599 Y86.808 E0.00346
G1 X94.889 Y86.808 E0.04044
G1 X94.998 Y86.824 E0.00346
G1 X95.107 Y86.808 E0.00346
G1 X96.397 Y86.808 E0.04044
G1 X96.506 Y86.824 E0.00346
G1 X96.616 Y86.808 E0.00346
G1 X97.906 Y86.808 E0.04044
G1 X98.015 Y86.824 E0.00346
G1 X98.124 Y86.808 E0.00346
G1 X99.414 Y86.808 E0.04044
G1 X99.523 Y86.824 E0.00346
G1 X99.632 Y86.808 E0.00346
G1 X100.922 Y86.808 E0.04044
G1 X101.031 Y86.824 E0.00346
G1 X101.141 Y86.808 E0.00346
G1 X102.431 Y86.808 E0.04044
G1 X102.540 Y86.824 E0.00346
G1 X102.649 Y86.808 E0.00346
G1 X103.939 Y86.808 E0.04044
G1 X104.048 Y86.824 E0.00346
G1 X104.157 Y86.808 E0.00346
G1 X105.447 Y86.808 E0.04044
G1 X105.556 Y86.824 E0.00346
G1 X105.666 Y86.808 E0.00346
G1 X106.955 Y86.808 E0.04044
G1 X107.065 Y86.824 E0.00346
G1 X107.174 Y86.808 E0.00346
G1 X108.464 Y86.808 E0.04044
G1 X108.573 Y86.824 E0.00346
G1 X108.682 Y86.808 E0.00346
G1 X109.972 Y86.808 E0.04044
G1 X110.081 Y86.824 E0.00346
G1 X110.191 Y86.808 E0.00346
G1 X111.480 Y86.808 E0.04044
G1 X111.590 Y86.824 E0.00346
G1 X111.699 Y86.808 E0.00346
G1 X112.989 Y86.808 E0.04044
G1 X113.098 Y86.824 E0.00346
G1 X113.207 Y86.808 E0.00346
G1 X114.497 Y86.808 E0.04044
G1 X114.606 Y86.824 E0.00346
G1 X114.716 Y86.808 E0.00346
G1 X116.005 Y86.808 E0.04044
G1 X116.115 Y86.824 E0.00346
G1 X116.224 Y86.808 E0.00346
G1 X117.514 Y86.808 E0.04044
G1 X117.623 Y86.824 E0.00346
G1 X117.732 Y86.808 E0.00346
G1 X119.022 Y86.808 E0.04044
G1 X119.131 Y86.824 E0.00346
G1 X119.240 Y86.808 E0.00346
G1 X120.530 Y86.808 E0.04044
G1 X120.640 Y86.824 E0.00346
G1 X120.749 Y86.808 E0.00346
G1 X122.039 Y86.808 E0.04044
G1 X122.148 Y86.824 E0.00346
G1 X122.257 Y86.808 E0.00346
G1 X123.547 Y86.808 E0.04044
G1 X123.656 Y86.824 E0.00346
G1 X123.765 Y86.808 E0.00346
G1 X125.055 Y86.808 E0.04044
G1 X125.165 Y86.824 E0.00346
G1 X125.274 Y86.808 E0.00346
G1 X126.564 Y86.808 E0.04044
G1 X126.673 Y86.824 E0.00346
G1 X126.782 Y86.808 E0.00346
G1 X128.072 Y86.808 E0.04044
G1 X128.181 Y86.824 E0.00346
G1 X128.290 Y86.808 E0.00346
G1 X129.580 Y86.808 E0.04044
G1 X129.689 Y86.824 E0.00346
G1 X129.799 Y86.808 E0.00346
G1 X131.089 Y86.808 E0.04044
G1 X131.198 Y86.824 E0.00346
G1 X131.307 Y86.808 E0.00346
G1 X132.143 Y86.808 E0.02620
G1 X132.391 Y86.865 E0.00798
G1 X132.580 Y86.826 E0.00607
G1 X133.396 Y86.837 E0.02557
G1 X133.581 Y86.808 E0.00589
G1 X134.859 Y86.808 E0.04007
G1 X134.969 Y86.824 E0.00346
G1 X135.078 Y86.808 E0.00346
G1 X136.368 Y86.808 E0.04044
G1 X136.477 Y86.824 E0.00346
G1 X136.586 Y86.808 E0.00346
G1 X137.876 Y86.808 E0.04044
G1 X137.985 Y86.824 E0.00346
G1 X138.094 Y86.808 E0.00346
G1 X139.384 Y86.808 E0.04044
G1 X139.494 Y86.824 E0.00346
G1 X139.603 Y86.808 E0.00346
G1 X140.893 Y86.808 E0.04044
G1 X141.002 Y86.824 E0.00346
G1 X141.111 Y86.808 E0.00346
G1 X142.401 Y86.808 E0.04044
G1 X142.510 Y86.824 E0.00346
G1 X142.619 Y86.808 E0.00346
G1 X143.909 Y86.808 E0.04044
G1 X144.018 Y86.824 E0.00346
G1 X144.128 Y86.808 E0.00346
G1 X145.418 Y86.808 E0.04044
G1 X145.527 Y86.824 E0.00346
G1 X145.636 Y86.808 E0.00346
G1 X148.455 Y86.812 E0.08841
G1 X148.959 Y86.932 E0.01623
G1 X149.478 Y87.205 E0.01838
G1 X149.940 Y87.645 E0.02001
G1 X150.217 Y88.071 E0.01594
G1 X150.429 Y88.789 E0.02345
G1 X150.429 Y147.431 E1.83869
G1 X150.263 Y147.995 E0.01842
G1 X150.038 Y148.349 E0.01318
G1 X149.587 Y148.800 E0.02000
G1 X149.068 Y149.083 E0.01851
G1 X148.644 Y149.174 E0.01359
G1 X147.854 Y149.163 E0.02479
G1 X147.668 Y149.192 E0.00589
G1 X146.407 Y149.192 E0.03955
G1 X146.259 Y149.172 E0.00467
G1 X145.591 Y149.163 E0.02094
G1 X145.406 Y149.192 E0.00589
G1 X144.128 Y149.192 E0.04007
G1 X144.018 Y149.176 E0.00346
G1 X143.909 Y149.192 E0.00346
G1 X142.619 Y149.192 E0.04044
G1 X142.510 Y149.176 E0.00346
G1 X142.401 Y149.192 E0.00346
