; generated by PrusaSlicer 2.3.0-beta3+win64 on 2022-04-03 at 17:59:13 UTC

; 

; external perimeters extrusion width = 0.45mm
; perimeters extrusion width = 0.45mm
; infill extrusion width = 0.45mm
; solid infill extrusion width = 0.45mm
; top infill extrusion width = 0.40mm
; support material extrusion width = 0.38mm
; first layer extrusion width = 0.42mm

M201 X500 Y500 Z100 E5000 ; sets maximum accelerations, mm/sec^2
M203 X500 Y500 Z10 E60 ; sets maximum feedrates, mm/sec
M204 P500 R1000 T500 ; sets acceleration (P, T) and retract acceleration (R), mm/sec^2
M205 X8.00 Y8.00 Z0.40 E5.00 ; sets the jerk limits, mm/sec
M205 S0 T0 ; sets the minimum extruding and travel feed rate, mm/sec
M107
;TYPE:Custom
G90 ; use absolute coordinates
M83 ; extruder relative mode
M104 S210 ; set extruder temp
M140 S55 ; set bed temp
M190 S55 ; wait for bed temp
M109 S210 ; wait for extruder temp
G28 ; home all
G1 Z2 F240
G1 X2 Y10 F3000
G1 Z0.28 F240
G92 E0
G1 Y190 E15 F1500 ; intro line
G1 X2.3 F5000
G92 E0
G1 Y10 E15 F1200 ; intro line
G92 E0
G21 ; set units to millimeters
G90 ; use absolute coordinates
M83 ; use relative distances for extrusion
; Filament gcode
;LAYER_CHANGE
;Z:0.2
;HEIGHT:0.2
;BEFORE_LAYER_CHANGE
G92 E0
;0.2


G1 E-5.00000 F3600.000
G1 Z0.200 F9000.000
;AFTER_LAYER_CHANGE
;0.2
G1 X84.227 Y86.399
G1 E5.00000 F2400.000
;TYPE:Skirt
;WIDTH:0.42
G1 F1200.000
G1 X84.806 Y85.951 E0.02296
G1 X86.049 Y85.388 E0.04277
G1 X87.766 Y85.235 E0.05406
G1 X88.355 Y84.970 E0.02023
G1 X89.630 Y84.713 E0.04077
G1 X98.236 Y84.713 E0.26984
G1 X99.511 Y84.970 E0.04078
G1 X100.060 Y85.217 E0.01888
G1 X130.786 Y85.213 E0.96338
G1 X131.864 Y85.423 E0.03445
G1 X132.949 Y85.222 E0.03458
G1 X135.977 Y85.215 E0.09495
G1 X136.790 Y84.873 E0.02766
G1 X137.787 Y84.715 E0.03165
G1 X144.846 Y84.713 E0.22132
G1 X146.571 Y84.744 E0.05409
G1 X147.600 Y84.983 E0.03312
G1 X148.133 Y85.227 E0.01838
G1 X148.633 Y85.249 E0.01569
G1 X149.485 Y85.433 E0.02734
G1 X151.046 Y86.255 E0.05531
G1 X152.516 Y87.689 E0.06439
G1 X153.137 Y88.629 E0.03533
G1 X153.462 Y89.514 E0.02956
G1 X153.552 Y90.676 E0.03654
G1 X153.730 Y91.106 E0.01460
G1 X153.938 Y92.079 E0.03120
G1 X153.961 Y100.825 E0.27422
G1 X153.727 Y101.952 E0.03610
G1 X153.459 Y102.540 E0.02025
G1 X153.449 Y112.462 E0.31111
G1 X153.457 Y113.243 E0.02447
G1 X153.576 Y113.826 E0.01868
G1 X153.571 Y114.798 E0.03048
G1 X153.455 Y115.456 E0.02095
G1 X153.448 Y116.293 E0.02622
G1 X153.461 Y146.339 E0.94207
G1 X153.088 Y147.805 E0.04744
G1 X152.308 Y149.068 E0.04654
G1 X151.754 Y149.617 E0.02446
G1 X151.092 Y150.113 E0.02593
G1 X149.057 Y150.787 E0.06722
G1 X136.549 Y150.778 E0.39218
G1 X135.794 Y151.485 E0.03242
G1 X134.533 Y152.233 E0.04599
G1 X133.034 Y152.624 E0.04857
G1 X126.992 Y152.611 E0.18943
G1 X126.780 Y152.626 E0.00666
G1 X125.353 Y152.583 E0.04478
G1 X124.201 Y152.273 E0.03739
G1 X123.287 Y151.794 E0.03237
G1 X122.636 Y151.220 E0.02720
G1 X121.957 Y151.089 E0.02169
G1 X121.261 Y150.781 E0.02386
G1 X120.458 Y150.774 E0.02519
G1 X115.177 Y150.785 E0.16558
G1 X114.710 Y151.241 E0.02048
G1 X114.395 Y151.461 E0.01204
G1 X114.168 Y151.650 E0.00924
G1 X113.301 Y152.187 E0.03197
G1 X111.875 Y152.603 E0.04659
G1 X110.175 Y152.625 E0.05331
G1 X109.994 Y152.612 E0.00568
G1 X104.365 Y152.624 E0.17652
G1 X103.062 Y152.367 E0.04163
G1 X101.882 Y151.784 E0.04128
G1 X100.793 Y150.783 E0.04637
G1 X89.155 Y150.783 E0.36489
G1 X88.508 Y150.897 E0.02062
G1 X87.528 Y150.902 E0.03072
G1 X86.139 Y150.545 E0.04497
G1 X84.963 Y149.798 E0.04368
G1 X83.313 Y148.000 E0.07651
G1 X82.836 Y147.017 E0.03425
G1 X82.572 Y145.956 E0.03430
G1 X82.540 Y131.718 E0.44641
G1 X82.296 Y131.173 E0.01871
G1 X82.039 Y129.899 E0.04076
G1 X82.039 Y120.689 E0.28876
G1 X82.195 Y119.914 E0.02480
G1 X82.278 Y119.357 E0.01766
G1 X82.549 Y118.613 E0.02482
G1 X82.552 Y118.187 E0.01335
G1 X82.540 Y102.729 E0.48469
G1 X82.296 Y102.184 E0.01872
G1 X82.039 Y100.910 E0.04076
G1 X82.039 Y92.304 E0.26984
G1 X82.296 Y91.029 E0.04078
G1 X82.556 Y90.452 E0.01983
G1 X82.628 Y89.085 E0.04292
G1 X83.038 Y87.918 E0.03878
G1 X83.700 Y86.924 E0.03744
G1 X84.185 Y86.441 E0.02147
G1 X84.451 Y86.707 F9000.000
G1 F1200.000
G1 X85.019 Y86.263 E0.02262
G1 X86.173 Y85.746 E0.03965
G1 X87.864 Y85.606 E0.05320
G1 X88.452 Y85.335 E0.02031
G1 X89.649 Y85.090 E0.03829
G1 X98.216 Y85.090 E0.26863
G1 X99.413 Y85.335 E0.03829
G1 X99.977 Y85.594 E0.01945
G1 X130.767 Y85.590 E0.96541
G1 X131.862 Y85.807 E0.03501
G1 X132.967 Y85.599 E0.03525
G1 X136.055 Y85.592 E0.09683
G1 X136.874 Y85.242 E0.02792
G1 X137.803 Y85.092 E0.02949
G1 X144.842 Y85.090 E0.22070
G1 X146.505 Y85.116 E0.05217
G1 X147.495 Y85.345 E0.03185
G1 X148.042 Y85.601 E0.01893
G1 X148.570 Y85.621 E0.01655
G1 X149.380 Y85.796 E0.02601
G1 X150.802 Y86.544 E0.05037
G1 X152.239 Y87.945 E0.06291
G1 X152.791 Y88.780 E0.03139
G1 X153.099 Y89.618 E0.02802
G1 X153.180 Y90.765 E0.03603
G1 X153.365 Y91.203 E0.01492
G1 X153.565 Y92.139 E0.03000
G1 X153.584 Y100.806 E0.27174
G1 X153.363 Y101.852 E0.03355
G1 X153.082 Y102.456 E0.02086
G1 X153.071 Y112.464 E0.31381
G1 X153.081 Y113.285 E0.02573
G1 X153.199 Y113.845 E0.01795
G1 X153.194 Y114.779 E0.02930
G1 X153.078 Y115.421 E0.02043
G1 X153.071 Y116.291 E0.02729
G1 X153.084 Y146.316 E0.94140
G1 X152.752 Y147.633 E0.04259
G1 X152.026 Y148.817 E0.04355
G1 X151.514 Y149.327 E0.02265
G1 X150.941 Y149.767 E0.02264
G1 X149.026 Y150.410 E0.06334
G1 X136.399 Y150.401 E0.39593
G1 X135.583 Y151.172 E0.03517
G1 X134.363 Y151.895 E0.04448
G1 X133.011 Y152.247 E0.04382
G1 X126.978 Y152.234 E0.18913
G1 X126.782 Y152.249 E0.00619
G1 X125.386 Y152.206 E0.04377
G1 X124.358 Y151.929 E0.03339
G1 X123.483 Y151.471 E0.03097
G1 X122.809 Y150.868 E0.02836
G1 X122.089 Y150.735 E0.02297
G1 X121.342 Y150.405 E0.02559
G1 X120.459 Y150.397 E0.02769
G1 X115.023 Y150.408 E0.17045
G1 X114.458 Y150.960 E0.02476
G1 X114.167 Y151.160 E0.01108
G1 X113.937 Y151.352 E0.00939
G1 X113.125 Y151.853 E0.02991
G1 X111.845 Y152.227 E0.04182
G1 X110.179 Y152.247 E0.05223
G1 X110.009 Y152.234 E0.00536
G1 X104.382 Y152.247 E0.17642
G1 X103.206 Y152.018 E0.03755
G1 X102.074 Y151.458 E0.03961
G1 X100.942 Y150.406 E0.04846
G1 X89.122 Y150.406 E0.37061
G1 X88.489 Y150.520 E0.02015
G1 X87.550 Y150.525 E0.02945
G1 X86.314 Y150.210 E0.03998
G1 X85.222 Y149.524 E0.04043
G1 X83.640 Y147.810 E0.07313
G1 X83.184 Y146.871 E0.03273
G1 X82.943 Y145.888 E0.03173
G1 X82.916 Y131.635 E0.44691
G1 X82.661 Y131.076 E0.01927
G1 X82.416 Y129.879 E0.03828
G1 X82.416 Y120.709 E0.28754
G1 X82.567 Y119.980 E0.02333
G1 X82.648 Y119.432 E0.01738
G1 X82.926 Y118.683 E0.02506
G1 X82.929 Y118.188 E0.01550
G1 X82.917 Y102.646 E0.48733
G1 X82.661 Y102.087 E0.01928
G1 X82.416 Y100.890 E0.03828
G1 X82.416 Y92.323 E0.26863
G1 X82.661 Y91.126 E0.03829
G1 X82.929 Y90.543 E0.02012
G1 X82.993 Y89.182 E0.04274
G1 X83.366 Y88.106 E0.03570
G1 X83.980 Y87.177 E0.03491
G1 X84.408 Y86.749 E0.01898
G1 X84.675 Y87.016 F9000.000
G1 F1200.000
G1 X85.231 Y86.576 E0.02224
G1 X86.296 Y86.104 E0.03651
G1 X87.962 Y85.977 E0.05240
G1 X88.552 Y85.699 E0.02044
G1 X89.668 Y85.468 E0.03576
G1 X98.197 Y85.468 E0.26740
G1 X99.313 Y85.699 E0.03576
G1 X99.892 Y85.971 E0.02003
G1 X130.748 Y85.967 E0.96748
G1 X131.860 Y86.191 E0.03558
G1 X132.986 Y85.976 E0.03593
G1 X136.135 Y85.969 E0.09873
G1 X136.959 Y85.610 E0.02818
G1 X137.818 Y85.469 E0.02730
G1 X144.838 Y85.467 E0.22011
G1 X146.440 Y85.488 E0.05023
G1 X147.389 Y85.708 E0.03054
G1 X147.951 Y85.975 E0.01950
G1 X148.507 Y85.993 E0.01745
G1 X149.276 Y86.159 E0.02466
G1 X150.559 Y86.833 E0.04543
G1 X151.961 Y88.201 E0.06142
G1 X152.445 Y88.931 E0.02745
G1 X152.736 Y89.722 E0.02645
G1 X152.808 Y90.854 E0.03556
G1 X153.000 Y91.301 E0.01525
G1 X153.193 Y92.198 E0.02877
G1 X153.207 Y100.786 E0.26925
G1 X152.999 Y101.751 E0.03095
G1 X152.705 Y102.370 E0.02148
G1 X152.694 Y112.466 E0.31657
G1 X152.704 Y113.329 E0.02705
G1 X152.822 Y113.864 E0.01720
G1 X152.817 Y114.760 E0.02808
G1 X152.701 Y115.384 E0.01990
G1 X152.694 Y116.290 E0.02839
G1 X152.707 Y146.292 E0.94069
G1 X152.394 Y147.511 E0.03947
G1 X151.744 Y148.566 E0.03885
G1 X151.274 Y149.035 E0.02081
G1 X150.736 Y149.448 E0.02127
G1 X148.996 Y150.033 E0.05756
G1 X136.247 Y150.024 E0.39972
G1 X135.372 Y150.858 E0.03791
G1 X134.194 Y151.557 E0.04296
G1 X132.987 Y151.870 E0.03908
G1 X126.964 Y151.857 E0.18887
G1 X126.782 Y151.871 E0.00570
G1 X125.420 Y151.830 E0.04274
G1 X124.515 Y151.586 E0.02940
G1 X123.680 Y151.148 E0.02955
G1 X122.982 Y150.515 E0.02956
G1 X122.219 Y150.381 E0.02427
G1 X121.423 Y150.029 E0.02729
G1 X120.460 Y150.020 E0.03020
G1 X114.867 Y150.031 E0.17537
G1 X114.231 Y150.659 E0.02803
G1 X113.937 Y150.860 E0.01116
G1 X113.727 Y151.039 E0.00866
G1 X112.949 Y151.518 E0.02865
G1 X111.814 Y151.850 E0.03706
G1 X110.184 Y151.870 E0.05114
G1 X110.024 Y151.857 E0.00502
G1 X104.400 Y151.870 E0.17633
G1 X103.305 Y151.653 E0.03499
G1 X102.268 Y151.134 E0.03637
G1 X101.091 Y150.029 E0.05060
G1 X89.087 Y150.029 E0.37640
G1 X88.470 Y150.143 E0.01967
G1 X87.573 Y150.148 E0.02813
G1 X86.438 Y149.852 E0.03676
G1 X85.482 Y149.249 E0.03545
G1 X83.966 Y147.618 E0.06980
G1 X83.546 Y146.761 E0.02995
G1 X83.315 Y145.820 E0.03037
G1 X83.293 Y131.550 E0.44745
G1 X83.025 Y130.976 E0.01984
G1 X82.793 Y129.860 E0.03575
G1 X82.793 Y120.729 E0.28629
G1 X82.938 Y120.047 E0.02185
G1 X83.018 Y119.507 E0.01711
G1 X83.303 Y118.753 E0.02528
G1 X83.306 Y118.189 E0.01767
G1 X83.294 Y102.561 E0.49002
G1 X83.025 Y101.987 E0.01986
G1 X82.793 Y100.871 E0.03575
G1 X82.793 Y92.343 E0.26740
G1 X83.025 Y91.226 E0.03576
G1 X83.303 Y90.635 E0.02046
G1 X83.359 Y89.277 E0.04263
G1 X83.694 Y88.292 E0.03261
G1 X84.261 Y87.430 E0.03234
G1 X84.632 Y87.058 E0.01648
G1 X84.899 Y87.325 F9000.000
G1 F1200.000
G1 X84.983 Y87.241 E0.00374
G1 X85.442 Y86.889 E0.01811
G1 X86.416 Y86.462 E0.03335
G1 X88.060 Y86.348 E0.05168
G1 X88.653 Y86.063 E0.02061
G1 X89.688 Y85.845 E0.03318
G1 X98.177 Y85.845 E0.26615
G1 X99.212 Y86.063 E0.03318
G1 X99.805 Y86.348 E0.02061
G1 X130.729 Y86.345 E0.96960
G1 X131.705 Y86.544 E0.03126
G1 X131.853 Y86.602 E0.00497
G1 X132.052 Y86.532 E0.00662
G1 X133.004 Y86.353 E0.03036
G1 X136.214 Y86.345 E0.10065
G1 X137.087 Y85.965 E0.02987
G1 X137.832 Y85.846 E0.02363
G1 X144.836 Y85.844 E0.21961
G1 X146.376 Y85.860 E0.04828
G1 X147.283 Y86.070 E0.02920
G1 X147.859 Y86.350 E0.02009
G1 X148.445 Y86.366 E0.01838
G1 X149.171 Y86.523 E0.02329
G1 X150.315 Y87.122 E0.04048
G1 X151.683 Y88.457 E0.05994
G1 X152.098 Y89.082 E0.02351
G1 X152.372 Y89.826 E0.02485
G1 X152.435 Y90.944 E0.03512
G1 X152.636 Y91.400 E0.01561
G1 X152.820 Y92.258 E0.02752
G1 X152.830 Y100.765 E0.26674
G1 X152.636 Y101.647 E0.02831
G1 X152.328 Y102.282 E0.02212
G1 X152.317 Y112.468 E0.31938
G1 X152.328 Y113.374 E0.02842
G1 X152.445 Y113.885 E0.01643
G1 X152.440 Y114.740 E0.02682
G1 X152.325 Y115.347 E0.01936
G1 X152.317 Y116.288 E0.02952
G1 X152.330 Y146.268 E0.94000
G1 X152.057 Y147.339 E0.03464
G1 X151.461 Y148.315 E0.03586
G1 X151.016 Y148.760 E0.01970
G1 X150.532 Y149.130 E0.01912
G1 X148.965 Y149.655 E0.05181
G1 X136.096 Y149.647 E0.40350
G1 X135.132 Y150.567 E0.04179
G1 X134.713 Y150.797 E0.01498
G1 X134.020 Y151.221 E0.02548
G1 X132.964 Y151.493 E0.03418
G1 X126.947 Y151.480 E0.18866
G1 X126.782 Y151.494 E0.00520
G1 X125.454 Y151.454 E0.04165
G1 X124.636 Y151.228 E0.02662
G1 X123.879 Y150.827 E0.02686
G1 X123.155 Y150.161 E0.03084
G1 X122.350 Y150.026 E0.02560
G1 X121.505 Y149.652 E0.02897
G1 X120.461 Y149.643 E0.03271
G1 X114.711 Y149.654 E0.18030
G1 X114.003 Y150.358 E0.03130
G1 X113.706 Y150.562 E0.01129
G1 X113.515 Y150.726 E0.00790
G1 X112.772 Y151.184 E0.02736
G1 X111.784 Y151.473 E0.03229
G1 X110.189 Y151.493 E0.05002
G1 X110.040 Y151.480 E0.00467
G1 X104.418 Y151.493 E0.17627
G1 X103.406 Y151.289 E0.03239
G1 X102.464 Y150.810 E0.03311
G1 X101.242 Y149.652 E0.05279
G1 X89.051 Y149.652 E0.38225
G1 X88.450 Y149.766 E0.01918
G1 X87.595 Y149.771 E0.02682
G1 X86.612 Y149.517 E0.03181
G1 X85.740 Y148.973 E0.03224
G1 X84.291 Y147.425 E0.06645
G1 X83.907 Y146.650 E0.02712
G1 X83.687 Y145.752 E0.02899
G1 X83.670 Y131.463 E0.44804
G1 X83.389 Y130.875 E0.02043
G1 X83.170 Y129.840 E0.03318
G1 X83.170 Y120.750 E0.28501
G1 X83.309 Y120.116 E0.02036
G1 X83.388 Y119.583 E0.01687
G1 X83.679 Y118.825 E0.02549
G1 X83.683 Y118.190 E0.01989
G1 X83.671 Y102.474 E0.49276
G1 X83.389 Y101.886 E0.02044
G1 X83.170 Y100.851 E0.03318
G1 X83.170 Y92.363 E0.26615
G1 X83.389 Y91.327 E0.03318
G1 X83.677 Y90.728 E0.02084
G1 X83.725 Y89.370 E0.04262
G1 X84.024 Y88.477 E0.02950
G1 X84.541 Y87.683 E0.02973
G1 X84.857 Y87.367 E0.01398
G1 X85.123 Y87.634 F9000.000
G1 F1200.000
G1 X85.241 Y87.516 E0.00522
G1 X85.651 Y87.203 E0.01619
G1 X86.535 Y86.822 E0.03017
G1 X88.159 Y86.720 E0.05104
G1 X88.756 Y86.427 E0.02085
G1 X89.709 Y86.222 E0.03056
G1 X98.156 Y86.222 E0.26487
G1 X99.109 Y86.427 E0.03056
G1 X99.716 Y86.725 E0.02121
G1 X130.709 Y86.722 E0.97175
G1 X131.605 Y86.908 E0.02870
G1 X131.838 Y87.010 E0.00798
G1 X132.140 Y86.899 E0.01008
G1 X133.023 Y86.730 E0.02818
G1 X136.295 Y86.722 E0.10260
G1 X137.172 Y86.333 E0.03007
G1 X137.875 Y86.221 E0.02234
G1 X144.835 Y86.221 E0.21822
G1 X146.350 Y86.237 E0.04751
G1 X147.174 Y86.432 E0.02654
G1 X147.767 Y86.726 E0.02075
G1 X148.384 Y86.738 E0.01934
G1 X149.067 Y86.886 E0.02191
G1 X150.071 Y87.411 E0.03554
G1 X151.405 Y88.712 E0.05842
G1 X151.770 Y89.269 E0.02088
G1 X152.007 Y89.926 E0.02189
G1 X152.061 Y91.034 E0.03479
G1 X152.272 Y91.501 E0.01605
G1 X152.443 Y92.279 E0.02498
G1 X152.453 Y100.744 E0.26542
G1 X152.273 Y101.541 E0.02562
G1 X151.951 Y102.193 E0.02278
G1 X151.940 Y112.470 E0.32223
G1 X151.951 Y113.422 E0.02986
G1 X152.068 Y113.907 E0.01562
G1 X152.063 Y114.720 E0.02550
G1 X151.948 Y115.308 E0.01880
G1 X151.940 Y116.287 E0.03069
G1 X151.953 Y146.244 E0.93928
G1 X151.700 Y147.216 E0.03150
G1 X151.179 Y148.064 E0.03119
G1 X150.759 Y148.484 E0.01861
G1 X150.329 Y148.811 E0.01695
G1 X148.935 Y149.278 E0.04609
G1 X135.946 Y149.270 E0.40728
G1 X134.891 Y150.275 E0.04568
G1 X134.527 Y150.469 E0.01293
G1 X133.848 Y150.885 E0.02498
G1 X132.942 Y151.115 E0.02932
G1 X126.929 Y151.103 E0.18851
G1 X126.780 Y151.117 E0.00471
G1 X125.530 Y151.084 E0.03919
G1 X124.793 Y150.885 E0.02394
G1 X124.078 Y150.506 E0.02539
G1 X123.297 Y149.778 E0.03347
G1 X123.092 Y149.772 E0.00644
G1 X122.480 Y149.671 E0.01944
G1 X121.586 Y149.276 E0.03066
G1 X120.463 Y149.266 E0.03521
G1 X114.554 Y149.278 E0.18526
G1 X113.775 Y150.057 E0.03455
G1 X113.473 Y150.264 E0.01149
G1 X113.303 Y150.414 E0.00711
G1 X112.596 Y150.850 E0.02603
G1 X111.754 Y151.096 E0.02752
G1 X110.195 Y151.116 E0.04888
G1 X110.058 Y151.103 E0.00430
G1 X104.437 Y151.115 E0.17624
G1 X103.508 Y150.925 E0.02975
G1 X102.662 Y150.488 E0.02984
G1 X101.394 Y149.275 E0.05502
G1 X89.014 Y149.275 E0.38817
G1 X88.430 Y149.389 E0.01867
G1 X87.618 Y149.393 E0.02545
G1 X86.737 Y149.160 E0.02858
G1 X85.997 Y148.697 E0.02737
G1 X84.616 Y147.231 E0.06316
G1 X84.268 Y146.540 E0.02426
G1 X84.058 Y145.685 E0.02760
G1 X84.047 Y131.375 E0.44868
G1 X83.753 Y130.772 E0.02102
G1 X83.548 Y129.820 E0.03056
G1 X83.548 Y120.772 E0.28369
G1 X83.681 Y120.183 E0.01891
G1 X83.749 Y119.692 E0.01554
G1 X83.970 Y119.091 E0.02007
G1 X84.056 Y118.940 E0.00547
G1 X84.060 Y118.191 E0.02347
G1 X84.048 Y102.386 E0.49556
G1 X83.753 Y101.783 E0.02104
G1 X83.548 Y100.831 E0.03056
G1 X83.548 Y92.383 E0.26487
G1 X83.753 Y91.430 E0.03056
G1 X84.052 Y90.821 E0.02127
G1 X84.092 Y89.462 E0.04263
G1 X84.374 Y88.620 E0.02785
G1 X84.822 Y87.936 E0.02564
G1 X85.081 Y87.676 E0.01149
G1 X85.347 Y87.943 F9000.000
G1 F1200.000
G1 X85.498 Y87.792 E0.00668
G1 X85.860 Y87.519 E0.01423
G1 X86.652 Y87.181 E0.02700
G1 X87.986 Y87.098 E0.04189
G1 X88.239 Y87.102 E0.00796
G1 X88.861 Y86.790 E0.02181
G1 X89.730 Y86.599 E0.02788
G1 X98.136 Y86.599 E0.26356
G1 X99.004 Y86.790 E0.02788
G1 X99.626 Y87.102 E0.02183
G1 X130.689 Y87.099 E0.97396
G1 X131.503 Y87.272 E0.02609
G1 X131.823 Y87.422 E0.01109
G1 X132.219 Y87.268 E0.01332
G1 X133.047 Y87.107 E0.02645
G1 X136.377 Y87.099 E0.10442
G1 X137.258 Y86.701 E0.03029
