; generated by PrusaSlicer 2.3.0-beta3+win64 on 2022-03-27 at 15:46:36 UTC

; 

; external perimeters extrusion width = 0.45mm
; perimeters extrusion width = 0.45mm
; infill extrusion width = 0.45mm
; solid infill extrusion width = 0.45mm
; top infill extrusion width = 0.40mm
; support material extrusion width = 0.38mm
; first layer extrusion width = 0.42mm

M201 X500 Y500 Z100 E5000 ; sets maximum accelerations, mm/sec^2
M203 X500 Y500 Z10 E60 ; sets maximum feedrates, mm/sec
M204 P500 R1000 T500 ; sets acceleration (P, T) and retract acceleration (R), mm/sec^2
M205 X8.00 Y8.00 Z0.40 E5.00 ; sets the jerk limits, mm/sec
M205 S0 T0 ; sets the minimum extruding and travel feed rate, mm/sec
M107
;TYPE:Custom
G90 ; use absolute coordinates
M83 ; extruder relative mode
M104 S210 ; set extruder temp
M140 S55 ; set bed temp
M190 S55 ; wait for bed temp
M109 S210 ; wait for extruder temp
G28 ; home all
G1 Z2 F240
G1 X2 Y10 F3000
G1 Z0.28 F240
G92 E0
G1 Y190 E15 F1500 ; intro line
G1 X2.3 F5000
G92 E0
G1 Y10 E15 F1200 ; intro line
G92 E0
G21 ; set units to millimeters
G90 ; use absolute coordinates
M83 ; use relative distances for extrusion
; Filament gcode
;LAYER_CHANGE
;Z:0.2
;HEIGHT:0.2
;BEFORE_LAYER_CHANGE
G92 E0
;0.2


G1 E-5.00000 F3600.000
G1 Z0.200 F9000.000
;AFTER_LAYER_CHANGE
;0.2
G1 X84.142 Y86.750
G1 E5.00000 F2400.000
;TYPE:Skirt
;WIDTH:0.42
G1 F1200.000
G1 X84.856 Y86.059 E0.03117
G1 X85.693 Y85.526 E0.03109
G1 X86.736 Y85.167 E0.03459
G1 X88.156 Y85.073 E0.04463
G1 X147.223 Y85.073 E1.85198
G1 X149.068 Y85.151 E0.05791
G1 X149.916 Y85.415 E0.02784
G1 X150.865 Y85.927 E0.03380
G1 X151.647 Y86.617 E0.03271
G1 X152.238 Y87.347 E0.02945
G1 X152.959 Y89.463 E0.07009
G1 X152.959 Y146.742 E1.79594
G1 X152.436 Y148.427 E0.05533
G1 X151.858 Y149.250 E0.03151
G1 X151.144 Y149.941 E0.03117
G1 X150.307 Y150.474 E0.03109
G1 X149.264 Y150.832 E0.03459
G1 X147.844 Y150.927 E0.04463
G1 X87.448 Y150.927 E1.89365
G1 X85.491 Y150.312 E0.06432
G1 X84.883 Y149.877 E0.02346
G1 X84.227 Y149.264 E0.02813
G1 X83.417 Y147.962 E0.04807
G1 X83.041 Y146.439 E0.04919
G1 X83.041 Y89.258 E1.79287
G1 X83.564 Y87.573 E0.05533
G1 X84.108 Y86.799 E0.02963
G1 X84.412 Y87.016 F9000.000
G1 F1200.000
G1 X85.077 Y86.365 E0.02918
G1 X85.839 Y85.874 E0.02842
G1 X86.787 Y85.542 E0.03149
G1 X88.163 Y85.450 E0.04323
G1 X147.219 Y85.450 E1.85168
G1 X148.981 Y85.519 E0.05529
G1 X149.755 Y85.756 E0.02538
G1 X150.632 Y86.224 E0.03116
G1 X151.385 Y86.889 E0.03150
G1 X151.924 Y87.557 E0.02691
G1 X152.581 Y89.494 E0.06413
G1 X152.581 Y146.713 E1.79405
G1 X152.085 Y148.285 E0.05169
G1 X151.583 Y148.992 E0.02719
G1 X150.923 Y149.635 E0.02890
G1 X150.161 Y150.126 E0.02842
G1 X149.213 Y150.458 E0.03149
G1 X147.837 Y150.550 E0.04323
G1 X87.477 Y150.550 E1.89255
G1 X85.686 Y149.987 E0.05888
G1 X85.131 Y149.593 E0.02134
G1 X84.504 Y149.006 E0.02693
G1 X83.753 Y147.790 E0.04479
G1 X83.419 Y146.417 E0.04433
G1 X83.419 Y89.287 E1.79125
G1 X83.915 Y87.715 E0.05169
G1 X84.377 Y87.065 E0.02503
G1 X84.680 Y87.284 F9000.000
G1 F1200.000
G1 X85.299 Y86.670 E0.02734
G1 X85.988 Y86.221 E0.02577
G1 X86.839 Y85.916 E0.02834
G1 X88.169 Y85.827 E0.04179
G1 X147.216 Y85.827 E1.85138
G1 X148.896 Y85.887 E0.05271
G1 X149.596 Y86.099 E0.02293
G1 X150.400 Y86.522 E0.02848
G1 X151.123 Y87.161 E0.03026
G1 X151.609 Y87.767 E0.02435
G1 X152.204 Y89.525 E0.05820
G1 X152.204 Y146.683 E1.79215
G1 X151.736 Y148.140 E0.04799
G1 X151.307 Y148.734 E0.02296
G1 X150.701 Y149.330 E0.02668
G1 X150.012 Y149.779 E0.02577
G1 X149.161 Y150.084 E0.02834
G1 X147.831 Y150.173 E0.04179
G1 X87.506 Y150.173 E1.89145
G1 X85.879 Y149.662 E0.05346
G1 X85.379 Y149.308 E0.01921
G1 X84.779 Y148.747 E0.02574
G1 X84.112 Y147.670 E0.03973
G1 X83.796 Y146.393 E0.04125
G1 X83.796 Y89.317 E1.78958
G1 X84.264 Y87.860 E0.04799
G1 X84.645 Y87.332 E0.02041
G1 X84.946 Y87.554 F9000.000
G1 F1200.000
G1 X85.524 Y86.974 E0.02567
G1 X86.139 Y86.567 E0.02314
G1 X86.892 Y86.291 E0.02513
G1 X88.175 Y86.204 E0.04033
G1 X147.213 Y86.204 E1.85110
G1 X148.813 Y86.256 E0.05017
G1 X149.439 Y86.442 E0.02049
G1 X150.168 Y86.820 E0.02575
G1 X150.861 Y87.432 E0.02899
G1 X151.293 Y87.976 E0.02176
G1 X151.827 Y89.556 E0.05230
G1 X151.827 Y146.652 E1.79022
G1 X151.388 Y147.993 E0.04423
G1 X151.032 Y148.476 E0.01881
G1 X150.476 Y149.026 E0.02452
G1 X149.861 Y149.433 E0.02314
G1 X149.108 Y149.709 E0.02513
G1 X147.825 Y149.796 E0.04033
G1 X87.535 Y149.796 E1.89035
G1 X86.072 Y149.337 E0.04806
G1 X85.627 Y149.024 E0.01706
G1 X85.056 Y148.490 E0.02451
G1 X84.449 Y147.499 E0.03643
G1 X84.173 Y146.371 E0.03642
G1 X84.173 Y89.348 E1.78792
G1 X84.612 Y88.007 E0.04423
G1 X84.911 Y87.602 E0.01577
G1 X85.209 Y87.828 F9000.000
G1 F1200.000
G1 X85.750 Y87.276 E0.02422
G1 X86.294 Y86.911 E0.02055
G1 X86.946 Y86.665 E0.02185
G1 X88.182 Y86.581 E0.03883
G1 X147.211 Y86.581 E1.85082
G1 X148.731 Y86.624 E0.04767
G1 X149.284 Y86.786 E0.01808
G1 X149.937 Y87.119 E0.02296
G1 X150.598 Y87.703 E0.02768
G1 X150.977 Y88.183 E0.01915
G1 X151.450 Y89.586 E0.04643
G1 X151.450 Y146.621 E1.78828
G1 X151.041 Y147.842 E0.04038
G1 X150.757 Y148.218 E0.01477
G1 X150.250 Y148.724 E0.02245
G1 X149.706 Y149.089 E0.02055
G1 X149.054 Y149.335 E0.02185
G1 X147.818 Y149.419 E0.03883
G1 X87.563 Y149.419 E1.88925
G1 X86.264 Y149.011 E0.04270
G1 X85.874 Y148.739 E0.01490
G1 X85.333 Y148.232 E0.02325
G1 X84.787 Y147.329 E0.03309
G1 X84.550 Y146.349 E0.03164
G1 X84.550 Y89.379 E1.78625
G1 X84.959 Y88.158 E0.04038
G1 X85.173 Y87.876 E0.01110
G1 X85.473 Y88.101 F9000.000
G1 F1200.000
G1 X86.002 Y87.556 E0.02381
G1 X86.483 Y87.238 E0.01808
G1 X87.050 Y87.029 E0.01894
G1 X88.187 Y86.958 E0.03572
G1 X147.209 Y86.958 E1.85060
G1 X148.651 Y86.994 E0.04522
G1 X149.132 Y87.132 E0.01570
G1 X149.706 Y87.419 E0.02011
G1 X150.336 Y87.974 E0.02632
G1 X150.659 Y88.389 E0.01651
G1 X151.073 Y89.617 E0.04062
G1 X151.073 Y146.590 E1.78636
G1 X150.721 Y147.640 E0.03472
G1 X150.480 Y147.961 E0.01257
G1 X149.998 Y148.444 E0.02141
G1 X149.517 Y148.762 E0.01808
G1 X148.950 Y148.971 E0.01894
G1 X147.813 Y149.042 E0.03573
G1 X87.592 Y149.042 E1.88819
G1 X86.455 Y148.685 E0.03737
G1 X86.122 Y148.454 E0.01271
G1 X85.611 Y147.976 E0.02195
G1 X85.126 Y147.162 E0.02969
G1 X84.927 Y146.327 E0.02692
G1 X84.927 Y89.410 E1.78460
G1 X85.279 Y88.360 E0.03472
G1 X85.437 Y88.149 E0.00826
G1 X85.739 Y88.373 F9000.000
G1 F1200.000
G1 X86.255 Y87.837 E0.02332
G1 X86.670 Y87.566 E0.01554
G1 X87.148 Y87.394 E0.01594
G1 X88.023 Y87.359 E0.02746
G1 X88.206 Y87.335 E0.00578
G1 X147.208 Y87.335 E1.84996
G1 X148.573 Y87.363 E0.04282
G1 X148.984 Y87.478 E0.01337
G1 X149.476 Y87.719 E0.01718
G1 X150.072 Y88.245 E0.02491
G1 X150.341 Y88.594 E0.01383
G1 X150.696 Y89.648 E0.03485
G1 X150.696 Y146.560 E1.78444
G1 X150.400 Y147.440 E0.02911
G1 X150.204 Y147.704 E0.01034
G1 X149.745 Y148.163 E0.02033
G1 X149.330 Y148.434 E0.01554
G1 X148.852 Y148.606 E0.01594
G1 X147.977 Y148.641 E0.02746
G1 X147.794 Y148.665 E0.00578
G1 X87.621 Y148.665 E1.88670
G1 X86.644 Y148.358 E0.03209
G1 X86.369 Y148.169 E0.01049
G1 X85.889 Y147.720 E0.02061
G1 X85.466 Y146.997 E0.02624
G1 X85.304 Y146.306 E0.02227
G1 X85.304 Y89.440 E1.78297
G1 X85.600 Y88.560 E0.02911
G1 X85.703 Y88.421 E0.00543
G1 X86.006 Y88.644 F9000.000
G1 F1200.000
G1 X86.074 Y88.552 E0.00358
G1 X86.507 Y88.119 E0.01920
G1 X86.853 Y87.896 E0.01292
G1 X87.243 Y87.760 E0.01296
G1 X88.055 Y87.736 E0.02545
G1 X88.220 Y87.712 E0.00522
G1 X147.206 Y87.712 E1.84949
G1 X148.497 Y87.733 E0.04048
G1 X148.839 Y87.827 E0.01112
G1 X149.248 Y88.020 E0.01416
G1 X149.808 Y88.514 E0.02343
G1 X150.022 Y88.797 E0.01112
G1 X150.319 Y89.678 E0.02916
G1 X150.319 Y146.529 E1.78251
G1 X150.079 Y147.240 E0.02354
G1 X149.926 Y147.448 E0.00808
G1 X149.493 Y147.881 E0.01920
G1 X149.147 Y148.104 E0.01292
G1 X148.757 Y148.240 E0.01296
G1 X147.945 Y148.264 E0.02545
G1 X147.780 Y148.288 E0.00522
G1 X87.650 Y148.288 E1.88535
G1 X86.833 Y148.030 E0.02686
G1 X86.615 Y147.883 E0.00824
G1 X86.168 Y147.464 E0.01921
G1 X85.808 Y146.835 E0.02273
G1 X85.681 Y146.285 E0.01771
G1 X85.681 Y89.471 E1.78135
G1 X85.921 Y88.760 E0.02354
G1 X85.971 Y88.692 E0.00263
G1 X86.276 Y88.912 F9000.000
G1 F1200.000
G1 X86.351 Y88.807 E0.00406
G1 X86.759 Y88.400 E0.01807
G1 X86.999 Y88.245 E0.00895
G1 X87.339 Y88.126 E0.01128
G1 X88.087 Y88.112 E0.02347
G1 X88.235 Y88.090 E0.00470
G1 X147.206 Y88.090 E1.84898
G1 X148.424 Y88.104 E0.03821
G1 X148.694 Y88.176 E0.00876
G1 X149.061 Y88.349 E0.01271
G1 X149.541 Y88.781 E0.02024
G1 X149.702 Y88.997 E0.00847
G1 X149.942 Y89.709 E0.02355
G1 X149.942 Y146.498 E1.78057
G1 X149.757 Y147.043 E0.01806
G1 X149.649 Y147.193 E0.00579
G1 X149.241 Y147.600 E0.01807
G1 X149.001 Y147.755 E0.00895
G1 X148.661 Y147.874 E0.01128
G1 X147.913 Y147.888 E0.02347
G1 X147.765 Y147.910 E0.00470
G1 X87.679 Y147.910 E1.88395
G1 X87.019 Y147.701 E0.02172
G1 X86.861 Y147.596 E0.00595
G1 X86.447 Y147.210 E0.01774
G1 X86.151 Y146.677 E0.01912
G1 X86.058 Y146.264 E0.01325
G1 X86.058 Y89.502 E1.77973
G1 X86.242 Y88.961 E0.01791
G1 X86.567 Y89.151 F9000.000
G1 F1200.000
G1 X86.630 Y89.061 E0.00345
G1 X87.012 Y88.680 E0.01692
G1 X87.146 Y88.593 E0.00499
G1 X87.433 Y88.492 E0.00954
G1 X88.120 Y88.489 E0.02157
G1 X88.253 Y88.467 E0.00422
G1 X147.205 Y88.467 E1.84841
G1 X148.355 Y88.475 E0.03605
G1 X148.551 Y88.525 E0.00632
G1 X148.873 Y88.677 E0.01117
G1 X149.270 Y89.044 E0.01694
G1 X149.380 Y89.195 E0.00588
G1 X149.565 Y89.740 E0.01805
G1 X149.565 Y146.466 E1.77859
G1 X149.433 Y146.849 E0.01270
G1 X149.370 Y146.939 E0.00345
G1 X148.988 Y147.320 E0.01692
G1 X148.854 Y147.407 E0.00499
G1 X148.567 Y147.508 E0.00954
G1 X147.880 Y147.511 E0.02157
G1 X147.747 Y147.533 E0.00422
G1 X87.709 Y147.533 E1.88246
G1 X87.201 Y147.371 E0.01670
G1 X87.105 Y147.308 E0.00360
G1 X86.729 Y146.956 E0.01616
G1 X86.496 Y146.523 E0.01541
G1 X86.435 Y146.245 E0.00894
G1 X86.435 Y89.534 E1.77812
G1 X86.548 Y89.208 E0.01081
G1 X86.894 Y89.340 F9000.000
G1 F1200.000
G1 X87.293 Y88.941 E0.01772
G1 X87.525 Y88.860 E0.00769
G1 X88.157 Y88.867 E0.01981
G1 X88.274 Y88.844 E0.00376
G1 X147.206 Y88.844 E1.84775
G1 X148.292 Y88.847 E0.03405
G1 X148.409 Y88.875 E0.00378
G1 X148.683 Y89.004 E0.00949
G1 X148.994 Y89.301 E0.01349
G1 X149.056 Y89.389 E0.00338
G1 X149.188 Y89.772 E0.01270
G1 X149.188 Y146.432 E1.77654
G1 X149.088 Y146.687 E0.00856
G1 X148.734 Y147.041 E0.01571
G1 X148.475 Y147.140 E0.00869
G1 X147.843 Y147.133 E0.01981
G1 X147.726 Y147.156 E0.00376
G1 X87.739 Y147.156 E1.88083
G1 X87.347 Y147.018 E0.01305
G1 X87.012 Y146.705 E0.01440
G1 X86.844 Y146.377 E0.01155
G1 X86.812 Y146.226 E0.00483
G1 X86.812 Y89.568 E1.77648
G1 X86.873 Y89.397 E0.00569
G1 X87.218 Y89.540 F9000.000
G1 F1200.000
G1 X87.492 Y89.266 E0.01216
G1 X87.563 Y89.237 E0.00239
G1 X88.205 Y89.245 E0.02015
G1 X88.302 Y89.221 E0.00312
G1 X89.158 Y89.221 E0.02685
G1 X89.266 Y89.246 E0.00348
G1 X89.374 Y89.221 E0.00348
G1 X90.232 Y89.221 E0.02689
G1 X90.340 Y89.246 E0.00348
G1 X90.449 Y89.221 E0.00348
G1 X91.306 Y89.221 E0.02689
G1 X91.415 Y89.246 E0.00348
G1 X91.523 Y89.221 E0.00348
G1 X92.381 Y89.221 E0.02689
G1 X92.489 Y89.246 E0.00348
G1 X92.597 Y89.221 E0.00348
G1 X93.455 Y89.221 E0.02689
G1 X93.563 Y89.246 E0.00348
G1 X93.671 Y89.221 E0.00348
G1 X94.529 Y89.221 E0.02689
G1 X94.637 Y89.246 E0.00348
G1 X94.745 Y89.221 E0.00348
G1 X95.603 Y89.221 E0.02689
G1 X95.711 Y89.246 E0.00348
G1 X95.819 Y89.221 E0.00348
G1 X96.677 Y89.221 E0.02689
G1 X96.785 Y89.246 E0.00348
G1 X96.894 Y89.221 E0.00348
G1 X97.751 Y89.221 E0.02689
G1 X97.860 Y89.246 E0.00348
G1 X97.968 Y89.221 E0.00348
G1 X98.825 Y89.221 E0.02689
G1 X98.934 Y89.246 E0.00348
G1 X99.042 Y89.221 E0.00348
G1 X99.900 Y89.221 E0.02689
G1 X100.008 Y89.246 E0.00348
G1 X100.116 Y89.221 E0.00348
G1 X100.974 Y89.221 E0.02689
G1 X101.082 Y89.246 E0.00348
G1 X101.190 Y89.221 E0.00348
G1 X102.048 Y89.221 E0.02689
G1 X102.156 Y89.246 E0.00348
G1 X102.264 Y89.221 E0.00348
G1 X103.122 Y89.221 E0.02689
G1 X103.230 Y89.246 E0.00348
G1 X103.339 Y89.221 E0.00348
G1 X104.196 Y89.221 E0.02689
G1 X104.304 Y89.246 E0.00348
G1 X104.413 Y89.221 E0.00348
G1 X105.270 Y89.221 E0.02689
G1 X105.379 Y89.246 E0.00348
G1 X105.487 Y89.221 E0.00348
G1 X106.345 Y89.221 E0.02689
G1 X106.453 Y89.246 E0.00348
G1 X106.561 Y89.221 E0.00348
G1 X107.419 Y89.221 E0.02689
G1 X107.527 Y89.246 E0.00348
G1 X107.635 Y89.221 E0.00348
G1 X108.493 Y89.221 E0.02689
G1 X108.601 Y89.246 E0.00348
G1 X108.709 Y89.221 E0.00348
G1 X109.567 Y89.221 E0.02689
G1 X109.675 Y89.246 E0.00348
G1 X109.783 Y89.221 E0.00348
G1 X110.641 Y89.221 E0.02689
G1 X110.749 Y89.246 E0.00348
G1 X110.858 Y89.221 E0.00348
G1 X111.715 Y89.221 E0.02689
G1 X111.824 Y89.246 E0.00348
G1 X111.932 Y89.221 E0.00348
G1 X112.790 Y89.221 E0.02689
G1 X112.898 Y89.246 E0.00348
G1 X113.006 Y89.221 E0.00348
G1 X113.864 Y89.221 E0.02689
G1 X113.972 Y89.246 E0.00348
G1 X114.080 Y89.221 E0.00348
G1 X114.938 Y89.221 E0.02689
G1 X115.046 Y89.246 E0.00348
G1 X115.154 Y89.221 E0.00348
G1 X116.012 Y89.221 E0.02689
G1 X116.120 Y89.246 E0.00348
G1 X116.228 Y89.221 E0.00348
G1 X117.086 Y89.221 E0.02689
G1 X117.194 Y89.246 E0.00348
G1 X117.303 Y89.221 E0.00348
G1 X118.160 Y89.221 E0.02689
G1 X118.269 Y89.246 E0.00348
G1 X118.377 Y89.221 E0.00348
G1 X119.234 Y89.221 E0.02689
G1 X119.343 Y89.246 E0.00348
G1 X119.451 Y89.221 E0.00348
G1 X120.309 Y89.221 E0.02689
G1 X120.417 Y89.246 E0.00348
G1 X120.525 Y89.221 E0.00348
G1 X121.383 Y89.221 E0.02689
G1 X121.491 Y89.246 E0.00348
G1 X121.599 Y89.221 E0.00348
G1 X122.457 Y89.221 E0.02689
G1 X122.565 Y89.246 E0.00348
G1 X122.673 Y89.221 E0.00348
G1 X123.531 Y89.221 E0.02689
G1 X123.639 Y89.246 E0.00348
G1 X123.748 Y89.221 E0.00348
G1 X124.605 Y89.221 E0.02689
G1 X124.713 Y89.246 E0.00348
G1 X124.822 Y89.221 E0.00348
G1 X125.679 Y89.221 E0.02689
G1 X125.788 Y89.246 E0.00348
G1 X125.896 Y89.221 E0.00348
G1 X126.754 Y89.221 E0.02689
G1 X126.862 Y89.246 E0.00348
G1 X126.970 Y89.221 E0.00348
G1 X127.828 Y89.221 E0.02689
G1 X127.936 Y89.246 E0.00348
G1 X128.044 Y89.221 E0.00348
G1 X128.902 Y89.221 E0.02689
G1 X129.010 Y89.246 E0.00348
G1 X129.118 Y89.221 E0.00348
G1 X129.976 Y89.221 E0.02689
G1 X130.084 Y89.246 E0.00348
G1 X130.192 Y89.221 E0.00348
G1 X131.050 Y89.221 E0.02689
G1 X131.158 Y89.246 E0.00348
G1 X131.267 Y89.221 E0.00348
G1 X132.124 Y89.221 E0.02689
G1 X132.233 Y89.246 E0.00348
G1 X132.341 Y89.221 E0.00348
G1 X133.199 Y89.221 E0.02689
G1 X133.307 Y89.246 E0.00348
G1 X133.415 Y89.221 E0.00348
G1 X134.273 Y89.221 E0.02689
G1 X134.381 Y89.246 E0.00348
G1 X134.489 Y89.221 E0.00348
G1 X135.347 Y89.221 E0.02689
G1 X135.455 Y89.246 E0.00348
G1 X135.563 Y89.221 E0.00348
G1 X136.421 Y89.221 E0.02689
G1 X136.529 Y89.246 E0.00348
G1 X136.637 Y89.221 E0.00348
G1 X137.495 Y89.221 E0.02689
G1 X137.603 Y89.246 E0.00348
G1 X137.712 Y89.221 E0.00348
G1 X138.569 Y89.221 E0.02689
G1 X138.678 Y89.246 E0.00348
G1 X138.786 Y89.221 E0.00348
G1 X139.643 Y89.221 E0.02689
G1 X139.752 Y89.246 E0.00348
G1 X139.860 Y89.221 E0.00348
G1 X140.718 Y89.221 E0.02689
G1 X140.826 Y89.246 E0.00348
G1 X140.934 Y89.221 E0.00348
G1 X141.792 Y89.221 E0.02689
G1 X141.900 Y89.246 E0.00348
G1 X142.008 Y89.221 E0.00348
G1 X142.866 Y89.221 E0.02689
G1 X142.974 Y89.246 E0.00348
G1 X143.082 Y89.221 E0.00348
G1 X143.940 Y89.221 E0.02689
G1 X144.048 Y89.246 E0.00348
G1 X144.157 Y89.221 E0.00348
G1 X145.014 Y89.221 E0.02689
G1 X145.122 Y89.246 E0.00348
G1 X145.231 Y89.221 E0.00348
G1 X146.088 Y89.221 E0.02689
G1 X146.197 Y89.246 E0.00348
G1 X146.305 Y89.221 E0.00348
G1 X147.163 Y89.221 E0.02689
G1 X147.271 Y89.246 E0.00348
G1 X147.379 Y89.221 E0.00348
G1 X148.240 Y89.221 E0.02699
G1 X148.490 Y89.330 E0.00856
G1 X148.711 Y89.551 E0.00980
G1 X148.811 Y89.806 E0.00856
G1 X148.811 Y146.390 E1.77417
G1 X148.782 Y146.460 E0.00235
G1 X148.508 Y146.734 E0.01216
G1 X148.437 Y146.763 E0.00239
G1 X147.795 Y146.755 E0.02015
G1 X147.698 Y146.779 E0.00312
G1 X146.842 Y146.779 E0.02685
G1 X146.734 Y146.754 E0.00348
G1 X146.626 Y146.779 E0.00348
G1 X145.768 Y146.779 E0.02689
G1 X145.660 Y146.754 E0.00348
G1 X145.551 Y146.779 E0.00348
