; generated by PrusaSlicer 2.3.0-beta3+win64 on 2022-03-27 at 17:44:01 UTC

; 

; external perimeters extrusion width = 0.45mm
; perimeters extrusion width = 0.45mm
; infill extrusion width = 0.45mm
; solid infill extrusion width = 0.45mm
; top infill extrusion width = 0.40mm
; support material extrusion width = 0.38mm
; first layer extrusion width = 0.42mm

M201 X500 Y500 Z100 E5000 ; sets maximum accelerations, mm/sec^2
M203 X500 Y500 Z10 E60 ; sets maximum feedrates, mm/sec
M204 P500 R1000 T500 ; sets acceleration (P, T) and retract acceleration (R), mm/sec^2
M205 X8.00 Y8.00 Z0.40 E5.00 ; sets the jerk limits, mm/sec
M205 S0 T0 ; sets the minimum extruding and travel feed rate, mm/sec
M107
;TYPE:Custom
G90 ; use absolute coordinates
M83 ; extruder relative mode
M104 S210 ; set extruder temp
M140 S55 ; set bed temp
M190 S55 ; wait for bed temp
M109 S210 ; wait for extruder temp
G28 ; home all
G1 Z2 F240
G1 X2 Y10 F3000
G1 Z0.28 F240
G92 E0
G1 Y190 E15 F1500 ; intro line
G1 X2.3 F5000
G92 E0
G1 Y10 E15 F1200 ; intro line
G92 E0
G21 ; set units to millimeters
G90 ; use absolute coordinates
M83 ; use relative distances for extrusion
; Filament gcode
;LAYER_CHANGE
;Z:0.2
;HEIGHT:0.2
;BEFORE_LAYER_CHANGE
G92 E0
;0.2


G1 E-5.00000 F3600.000
G1 Z0.200 F9000.000
;AFTER_LAYER_CHANGE
;0.2
G1 X131.801 Y89.730
G1 E5.00000 F2400.000
;TYPE:Skirt
;WIDTH:0.42
G1 F1200.000
G1 X132.798 Y88.822 E0.04228
G1 X133.949 Y88.245 E0.04035
G1 X134.914 Y88.047 E0.03089
G1 X145.723 Y88.065 E0.33892
G1 X146.902 Y88.400 E0.03844
G1 X147.976 Y89.069 E0.03965
G1 X148.911 Y90.069 E0.04292
G1 X149.473 Y91.156 E0.03840
G1 X149.713 Y92.318 E0.03718
G1 X149.713 Y143.760 E1.61292
G1 X149.415 Y144.983 E0.03948
G1 X148.996 Y145.817 E0.02926
G1 X147.671 Y147.171 E0.05942
G1 X146.736 Y147.664 E0.03315
G1 X145.510 Y147.963 E0.03957
G1 X90.490 Y147.963 E1.72509
G1 X89.267 Y147.665 E0.03948
G1 X88.433 Y147.246 E0.02926
G1 X87.079 Y145.921 E0.05942
G1 X86.586 Y144.986 E0.03315
G1 X86.287 Y143.760 E0.03957
G1 X86.287 Y92.240 E1.61535
G1 X86.585 Y91.017 E0.03948
G1 X87.004 Y90.183 E0.02926
G1 X88.329 Y88.829 E0.05942
G1 X89.264 Y88.336 E0.03315
G1 X90.491 Y88.036 E0.03958
G1 X128.639 Y88.040 E1.19613
G1 X129.697 Y88.261 E0.03387
G1 X130.678 Y88.734 E0.03415
G1 X131.756 Y89.690 E0.04518
G1 X131.800 Y90.405 F9000.000
G1 F1200.000
G1 X132.103 Y89.966 E0.01675
G1 X132.991 Y89.147 E0.03789
G1 X134.095 Y88.594 E0.03869
G1 X134.969 Y88.420 E0.02794
G1 X145.645 Y88.435 E0.33476
G1 X146.773 Y88.756 E0.03675
G1 X147.753 Y89.374 E0.03634
G1 X148.616 Y90.305 E0.03980
G1 X149.125 Y91.304 E0.03517
G1 X149.336 Y92.337 E0.03303
G1 X149.336 Y143.736 E1.61160
G1 X149.055 Y144.870 E0.03664
G1 X148.674 Y145.620 E0.02637
G1 X147.467 Y146.852 E0.05407
G1 X146.621 Y147.304 E0.03007
G1 X145.486 Y147.586 E0.03668
G1 X90.514 Y147.586 E1.72362
G1 X89.380 Y147.305 E0.03664
G1 X88.630 Y146.924 E0.02637
G1 X87.398 Y145.717 E0.05407
G1 X86.946 Y144.871 E0.03007
G1 X86.664 Y143.736 E0.03668
G1 X86.664 Y92.264 E1.61388
G1 X86.945 Y91.130 E0.03664
G1 X87.326 Y90.380 E0.02637
G1 X88.533 Y89.148 E0.05407
G1 X89.379 Y88.696 E0.03007
G1 X90.514 Y88.414 E0.03668
G1 X128.619 Y88.417 E1.19476
G1 X129.595 Y88.625 E0.03127
G1 X130.488 Y89.061 E0.03117
G1 X131.486 Y89.955 E0.04201
G1 X131.765 Y90.356 E0.01533
G1 X131.801 Y91.095 F9000.000
G1 F1200.000
G1 X132.378 Y90.225 E0.03275
G1 X133.185 Y89.472 E0.03461
G1 X134.240 Y88.943 E0.03699
G1 X135.021 Y88.794 E0.02495
G1 X145.570 Y88.805 E0.33074
G1 X146.595 Y89.090 E0.03338
G1 X147.530 Y89.679 E0.03465
G1 X148.320 Y90.540 E0.03662
G1 X148.777 Y91.450 E0.03195
G1 X148.959 Y92.355 E0.02894
G1 X148.959 Y143.712 E1.61027
G1 X148.695 Y144.756 E0.03376
G1 X148.352 Y145.422 E0.02349
G1 X147.263 Y146.535 E0.04882
G1 X146.505 Y146.945 E0.02701
G1 X145.462 Y147.209 E0.03373
G1 X90.538 Y147.209 E1.72212
G1 X89.494 Y146.945 E0.03376
G1 X88.828 Y146.602 E0.02349
G1 X87.715 Y145.513 E0.04882
G1 X87.305 Y144.755 E0.02701
G1 X87.041 Y143.712 E0.03373
G1 X87.041 Y92.288 E1.61238
G1 X87.305 Y91.244 E0.03376
G1 X87.648 Y90.578 E0.02349
G1 X88.737 Y89.465 E0.04882
G1 X89.495 Y89.055 E0.02701
G1 X90.538 Y88.791 E0.03374
G1 X128.599 Y88.794 E1.19337
G1 X129.491 Y88.988 E0.02864
G1 X130.296 Y89.387 E0.02818
G1 X131.214 Y90.217 E0.03881
G1 X131.768 Y91.046 E0.03123
G1 X131.660 Y91.951 F9000.000
G1 F1200.000
G1 X131.932 Y91.953 E0.00855
G1 X132.185 Y91.201 E0.02486
G1 X132.654 Y90.482 E0.02691
G1 X133.379 Y89.796 E0.03131
G1 X134.384 Y89.293 E0.03523
G1 X135.071 Y89.168 E0.02190
G1 X145.542 Y89.182 E0.32832
G1 X146.466 Y89.444 E0.03009
G1 X147.271 Y89.954 E0.02988
G1 X147.995 Y90.733 E0.03336
G1 X148.428 Y91.597 E0.03028
G1 X148.582 Y92.373 E0.02483
G1 X148.582 Y143.688 E1.60893
G1 X148.335 Y144.639 E0.03083
G1 X148.031 Y145.222 E0.02059
G1 X147.015 Y146.249 E0.04531
G1 X146.388 Y146.586 E0.02230
G1 X145.438 Y146.832 E0.03079
G1 X90.562 Y146.832 E1.72059
G1 X89.611 Y146.585 E0.03083
G1 X89.028 Y146.281 E0.02059
G1 X88.001 Y145.265 E0.04531
G1 X87.664 Y144.638 E0.02230
G1 X87.418 Y143.688 E0.03079
G1 X87.418 Y92.312 E1.61085
G1 X87.665 Y91.361 E0.03083
G1 X87.969 Y90.778 E0.02059
G1 X88.985 Y89.751 E0.04531
G1 X89.612 Y89.414 E0.02230
G1 X90.562 Y89.168 E0.03080
G1 X128.577 Y89.171 E1.19194
G1 X129.386 Y89.351 E0.02596
G1 X130.103 Y89.712 E0.02518
G1 X130.942 Y90.479 E0.03564
G1 X131.416 Y91.200 E0.02704
G1 X131.641 Y91.894 E0.02290
G1 E-3.50000 F3600.000
;WIPE_START
G1 F7200.000
G1 X131.932 Y91.953 E-0.14103
G1 X132.185 Y91.201 E-0.37666
G1 X132.654 Y90.482 E-0.40762
G1 X133.379 Y89.796 E-0.47428
G1 X133.427 Y89.772 E-0.02540
;WIPE_END
G1 E-0.07500 F3600.000
G1 X131.348 Y96.898 F9000.000
G1 E5.00000 F2400.000
G1 F1200.000
G1 X132.253 Y96.898 E0.02836
G1 X132.287 Y92.087 E0.15085
G1 X132.515 Y91.383 E0.02319
G1 X132.932 Y90.738 E0.02409
G1 X133.576 Y90.119 E0.02802
G1 X134.481 Y89.658 E0.03182
G1 X135.088 Y89.545 E0.01939
G1 X145.514 Y89.559 E0.32690
G1 X146.334 Y89.799 E0.02676
G1 X147.013 Y90.230 E0.02523
G1 X147.670 Y90.928 E0.03007
G1 X148.080 Y91.742 E0.02858
G1 X148.205 Y92.391 E0.02071
G1 X148.205 Y143.663 E1.60759
G1 X147.977 Y144.521 E0.02783
G1 X147.712 Y145.019 E0.01770
G1 X146.769 Y145.962 E0.04182
G1 X146.271 Y146.227 E0.01770
G1 X145.413 Y146.455 E0.02783
G1 X90.587 Y146.455 E1.71901
G1 X89.729 Y146.227 E0.02783
G1 X89.231 Y145.962 E0.01770
G1 X88.288 Y145.019 E0.04182
G1 X88.023 Y144.521 E0.01770
G1 X87.795 Y143.663 E0.02783
G1 X87.795 Y92.337 E1.60927
G1 X88.023 Y91.479 E0.02783
G1 X88.288 Y90.981 E0.01770
G1 X89.231 Y90.038 E0.04182
G1 X89.729 Y89.773 E0.01770
G1 X90.587 Y89.545 E0.02784
G1 X128.557 Y89.548 E1.19051
G1 X129.240 Y89.700 E0.02194
G1 X129.870 Y90.010 E0.02202
G1 X130.640 Y90.706 E0.03255
G1 X131.086 Y91.384 E0.02542
G1 X131.324 Y92.147 E0.02508
G1 X131.348 Y96.838 E0.14708
G1 X130.973 Y97.275 F9000.000
G1 F1200.000
G1 X132.627 Y97.275 E0.05186
G1 X132.663 Y92.121 E0.16161
G1 X132.864 Y91.528 E0.01963
G1 X133.209 Y90.995 E0.01990
G1 X133.817 Y90.410 E0.02646
G1 X134.578 Y90.023 E0.02675
G1 X135.107 Y89.922 E0.01688
G1 X145.438 Y89.929 E0.32392
G1 X146.158 Y90.133 E0.02346
G1 X146.758 Y90.508 E0.02220
G1 X147.347 Y91.123 E0.02668
G1 X147.731 Y91.887 E0.02682
G1 X147.828 Y92.408 E0.01660
G1 X147.828 Y143.637 E1.60625
G1 X147.620 Y144.399 E0.02477
G1 X147.394 Y144.815 E0.01483
G1 X146.565 Y145.644 E0.03678
G1 X146.149 Y145.870 E0.01483
G1 X145.387 Y146.078 E0.02477
G1 X90.613 Y146.078 E1.71739
G1 X89.851 Y145.870 E0.02477
G1 X89.435 Y145.644 E0.01483
G1 X88.606 Y144.815 E0.03678
G1 X88.380 Y144.399 E0.01483
G1 X88.172 Y143.637 E0.02477
G1 X88.172 Y92.363 E1.60765
G1 X88.380 Y91.601 E0.02477
G1 X88.606 Y91.185 E0.01483
G1 X89.435 Y90.356 E0.03678
G1 X89.851 Y90.130 E0.01483
G1 X90.613 Y89.922 E0.02477
G1 X128.537 Y89.926 E1.18906
G1 X129.098 Y90.049 E0.01803
G1 X129.638 Y90.308 E0.01878
G1 X130.369 Y90.970 E0.03092
G1 X130.735 Y91.525 E0.02085
G1 X130.948 Y92.179 E0.02155
G1 X130.973 Y97.215 E0.15789
G1 X130.598 Y97.652 F9000.000
G1 F1200.000
G1 X133.003 Y97.652 E0.07540
G1 X133.030 Y92.213 E0.17055
G1 X133.214 Y91.671 E0.01793
G1 X133.488 Y91.249 E0.01578
G1 X134.017 Y90.731 E0.02323
G1 X134.679 Y90.388 E0.02337
G1 X135.126 Y90.299 E0.01429
G1 X145.360 Y90.299 E0.32089
G1 X146.029 Y90.488 E0.02179
G1 X146.504 Y90.788 E0.01762
G1 X147.025 Y91.322 E0.02338
G1 X147.366 Y91.987 E0.02343
G1 X147.451 Y92.426 E0.01404
G1 X147.451 Y143.610 E1.60483
G1 X147.263 Y144.274 E0.02162
G1 X147.078 Y144.608 E0.01200
G1 X146.358 Y145.328 E0.03191
G1 X146.024 Y145.513 E0.01200
G1 X145.360 Y145.701 E0.02162
G1 X90.640 Y145.701 E1.71570
G1 X89.976 Y145.513 E0.02162
G1 X89.642 Y145.328 E0.01200
G1 X88.922 Y144.608 E0.03191
G1 X88.737 Y144.274 E0.01200
G1 X88.549 Y143.610 E0.02162
G1 X88.549 Y92.390 E1.60596
G1 X88.737 Y91.726 E0.02162
G1 X88.922 Y91.392 E0.01200
G1 X89.642 Y90.672 E0.03191
G1 X89.976 Y90.487 E0.01200
G1 X90.640 Y90.299 E0.02163
G1 X128.516 Y90.303 E1.18757
G1 X128.959 Y90.400 E0.01423
G1 X129.407 Y90.608 E0.01548
G1 X130.099 Y91.234 E0.02924
G1 X130.387 Y91.670 E0.01641
G1 X130.571 Y92.213 E0.01796
G1 X130.598 Y97.592 E0.16866
G1 X130.222 Y98.029 F9000.000
G1 F1200.000
G1 X133.379 Y98.029 E0.09899
G1 X133.398 Y92.301 E0.17960
G1 X133.545 Y91.852 E0.01481
G1 X133.770 Y91.500 E0.01311
G1 X134.220 Y91.050 E0.01997
G1 X134.783 Y90.751 E0.01997
G1 X135.146 Y90.676 E0.01161
G1 X145.332 Y90.676 E0.31938
G1 X145.896 Y90.842 E0.01842
G1 X146.249 Y91.067 E0.01314
G1 X146.734 Y91.563 E0.02175
G1 X147.016 Y92.129 E0.01984
G1 X147.074 Y92.443 E0.00999
G1 X147.074 Y143.582 E1.60343
G1 X146.909 Y144.144 E0.01838
G1 X146.763 Y144.399 E0.00919
G1 X146.149 Y145.013 E0.02726
G1 X145.894 Y145.159 E0.00919
G1 X145.332 Y145.324 E0.01838
G1 X90.668 Y145.324 E1.71395
G1 X90.106 Y145.159 E0.01838
G1 X89.851 Y145.013 E0.00919
G1 X89.237 Y144.399 E0.02726
G1 X89.091 Y144.144 E0.00919
G1 X88.926 Y143.582 E0.01838
G1 X88.926 Y92.418 E1.60421
G1 X89.091 Y91.856 E0.01838
G1 X89.237 Y91.601 E0.00919
G1 X89.851 Y90.987 E0.02726
G1 X90.106 Y90.841 E0.00919
G1 X90.668 Y90.676 E0.01838
G1 X128.494 Y90.680 E1.18599
G1 X128.853 Y90.763 E0.01157
G1 X129.219 Y90.935 E0.01268
G1 X129.824 Y91.493 E0.02581
G1 X130.056 Y91.853 E0.01341
G1 X130.203 Y92.301 E0.01480
G1 X130.222 Y97.969 E0.17771
G1 X129.845 Y98.406 F9000.000
G1 F1200.000
G1 X133.756 Y98.406 E0.12262
G1 X133.766 Y92.390 E0.18862
G1 X133.896 Y91.993 E0.01310
G1 X134.051 Y91.752 E0.00898
G1 X134.467 Y91.336 E0.01845
G1 X134.889 Y91.114 E0.01496
G1 X135.167 Y91.053 E0.00892
G1 X145.302 Y91.053 E0.31779
G1 X145.758 Y91.194 E0.01496
G1 X145.998 Y91.348 E0.00892
G1 X146.413 Y91.763 E0.01841
G1 X146.652 Y92.229 E0.01642
G1 X146.697 Y92.462 E0.00743
G1 X146.697 Y143.552 E1.60191
G1 X146.556 Y144.009 E0.01500
G1 X146.452 Y144.186 E0.00641
G1 X145.936 Y144.702 E0.02289
G1 X145.759 Y144.806 E0.00641
G1 X145.302 Y144.947 E0.01500
G1 X90.698 Y144.947 E1.71209
G1 X90.241 Y144.806 E0.01500
G1 X90.064 Y144.702 E0.00641
G1 X89.548 Y144.186 E0.02289
G1 X89.444 Y144.009 E0.00641
G1 X89.303 Y143.552 E0.01500
G1 X89.303 Y92.448 E1.60235
G1 X89.444 Y91.991 E0.01500
G1 X89.548 Y91.814 E0.00641
G1 X90.064 Y91.298 E0.02289
G1 X90.241 Y91.194 E0.00641
G1 X90.698 Y91.053 E0.01500
G1 X128.472 Y91.057 E1.18439
G1 X128.710 Y91.112 E0.00767
G1 X129.030 Y91.263 E0.01109
G1 X129.549 Y91.751 E0.02233
G1 X129.705 Y91.993 E0.00904
G1 X129.835 Y92.390 E0.01310
G1 X129.845 Y98.346 E0.18674
G1 X129.468 Y98.783 F9000.000
G1 F1200.000
G1 X134.133 Y98.783 E0.14628
G1 X134.133 Y92.479 E0.19765
G1 X134.246 Y92.135 E0.01136
G1 X134.331 Y92.006 E0.00484
G1 X134.711 Y91.625 E0.01687
G1 X135.035 Y91.462 E0.01136
G1 X135.186 Y91.430 E0.00484
G1 X145.271 Y91.430 E0.31621
G1 X145.615 Y91.543 E0.01136
G1 X145.744 Y91.628 E0.00484
G1 X146.125 Y92.008 E0.01687
G1 X146.288 Y92.332 E0.01136
G1 X146.320 Y92.483 E0.00484
G1 X146.320 Y143.521 E1.60026
G1 X146.206 Y143.867 E0.01144
G1 X146.144 Y143.967 E0.00369
G1 X145.717 Y144.394 E0.01893
G1 X145.617 Y144.456 E0.00369
G1 X145.271 Y144.570 E0.01144
G1 X90.729 Y144.570 E1.71011
G1 X90.383 Y144.456 E0.01144
G1 X90.283 Y144.394 E0.00369
G1 X89.856 Y143.967 E0.01893
G1 X89.794 Y143.867 E0.00369
G1 X89.680 Y143.521 E0.01144
G1 X89.680 Y92.479 E1.60037
G1 X89.794 Y92.133 E0.01144
G1 X89.856 Y92.033 E0.00369
G1 X90.283 Y91.606 E0.01893
G1 X90.383 Y91.544 E0.00369
G1 X90.729 Y91.430 E0.01144
G1 X128.450 Y91.434 E1.18270
G1 X128.567 Y91.461 E0.00377
G1 X128.840 Y91.590 E0.00947
G1 X129.271 Y92.007 E0.01880
G1 X129.355 Y92.135 E0.00479
G1 X129.468 Y92.479 E0.01136
G1 X129.468 Y98.723 E0.19577
G1 X129.091 Y99.160 F9000.000
G1 F1200.000
G1 X134.510 Y99.160 E0.16993
G1 X134.510 Y92.514 E0.20838
G1 X134.610 Y92.260 E0.00856
G1 X134.953 Y91.917 E0.01522
G1 X135.171 Y91.814 E0.00757
G1 X145.236 Y91.807 E0.31556
G1 X145.490 Y91.907 E0.00856
G1 X145.833 Y92.250 E0.01522
G1 X145.936 Y92.468 E0.00757
G1 X145.943 Y143.486 E1.59961
G1 X145.843 Y143.740 E0.00856
G1 X145.490 Y144.093 E0.01566
G1 X145.236 Y144.193 E0.00856
G1 X90.764 Y144.193 E1.70791
G1 X90.510 Y144.093 E0.00856
G1 X90.157 Y143.740 E0.01566
G1 X90.057 Y143.486 E0.00856
G1 X90.057 Y92.514 E1.59817
G1 X90.157 Y92.260 E0.00856
G1 X90.510 Y91.907 E0.01566
G1 X90.764 Y91.807 E0.00856
G1 X128.398 Y91.807 E1.17997
G1 X128.648 Y91.917 E0.00856
G1 X128.991 Y92.260 E0.01522
G1 X129.091 Y92.514 E0.00856
G1 X129.091 Y99.100 E0.20650
G1 X128.714 Y99.537 F9000.000
G1 F1200.000
G1 X134.887 Y99.537 E0.19357
G1 X134.887 Y92.556 E0.21889
G1 X134.916 Y92.487 E0.00235
G1 X135.190 Y92.213 E0.01215
G1 X135.259 Y92.184 E0.00235
G1 X145.194 Y92.184 E0.31149
G1 X145.263 Y92.213 E0.00235
G1 X145.537 Y92.487 E0.01215
G1 X145.566 Y92.556 E0.00235
G1 X145.566 Y143.444 E1.59554
G1 X145.537 Y143.513 E0.00235
G1 X145.263 Y143.787 E0.01215
G1 X145.194 Y143.816 E0.00235
G1 X90.806 Y143.816 E1.70528
G1 X90.737 Y143.787 E0.00235
G1 X90.463 Y143.513 E0.01215
G1 X90.434 Y143.444 E0.00235
G1 X90.434 Y92.556 E1.59554
G1 X90.463 Y92.487 E0.00235
G1 X90.737 Y92.213 E0.01215
G1 X90.806 Y92.184 E0.00235
G1 X128.342 Y92.184 E1.17690
G1 X128.411 Y92.213 E0.00235
G1 X128.685 Y92.487 E0.01215
G1 X128.714 Y92.556 E0.00235
G1 X128.714 Y99.477 E0.21701
G1 X128.337 Y99.914 F9000.000
G1 F1200.000
G1 X135.264 Y99.914 E0.21722
G1 X135.264 Y92.672 E0.22709
G1 X135.375 Y92.561 E0.00490
G1 X145.078 Y92.561 E0.30424
G1 X145.189 Y92.672 E0.00490
G1 X145.189 Y143.328 E1.58829
G1 X145.078 Y143.439 E0.00490
G1 X90.922 Y143.439 E1.69803
G1 X90.811 Y143.328 E0.00490
G1 X90.811 Y92.672 E1.58829
G1 X90.922 Y92.561 E0.00490
G1 X128.226 Y92.561 E1.16965
G1 X128.337 Y92.672 E0.00490
G1 X128.337 Y99.854 E0.22520
G1 X127.838 Y100.413 F9000.000
;TYPE:External perimeter
G1 F1200.000
G1 X135.763 Y100.413 E0.24848
G1 X135.763 Y93.060 E0.23055
G1 X144.690 Y93.060 E0.27990
G1 X144.690 Y142.940 E1.56395
G1 X91.310 Y142.940 E1.67369
G1 X91.310 Y93.060 E1.56395
G1 X127.838 Y93.060 E1.14531
G1 X127.838 Y100.353 E0.22867
G1 X128.015 Y100.772 F9000.000
G1 E-3.50000 F3600.000
;WIPE_START
G1 F7200.000
G1 X130.838 Y100.376 E-1.42500
;WIPE_END
G1 E-0.07500 F3600.000
G1 X95.837 Y93.688 F9000.000
G1 E5.00000 F2400.000
G1 F1200.000
G1 X105.462 Y93.688 E0.30179
G1 X105.462 Y114.813 E0.66236
G1 X95.837 Y114.813 E0.30179
G1 X95.837 Y93.748 E0.66048
G1 X95.780 Y93.292 F9000.000
G1 E-3.50000 F3600.000
;WIPE_START
G1 F7200.000
G1 X98.837 Y93.729 E-1.42500
;WIPE_END
G1 E-0.07500 F3600.000
G1 X95.460 Y115.190 F9000.000
G1 E5.00000 F2400.000
;TYPE:Perimeter
G1 F1200.000
G1 X105.839 Y115.190 E0.32543
G1 X105.839 Y93.437 E0.68205
G1 X127.461 Y93.437 E0.67794
G1 X127.461 Y100.790 E0.23055
G1 X136.140 Y100.790 E0.27213
G1 X136.140 Y93.437 E0.23055
G1 X144.313 Y93.437 E0.25625
G1 X144.313 Y142.563 E1.54031
G1 X91.687 Y142.563 E1.65005
G1 X91.687 Y93.437 E1.54031
G1 X95.460 Y93.437 E0.11829
G1 X95.460 Y115.130 E0.68017
G1 E-3.50000 F3600.000
;WIPE_START
G1 F7200.000
G1 X98.460 Y115.147 E-1.42500
;WIPE_END
G1 E-0.07500 F3600.000
G1 X135.138 Y110.363 F9000.000
G1 E5.00000 F2400.000
;TYPE:External perimeter
G1 F1200.000
G1 X135.138 Y102.038 E0.26102
G1 X139.763 Y102.038 E0.14501
