; generated by PrusaSlicer 2.3.0-beta3+win64 on 2022-04-02 at 15:17:21 UTC

; 

; external perimeters extrusion width = 0.45mm
; perimeters extrusion width = 0.45mm
; infill extrusion width = 0.45mm
; solid infill extrusion width = 0.45mm
; top infill extrusion width = 0.40mm
; support material extrusion width = 0.38mm
; first layer extrusion width = 0.42mm

M201 X500 Y500 Z100 E5000 ; sets maximum accelerations, mm/sec^2
M203 X500 Y500 Z10 E60 ; sets maximum feedrates, mm/sec
M204 P500 R1000 T500 ; sets acceleration (P, T) and retract acceleration (R), mm/sec^2
M205 X8.00 Y8.00 Z0.40 E5.00 ; sets the jerk limits, mm/sec
M205 S0 T0 ; sets the minimum extruding and travel feed rate, mm/sec
M107
;TYPE:Custom
G90 ; use absolute coordinates
M83 ; extruder relative mode
M104 S210 ; set extruder temp
M140 S55 ; set bed temp
M190 S55 ; wait for bed temp
M109 S210 ; wait for extruder temp
G28 ; home all
G1 Z2 F240
G1 X2 Y10 F3000
G1 Z0.28 F240
G92 E0
G1 Y190 E15 F1500 ; intro line
G1 X2.3 F5000
G92 E0
G1 Y10 E15 F1200 ; intro line
G92 E0
G21 ; set units to millimeters
G90 ; use absolute coordinates
M83 ; use relative distances for extrusion
; Filament gcode
;LAYER_CHANGE
;Z:0.2
;HEIGHT:0.2
;BEFORE_LAYER_CHANGE
G92 E0
;0.2


G1 E-5.00000 F3600.000
G1 Z0.200 F9000.000
;AFTER_LAYER_CHANGE
;0.2
G1 X82.112 Y85.153
G1 E5.00000 F2400.000
;TYPE:Skirt
;WIDTH:0.42
G1 F1200.000
G1 X84.382 Y82.965 E0.09886
G1 X85.588 Y82.328 E0.04276
G1 X86.909 Y82.039 E0.04241
G1 X131.720 Y82.039 E1.40501
G1 X132.039 Y82.096 E0.01017
G1 X132.359 Y82.039 E0.01018
G1 X149.012 Y82.043 E0.52214
G1 X150.556 Y82.425 E0.04988
G1 X151.873 Y83.233 E0.04845
G1 X154.553 Y85.965 E0.11999
G1 X155.156 Y87.090 E0.04002
G1 X155.413 Y88.286 E0.03837
G1 X155.408 Y89.210 E0.02898
G1 X155.292 Y89.868 E0.02094
G1 X155.285 Y90.705 E0.02623
G1 X155.286 Y147.177 E1.77067
G1 X155.307 Y147.467 E0.00909
G1 X154.967 Y149.186 E0.05496
G1 X154.100 Y150.642 E0.05312
G1 X151.618 Y153.035 E0.10811
G1 X150.412 Y153.672 E0.04276
G1 X149.091 Y153.961 E0.04241
G1 X87.044 Y153.961 E1.94544
G1 X85.468 Y153.586 E0.05077
G1 X84.129 Y152.769 E0.04921
G1 X81.447 Y150.035 E0.12007
G1 X80.844 Y148.910 E0.04002
G1 X80.587 Y147.714 E0.03837
G1 X80.592 Y146.790 E0.02898
G1 X80.708 Y146.132 E0.02094
G1 X80.714 Y145.295 E0.02623
G1 X80.714 Y88.823 E1.77066
G1 X80.693 Y88.533 E0.00909
G1 X81.033 Y86.814 E0.05496
G1 X81.900 Y85.358 E0.05312
G1 X82.069 Y85.195 E0.00737
G1 X82.331 Y85.466 F9000.000
G1 F1200.000
G1 X84.583 Y83.285 E0.09830
G1 X85.695 Y82.690 E0.03953
G1 X86.930 Y82.416 E0.03966
G1 X131.701 Y82.416 E1.40377
G1 X132.039 Y82.480 E0.01079
G1 X132.378 Y82.416 E0.01080
G1 X148.989 Y82.420 E0.52084
G1 X150.385 Y82.763 E0.04507
G1 X151.621 Y83.515 E0.04537
G1 X154.235 Y86.168 E0.11679
G1 X154.793 Y87.198 E0.03671
G1 X155.036 Y88.305 E0.03556
G1 X155.031 Y89.191 E0.02779
G1 X154.915 Y89.832 E0.02042
G1 X154.908 Y90.703 E0.02730
G1 X154.909 Y147.191 E1.77114
G1 X154.929 Y147.469 E0.00874
G1 X154.625 Y149.023 E0.04963
G1 X153.819 Y150.389 E0.04974
G1 X151.417 Y152.715 E0.10486
G1 X150.305 Y153.310 E0.03953
G1 X149.070 Y153.584 E0.03966
G1 X87.065 Y153.584 E1.94411
G1 X85.638 Y153.248 E0.04598
G1 X84.380 Y152.487 E0.04608
G1 X81.765 Y149.832 E0.11686
G1 X81.207 Y148.802 E0.03671
G1 X80.964 Y147.695 E0.03556
G1 X80.969 Y146.809 E0.02779
G1 X81.085 Y146.168 E0.02042
G1 X81.092 Y145.297 E0.02730
G1 X81.091 Y88.809 E1.77114
G1 X81.071 Y88.531 E0.00874
G1 X81.375 Y86.977 E0.04963
G1 X82.181 Y85.611 E0.04974
G1 X82.288 Y85.507 E0.00468
G1 X82.551 Y85.777 F9000.000
G1 F1200.000
G1 X84.786 Y83.603 E0.09778
G1 X85.804 Y83.052 E0.03630
G1 X86.951 Y82.793 E0.03687
G1 X131.681 Y82.793 E1.40248
G1 X132.039 Y82.866 E0.01145
G1 X132.398 Y82.793 E0.01146
G1 X148.966 Y82.797 E0.51949
G1 X150.266 Y83.121 E0.04200
G1 X151.369 Y83.796 E0.04056
G1 X153.918 Y86.374 E0.11365
G1 X154.431 Y87.307 E0.03339
G1 X154.659 Y88.325 E0.03270
G1 X154.654 Y89.172 E0.02657
G1 X154.538 Y89.796 E0.01989
G1 X154.531 Y90.702 E0.02840
G1 X154.544 Y147.035 E1.76629
G1 X154.529 Y147.176 E0.00445
G1 X154.551 Y147.471 E0.00926
G1 X154.262 Y148.917 E0.04624
G1 X153.539 Y150.136 E0.04445
G1 X151.214 Y152.397 E0.10168
G1 X150.196 Y152.948 E0.03630
G1 X149.049 Y153.207 E0.03687
G1 X87.088 Y153.207 E1.94274
G1 X85.754 Y152.888 E0.04298
G1 X84.632 Y152.205 E0.04119
G1 X82.082 Y149.626 E0.11372
G1 X81.569 Y148.693 E0.03339
G1 X81.341 Y147.675 E0.03270
G1 X81.346 Y146.828 E0.02657
G1 X81.462 Y146.204 E0.01989
G1 X81.469 Y145.298 E0.02840
G1 X81.456 Y88.965 E1.76629
G1 X81.471 Y88.824 E0.00445
G1 X81.449 Y88.529 E0.00926
G1 X81.738 Y87.083 E0.04624
G1 X82.461 Y85.864 E0.04445
G1 X82.508 Y85.819 E0.00202
G1 X82.771 Y86.089 F9000.000
G1 F1200.000
G1 X84.991 Y83.921 E0.09729
G1 X85.915 Y83.413 E0.03306
G1 X86.973 Y83.170 E0.03403
G1 X131.660 Y83.170 E1.40114
G1 X132.039 Y83.252 E0.01215
G1 X132.419 Y83.170 E0.01216
G1 X148.943 Y83.174 E0.51812
G1 X150.095 Y83.459 E0.03721
G1 X151.118 Y84.078 E0.03750
G1 X153.602 Y86.581 E0.11054
G1 X154.070 Y87.418 E0.03008
G1 X154.282 Y88.345 E0.02980
G1 X154.277 Y89.152 E0.02532
G1 X154.162 Y89.759 E0.01935
G1 X154.154 Y90.700 E0.02953
G1 X154.167 Y147.024 E1.76599
G1 X154.151 Y147.168 E0.00456
G1 X154.173 Y147.473 E0.00959
G1 X153.921 Y148.754 E0.04093
G1 X153.257 Y149.884 E0.04110
G1 X151.009 Y152.079 E0.09850
G1 X150.085 Y152.586 E0.03306
G1 X149.027 Y152.830 E0.03403
G1 X87.109 Y152.830 E1.94138
G1 X85.923 Y152.550 E0.03821
G1 X84.883 Y151.923 E0.03808
G1 X82.398 Y149.419 E0.11060
G1 X81.930 Y148.582 E0.03008
G1 X81.718 Y147.655 E0.02980
G1 X81.723 Y146.848 E0.02532
G1 X81.838 Y146.241 E0.01935
G1 X81.846 Y145.300 E0.02953
G1 X81.833 Y88.976 E1.76599
G1 X81.849 Y88.832 E0.00456
G1 X81.827 Y88.527 E0.00959
G1 X82.079 Y87.246 E0.04093
G1 X82.732 Y86.134 E0.04043
G1 X83.025 Y86.368 F9000.000
G1 F1200.000
G1 X85.197 Y84.238 E0.09540
G1 X86.028 Y83.774 E0.02982
G1 X86.995 Y83.548 E0.03115
G1 X131.638 Y83.548 E1.39974
G1 X132.039 Y83.639 E0.01291
G1 X132.441 Y83.547 E0.01291
G1 X148.919 Y83.551 E0.51667
G1 X149.975 Y83.817 E0.03414
G1 X150.867 Y84.361 E0.03275
G1 X153.287 Y86.790 E0.10752
G1 X153.710 Y87.532 E0.02676
G1 X153.904 Y88.365 E0.02684
G1 X153.900 Y89.132 E0.02404
G1 X153.785 Y89.720 E0.01879
G1 X153.777 Y90.699 E0.03069
G1 X153.790 Y147.012 E1.76565
G1 X153.772 Y147.159 E0.00464
G1 X153.795 Y147.475 E0.00993
G1 X153.558 Y148.647 E0.03752
G1 X152.975 Y149.632 E0.03587
G1 X150.803 Y151.762 E0.09540
G1 X149.972 Y152.226 E0.02982
G1 X149.005 Y152.452 E0.03115
G1 X87.131 Y152.452 E1.94002
G1 X86.091 Y152.211 E0.03347
G1 X85.133 Y151.640 E0.03496
G1 X82.713 Y149.210 E0.10753
G1 X82.290 Y148.468 E0.02676
G1 X82.096 Y147.635 E0.02684
G1 X82.100 Y146.868 E0.02404
G1 X82.215 Y146.280 E0.01879
G1 X82.223 Y145.301 E0.03069
G1 X82.210 Y88.988 E1.76565
G1 X82.228 Y88.841 E0.00464
G1 X82.205 Y88.525 E0.00993
G1 X82.442 Y87.352 E0.03752
G1 X82.994 Y86.419 E0.03399
G1 X83.308 Y86.618 F9000.000
G1 F1200.000
G1 X85.405 Y84.553 E0.09231
G1 X86.143 Y84.134 E0.02658
G1 X87.018 Y83.925 E0.02822
G1 X131.614 Y83.925 E1.39829
G1 X132.039 Y84.028 E0.01371
G1 X132.464 Y83.925 E0.01372
G1 X148.896 Y83.929 E0.51521
G1 X149.805 Y84.155 E0.02937
G1 X150.617 Y84.644 E0.02971
G1 X152.972 Y86.999 E0.10442
G1 X153.368 Y87.694 E0.02509
G1 X153.527 Y88.384 E0.02222
G1 X153.523 Y89.115 E0.02289
G1 X153.449 Y89.524 E0.01305
G1 X153.408 Y89.644 E0.00395
G1 X153.400 Y90.697 E0.03304
G1 X153.412 Y146.998 E1.76528
G1 X153.393 Y147.147 E0.00469
G1 X153.417 Y147.477 E0.01038
G1 X153.216 Y148.485 E0.03223
G1 X152.692 Y149.382 E0.03255
G1 X150.595 Y151.447 E0.09231
G1 X149.857 Y151.866 E0.02658
G1 X148.982 Y152.075 E0.02822
G1 X87.153 Y152.075 E1.93861
G1 X86.207 Y151.851 E0.03050
G1 X85.383 Y151.357 E0.03010
G1 X83.028 Y149.001 E0.10445
G1 X82.632 Y148.306 E0.02509
G1 X82.473 Y147.615 E0.02222
G1 X82.477 Y146.885 E0.02289
G1 X82.551 Y146.476 E0.01305
G1 X82.592 Y146.356 E0.00395
G1 X82.600 Y145.303 E0.03304
G1 X82.588 Y89.002 E1.76528
G1 X82.607 Y88.853 E0.00469
G1 X82.583 Y88.523 E0.01038
G1 X82.784 Y87.515 E0.03223
G1 X83.277 Y86.670 E0.03067
G1 X83.590 Y86.869 F9000.000
G1 F1200.000
G1 X85.616 Y84.866 E0.08933
G1 X86.260 Y84.494 E0.02333
G1 X87.041 Y84.302 E0.02523
G1 X131.589 Y84.302 E1.39677
G1 X132.039 Y84.418 E0.01458
G1 X132.490 Y84.302 E0.01458
G1 X148.872 Y84.306 E0.51366
G1 X149.684 Y84.513 E0.02628
G1 X150.366 Y84.926 E0.02501
G1 X152.686 Y87.246 E0.10287
G1 X153.025 Y87.853 E0.02179
G1 X153.150 Y88.403 E0.01769
G1 X153.146 Y89.095 E0.02168
G1 X153.082 Y89.436 E0.01090
G1 X153.032 Y89.573 E0.00456
G1 X153.023 Y90.696 E0.03520
G1 X153.035 Y146.983 E1.76486
G1 X153.014 Y147.132 E0.00470
G1 X153.039 Y147.478 E0.01088
G1 X152.853 Y148.378 E0.02881
G1 X152.410 Y149.130 E0.02740
G1 X150.384 Y151.134 E0.08933
G1 X149.740 Y151.506 E0.02333
G1 X148.959 Y151.698 E0.02523
G1 X87.174 Y151.698 E1.93721
G1 X86.373 Y151.511 E0.02580
G1 X85.633 Y151.073 E0.02697
G1 X83.314 Y148.754 E0.10284
G1 X82.975 Y148.147 E0.02179
G1 X82.850 Y147.596 E0.01769
G1 X82.854 Y146.905 E0.02168
G1 X82.918 Y146.564 E0.01090
G1 X82.968 Y146.427 E0.00456
G1 X82.977 Y145.304 E0.03520
G1 X82.965 Y89.017 E1.76486
G1 X82.986 Y88.868 E0.00470
G1 X82.961 Y88.522 E0.01088
G1 X83.147 Y87.622 E0.02881
G1 X83.560 Y86.921 E0.02551
G1 X83.874 Y87.119 F9000.000
G1 F1200.000
G1 X85.829 Y85.178 E0.08637
G1 X86.380 Y84.852 E0.02008
G1 X87.065 Y84.679 E0.02216
G1 X131.562 Y84.679 E1.39518
G1 X132.039 Y84.809 E0.01551
G1 X132.516 Y84.679 E0.01550
G1 X148.849 Y84.683 E0.51210
G1 X149.516 Y84.851 E0.02156
G1 X150.117 Y85.210 E0.02195
G1 X152.400 Y87.493 E0.10124
G1 X152.681 Y88.009 E0.01842
G1 X152.773 Y88.422 E0.01326
G1 X152.769 Y89.074 E0.02044
G1 X152.716 Y89.344 E0.00863
G1 X152.655 Y89.498 E0.00519
G1 X152.646 Y90.694 E0.03751
G1 X152.658 Y146.967 E1.76437
G1 X152.634 Y147.113 E0.00466
G1 X152.661 Y147.480 E0.01152
G1 X152.512 Y148.216 E0.02356
G1 X152.126 Y148.881 E0.02410
G1 X150.171 Y150.822 E0.08637
G1 X149.620 Y151.148 E0.02008
G1 X148.935 Y151.321 E0.02216
G1 X87.197 Y151.321 E1.93574
G1 X86.490 Y151.152 E0.02281
G1 X85.883 Y150.790 E0.02214
G1 X83.600 Y148.507 E0.10124
G1 X83.319 Y147.991 E0.01842
G1 X83.227 Y147.578 E0.01326
G1 X83.231 Y146.926 E0.02044
G1 X83.284 Y146.656 E0.00863
G1 X83.345 Y146.502 E0.00519
G1 X83.354 Y145.306 E0.03751
G1 X83.342 Y89.033 E1.76437
G1 X83.366 Y88.887 E0.00466
G1 X83.339 Y88.520 E0.01152
G1 X83.488 Y87.784 E0.02356
G1 X83.844 Y87.171 E0.02222
G1 X84.157 Y87.369 F9000.000
G1 F1200.000
G1 X86.045 Y85.488 E0.08355
G1 X86.504 Y85.209 E0.01684
G1 X87.090 Y85.056 E0.01901
G1 X87.861 Y85.056 E0.02417
G1 X87.985 Y85.076 E0.00395
G1 X88.101 Y85.056 E0.00368
G1 X89.385 Y85.056 E0.04025
G1 X89.509 Y85.076 E0.00395
G1 X89.625 Y85.056 E0.00368
G1 X90.908 Y85.056 E0.04025
G1 X91.033 Y85.076 E0.00395
G1 X91.148 Y85.056 E0.00368
G1 X92.432 Y85.056 E0.04025
G1 X92.556 Y85.076 E0.00395
G1 X92.672 Y85.056 E0.00368
G1 X93.955 Y85.056 E0.04025
G1 X94.080 Y85.076 E0.00395
G1 X94.195 Y85.056 E0.00368
G1 X95.479 Y85.056 E0.04025
G1 X95.603 Y85.076 E0.00395
G1 X95.719 Y85.056 E0.00368
G1 X97.003 Y85.056 E0.04025
G1 X97.127 Y85.076 E0.00395
G1 X97.243 Y85.056 E0.00368
G1 X98.526 Y85.056 E0.04025
G1 X98.651 Y85.076 E0.00395
G1 X98.766 Y85.056 E0.00368
G1 X100.050 Y85.056 E0.04025
G1 X100.174 Y85.076 E0.00395
G1 X100.290 Y85.056 E0.00368
G1 X101.574 Y85.056 E0.04025
G1 X101.698 Y85.076 E0.00395
G1 X101.814 Y85.056 E0.00368
G1 X103.097 Y85.056 E0.04025
G1 X103.222 Y85.076 E0.00395
G1 X103.337 Y85.056 E0.00368
G1 X104.621 Y85.056 E0.04025
G1 X104.745 Y85.076 E0.00395
G1 X104.861 Y85.056 E0.00368
G1 X106.144 Y85.056 E0.04025
G1 X106.269 Y85.076 E0.00395
G1 X106.384 Y85.056 E0.00368
G1 X107.668 Y85.056 E0.04025
G1 X107.792 Y85.076 E0.00395
G1 X107.908 Y85.056 E0.00368
G1 X109.192 Y85.056 E0.04025
G1 X109.316 Y85.076 E0.00395
G1 X109.432 Y85.056 E0.00368
G1 X110.715 Y85.056 E0.04025
G1 X110.840 Y85.076 E0.00395
G1 X110.955 Y85.056 E0.00368
G1 X112.239 Y85.056 E0.04025
G1 X112.363 Y85.076 E0.00395
G1 X112.479 Y85.056 E0.00368
G1 X113.763 Y85.056 E0.04025
G1 X113.887 Y85.076 E0.00395
G1 X114.003 Y85.056 E0.00368
G1 X115.286 Y85.056 E0.04025
G1 X115.411 Y85.076 E0.00395
G1 X115.526 Y85.056 E0.00368
G1 X116.810 Y85.056 E0.04025
G1 X116.934 Y85.076 E0.00395
G1 X117.050 Y85.056 E0.00368
G1 X118.334 Y85.056 E0.04025
G1 X118.458 Y85.076 E0.00395
G1 X118.573 Y85.056 E0.00368
G1 X119.857 Y85.056 E0.04025
G1 X119.982 Y85.076 E0.00395
G1 X120.097 Y85.056 E0.00368
G1 X121.381 Y85.056 E0.04025
G1 X121.505 Y85.076 E0.00395
G1 X121.621 Y85.056 E0.00368
G1 X122.904 Y85.056 E0.04025
G1 X123.029 Y85.076 E0.00395
G1 X123.144 Y85.056 E0.00368
G1 X124.428 Y85.056 E0.04025
G1 X124.552 Y85.076 E0.00395
G1 X124.668 Y85.056 E0.00368
G1 X125.952 Y85.056 E0.04025
G1 X126.076 Y85.076 E0.00395
G1 X126.192 Y85.056 E0.00368
G1 X127.475 Y85.056 E0.04025
G1 X127.600 Y85.076 E0.00395
G1 X127.715 Y85.056 E0.00368
G1 X128.999 Y85.056 E0.04025
G1 X129.123 Y85.076 E0.00395
G1 X129.239 Y85.056 E0.00368
G1 X130.523 Y85.056 E0.04025
G1 X130.647 Y85.076 E0.00395
G1 X130.763 Y85.056 E0.00368
G1 X131.534 Y85.056 E0.02419
G1 X132.039 Y85.203 E0.01650
G1 X132.545 Y85.056 E0.01650
G1 X133.570 Y85.056 E0.03214
G1 X133.694 Y85.076 E0.00395
G1 X133.810 Y85.056 E0.00368
G1 X135.093 Y85.056 E0.04025
G1 X135.218 Y85.076 E0.00395
G1 X135.333 Y85.056 E0.00368
G1 X136.617 Y85.056 E0.04025
G1 X136.741 Y85.076 E0.00395
G1 X136.857 Y85.056 E0.00368
G1 X138.141 Y85.056 E0.04025
G1 X138.265 Y85.076 E0.00395
G1 X138.381 Y85.056 E0.00368
G1 X139.664 Y85.056 E0.04025
G1 X139.789 Y85.076 E0.00395
G1 X139.904 Y85.056 E0.00368
G1 X141.188 Y85.056 E0.04025
G1 X141.312 Y85.076 E0.00395
G1 X141.428 Y85.056 E0.00368
G1 X142.712 Y85.056 E0.04025
G1 X142.836 Y85.076 E0.00395
G1 X142.952 Y85.056 E0.00368
G1 X144.235 Y85.056 E0.04025
G1 X144.360 Y85.076 E0.00395
G1 X144.475 Y85.056 E0.00368
G1 X145.759 Y85.056 E0.04025
G1 X145.883 Y85.076 E0.00395
G1 X145.999 Y85.056 E0.00368
G1 X147.282 Y85.056 E0.04025
G1 X147.407 Y85.076 E0.00396
G1 X147.525 Y85.056 E0.00375
G1 X148.825 Y85.060 E0.04077
G1 X149.349 Y85.191 E0.01694
G1 X149.868 Y85.494 E0.01884
G1 X152.112 Y87.739 E0.09953
G1 X152.335 Y88.161 E0.01495
G1 X152.396 Y88.440 E0.00896
G1 X152.392 Y89.052 E0.01918
G1 X152.351 Y89.246 E0.00622
G1 X152.278 Y89.421 E0.00597
G1 X152.281 Y90.575 E0.03617
G1 X152.261 Y90.692 E0.00373
G1 X152.281 Y90.816 E0.00396
G1 X152.281 Y92.100 E0.04025
G1 X152.261 Y92.216 E0.00368
G1 X152.281 Y92.340 E0.00395
G1 X152.281 Y93.624 E0.04025
G1 X152.261 Y93.739 E0.00368
G1 X152.281 Y93.864 E0.00395
G1 X152.281 Y95.147 E0.04025
G1 X152.261 Y95.263 E0.00368
G1 X152.281 Y95.387 E0.00395
G1 X152.281 Y96.671 E0.04025
G1 X152.261 Y96.787 E0.00368
G1 X152.281 Y96.911 E0.00395
G1 X152.281 Y98.195 E0.04025
G1 X152.261 Y98.310 E0.00368
G1 X152.281 Y98.435 E0.00395
G1 X152.281 Y99.718 E0.04025
G1 X152.261 Y99.834 E0.00368
G1 X152.281 Y99.958 E0.00395
G1 X152.281 Y101.242 E0.04025
G1 X152.261 Y101.357 E0.00368
G1 X152.281 Y101.482 E0.00395
G1 X152.281 Y102.766 E0.04025
G1 X152.261 Y102.881 E0.00368
G1 X152.281 Y103.005 E0.00395
G1 X152.281 Y104.289 E0.04025
G1 X152.261 Y104.405 E0.00368
G1 X152.281 Y104.529 E0.00395
G1 X152.281 Y105.813 E0.04025
G1 X152.261 Y105.928 E0.00368
G1 X152.281 Y106.053 E0.00395
G1 X152.281 Y107.336 E0.04025
G1 X152.261 Y107.452 E0.00368
G1 X152.281 Y107.576 E0.00395
G1 X152.281 Y108.860 E0.04025
G1 X152.261 Y108.976 E0.00368
G1 X152.281 Y109.100 E0.00395
G1 X152.281 Y110.384 E0.04025
G1 X152.261 Y110.499 E0.00368
G1 X152.281 Y110.624 E0.00395
G1 X152.281 Y111.907 E0.04025
G1 X152.261 Y112.023 E0.00368
G1 X152.281 Y112.147 E0.00395
G1 X152.281 Y113.431 E0.04025
G1 X152.261 Y113.547 E0.00368
G1 X152.281 Y113.671 E0.00395
G1 X152.281 Y114.955 E0.04025
G1 X152.261 Y115.070 E0.00368
G1 X152.281 Y115.195 E0.00395
G1 X152.281 Y116.478 E0.04025
G1 X152.261 Y116.594 E0.00368
G1 X152.281 Y116.718 E0.00395
G1 X152.281 Y118.002 E0.04025
G1 X152.261 Y118.117 E0.00368
G1 X152.281 Y118.242 E0.00395
G1 X152.281 Y119.525 E0.04025
G1 X152.261 Y119.641 E0.00368
