; generated by PrusaSlicer 2.3.0-beta3+win64 on 2022-04-10 at 01:39:15 UTC

; 

; external perimeters extrusion width = 0.45mm
; perimeters extrusion width = 0.45mm
; infill extrusion width = 0.45mm
; solid infill extrusion width = 0.45mm
; top infill extrusion width = 0.40mm
; support material extrusion width = 0.38mm
; first layer extrusion width = 0.42mm

M201 X500 Y500 Z100 E5000 ; sets maximum accelerations, mm/sec^2
M203 X500 Y500 Z10 E60 ; sets maximum feedrates, mm/sec
M204 P500 R1000 T500 ; sets acceleration (P, T) and retract acceleration (R), mm/sec^2
M205 X8.00 Y8.00 Z0.40 E5.00 ; sets the jerk limits, mm/sec
M205 S0 T0 ; sets the minimum extruding and travel feed rate, mm/sec
M107
;TYPE:Custom
G90 ; use absolute coordinates
M83 ; extruder relative mode
M104 S220 ; set extruder temp
M140 S60 ; set bed temp
M190 S60 ; wait for bed temp
M109 S220 ; wait for extruder temp
G28 ; home all
G1 Z2 F240
G1 X2 Y10 F3000
G1 Z0.28 F240
G92 E0
G1 Y190 E15 F1500 ; intro line
G1 X2.3 F5000
G92 E0
G1 Y10 E15 F1200 ; intro line
G92 E0
G21 ; set units to millimeters
G90 ; use absolute coordinates
M83 ; use relative distances for extrusion
; Filament gcode
;LAYER_CHANGE
;Z:0.2
;HEIGHT:0.2
;BEFORE_LAYER_CHANGE
G92 E0
;0.2


G1 E-5.00000 F3600.000
G1 Z0.200 F9000.000
;AFTER_LAYER_CHANGE
;0.2
G1 X84.706 Y86.575
G1 E5.00000 F2400.000
;TYPE:Skirt
;WIDTH:0.42
G1 F900.000
G1 X85.775 Y85.599 E0.04538
G1 X86.556 Y85.174 E0.02786
G1 X87.395 Y84.892 E0.02775
G1 X88.164 Y84.822 E0.02422
G1 X88.622 Y84.636 E0.01549
G1 X88.932 Y84.569 E0.00995
G1 X89.108 Y84.502 E0.00590
G1 X89.680 Y84.351 E0.01855
G1 X92.577 Y84.293 E0.09087
G1 X93.268 Y84.175 E0.02198
G1 X94.261 Y84.181 E0.03113
G1 X94.847 Y84.289 E0.01867
G1 X97.449 Y84.324 E0.08160
G1 X98.430 Y84.560 E0.03163
G1 X98.942 Y84.796 E0.01768
G1 X99.127 Y84.799 E0.00581
G1 X123.478 Y84.799 E0.76350
G1 X124.304 Y84.792 E0.02592
G1 X125.038 Y84.672 E0.02331
G1 X125.960 Y84.672 E0.02891
G1 X126.531 Y84.790 E0.01828
G1 X127.310 Y84.799 E0.02443
G1 X136.424 Y84.799 E0.28576
G1 X136.966 Y84.793 E0.01699
G1 X137.610 Y84.556 E0.02154
G1 X138.929 Y84.286 E0.04219
G1 X146.124 Y84.286 E0.22561
G1 X147.631 Y84.664 E0.04869
G1 X148.261 Y85.004 E0.02245
G1 X148.475 Y85.069 E0.00700
G1 X149.281 Y85.431 E0.02771
G1 X151.397 Y87.326 E0.08905
G1 X152.040 Y88.271 E0.03584
G1 X152.340 Y89.072 E0.02682
G1 X152.505 Y89.270 E0.00809
G1 X153.048 Y90.191 E0.03351
G1 X153.426 Y91.487 E0.04233
G1 X153.461 Y92.015 E0.01660
G1 X153.957 Y93.240 E0.04144
G1 X154.062 Y94.080 E0.02655
G1 X154.062 Y97.898 E0.11972
G1 X153.820 Y99.139 E0.03963
G1 X153.402 Y100.075 E0.03216
G1 X153.131 Y100.997 E0.03013
G1 X152.908 Y101.419 E0.01496
G1 X152.729 Y101.847 E0.01453
G1 X152.387 Y102.425 E0.02107
G1 X152.375 Y112.151 E0.30495
G1 X152.384 Y112.931 E0.02447
G1 X152.503 Y113.515 E0.01868
G1 X152.498 Y114.487 E0.03048
G1 X152.382 Y115.145 E0.02095
G1 X152.375 Y115.981 E0.02622
G1 X152.388 Y146.533 E0.95792
G1 X151.907 Y148.194 E0.05423
G1 X150.878 Y149.582 E0.05416
G1 X150.476 Y149.891 E0.01590
G1 X150.141 Y150.203 E0.01435
G1 X149.445 Y150.668 E0.02625
G1 X147.647 Y151.214 E0.05891
G1 X134.483 Y151.211 E0.41276
G1 X134.187 Y151.371 E0.01054
G1 X133.529 Y151.594 E0.02179
G1 X132.794 Y151.912 E0.02511
G1 X132.472 Y151.991 E0.01038
G1 X132.125 Y152.120 E0.01160
G1 X131.146 Y152.301 E0.03124
G1 X126.436 Y152.302 E0.14767
G1 X125.533 Y152.280 E0.02830
G1 X124.190 Y151.935 E0.04348
G1 X123.564 Y151.627 E0.02190
G1 X123.288 Y151.429 E0.01065
G1 X122.725 Y151.208 E0.01895
G1 X113.848 Y151.209 E0.27834
G1 X113.482 Y151.385 E0.01270
G1 X113.264 Y151.454 E0.00720
G1 X113.004 Y151.638 E0.00999
G1 X112.321 Y151.965 E0.02373
G1 X111.119 Y152.269 E0.03888
G1 X105.232 Y152.301 E0.18460
G1 X103.973 Y152.055 E0.04020
G1 X103.104 Y151.665 E0.02988
G1 X102.309 Y151.502 E0.02544
G1 X101.637 Y151.206 E0.02301
G1 X90.543 Y151.201 E0.34787
G1 X90.332 Y151.215 E0.00662
G1 X88.226 Y151.128 E0.06609
G1 X87.242 Y150.817 E0.03238
G1 X86.338 Y150.316 E0.03239
G1 X84.577 Y148.648 E0.07604
G1 X83.829 Y147.439 E0.04458
G1 X83.497 Y146.109 E0.04300
G1 X83.502 Y145.129 E0.03071
G1 X83.615 Y144.482 E0.02061
G1 X83.613 Y136.210 E0.25935
G1 X83.480 Y136.049 E0.00654
G1 X83.101 Y135.384 E0.02400
G1 X82.652 Y134.806 E0.02294
G1 X82.192 Y133.812 E0.03436
G1 X81.948 Y132.653 E0.03713
G1 X81.938 Y125.804 E0.21474
G1 X82.091 Y124.797 E0.03195
G1 X82.885 Y123.164 E0.05693
G1 X83.613 Y122.372 E0.03371
G1 X83.623 Y102.478 E0.62375
G1 X82.971 Y101.419 E0.03901
G1 X82.618 Y100.328 E0.03594
G1 X82.568 Y99.876 E0.01428
G1 X82.043 Y98.573 E0.04402
G1 X81.938 Y97.728 E0.02673
G1 X81.982 Y92.809 E0.15422
G1 X82.127 Y92.252 E0.01804
G1 X82.230 Y91.707 E0.01739
G1 X82.514 Y90.954 E0.02524
G1 X82.749 Y90.550 E0.01463
G1 X83.092 Y89.679 E0.02937
G1 X83.568 Y88.967 E0.02686
G1 X83.693 Y88.827 E0.00587
G1 X83.975 Y87.797 E0.03350
G1 X84.675 Y86.626 E0.04277
G1 X84.999 Y86.819 F9000.000
G1 F900.000
G1 X86.010 Y85.895 E0.04296
G1 X86.719 Y85.515 E0.02523
G1 X87.492 Y85.258 E0.02553
G1 X88.254 Y85.193 E0.02400
G1 X88.719 Y85.000 E0.01575
G1 X89.042 Y84.931 E0.01036
G1 X89.215 Y84.863 E0.00584
G1 X89.754 Y84.721 E0.01747
G1 X92.614 Y84.670 E0.08969
G1 X93.283 Y84.552 E0.02131
G1 X94.241 Y84.558 E0.03003
G1 X94.808 Y84.666 E0.01810
G1 X97.422 Y84.701 E0.08196
G1 X98.321 Y84.921 E0.02902
G1 X98.854 Y85.172 E0.01848
G1 X99.124 Y85.176 E0.00846
G1 X123.479 Y85.176 E0.76363
G1 X124.338 Y85.169 E0.02691
G1 X125.054 Y85.049 E0.02277
G1 X125.940 Y85.049 E0.02777
G1 X126.488 Y85.166 E0.01760
G1 X127.308 Y85.176 E0.02570
G1 X136.426 Y85.176 E0.28590
G1 X137.036 Y85.169 E0.01912
G1 X137.701 Y84.922 E0.02226
G1 X138.948 Y84.663 E0.03993
G1 X146.100 Y84.663 E0.22425
G1 X147.513 Y85.023 E0.04571
G1 X148.115 Y85.354 E0.02153
G1 X148.332 Y85.418 E0.00710
G1 X149.099 Y85.763 E0.02637
G1 X151.098 Y87.557 E0.08419
G1 X151.714 Y88.463 E0.03438
G1 X152.009 Y89.266 E0.02680
G1 X152.189 Y89.477 E0.00870
G1 X152.711 Y90.361 E0.03220
G1 X153.058 Y91.569 E0.03940
G1 X153.087 Y92.099 E0.01664
G1 X153.586 Y93.313 E0.04114
G1 X153.685 Y94.092 E0.02464
G1 X153.685 Y97.880 E0.11878
G1 X153.467 Y99.005 E0.03592
G1 X153.046 Y99.946 E0.03231
G1 X152.788 Y100.839 E0.02915
G1 X152.566 Y101.259 E0.01490
G1 X152.397 Y101.668 E0.01386
G1 X152.118 Y102.142 E0.01726
G1 X152.010 Y102.276 E0.00539
G1 X151.998 Y112.153 E0.30969
G1 X152.008 Y112.974 E0.02573
G1 X152.126 Y113.534 E0.01795
G1 X152.121 Y114.468 E0.02930
G1 X152.005 Y115.110 E0.02043
G1 X151.998 Y115.980 E0.02729
G1 X152.011 Y146.507 E0.95714
G1 X151.583 Y147.998 E0.04865
G1 X150.626 Y149.299 E0.05063
G1 X150.231 Y149.604 E0.01566
G1 X149.918 Y149.899 E0.01347
G1 X149.259 Y150.339 E0.02487
G1 X147.619 Y150.837 E0.05371
G1 X134.384 Y150.834 E0.41497
G1 X134.049 Y151.019 E0.01202
G1 X133.393 Y151.243 E0.02174
G1 X132.688 Y151.549 E0.02410
G1 X132.359 Y151.630 E0.01062
G1 X132.038 Y151.753 E0.01076
G1 X131.128 Y151.924 E0.02905
G1 X126.438 Y151.925 E0.14704
G1 X125.564 Y151.903 E0.02740
G1 X124.339 Y151.588 E0.03965
G1 X123.746 Y151.296 E0.02076
G1 X123.471 Y151.096 E0.01065
G1 X122.796 Y150.831 E0.02273
G1 X113.761 Y150.832 E0.28327
G1 X113.333 Y151.038 E0.01492
G1 X113.093 Y151.111 E0.00785
G1 X112.825 Y151.306 E0.01040
G1 X112.175 Y151.617 E0.02259
G1 X111.094 Y151.892 E0.03498
G1 X105.249 Y151.924 E0.18327
G1 X104.069 Y151.689 E0.03772
G1 X103.222 Y151.304 E0.02919
G1 X102.406 Y151.137 E0.02612
G1 X101.719 Y150.829 E0.02360
G1 X90.529 Y150.824 E0.35086
G1 X90.335 Y150.838 E0.00608
G1 X88.314 Y150.761 E0.06342
G1 X87.407 Y150.477 E0.02979
G1 X86.542 Y149.998 E0.03102
G1 X84.855 Y148.392 E0.07304
G1 X84.187 Y147.318 E0.03965
G1 X83.874 Y146.087 E0.03983
G1 X83.879 Y145.148 E0.02942
G1 X83.992 Y144.516 E0.02014
G1 X83.990 Y136.068 E0.26487
G1 X83.798 Y135.845 E0.00922
G1 X83.415 Y135.172 E0.02428
G1 X82.985 Y134.627 E0.02176
G1 X82.543 Y133.673 E0.03297
G1 X82.325 Y132.633 E0.03331
G1 X82.315 Y125.818 E0.21367
G1 X82.459 Y124.883 E0.02967
G1 X83.211 Y123.356 E0.05336
G1 X83.990 Y122.522 E0.03579
G1 X84.000 Y102.327 E0.63319
G1 X83.901 Y102.210 E0.00481
G1 X83.322 Y101.281 E0.03432
G1 X82.983 Y100.232 E0.03455
G1 X82.938 Y99.784 E0.01412
G1 X82.414 Y98.501 E0.04345
G1 X82.315 Y97.718 E0.02476
G1 X82.352 Y92.882 E0.15163
G1 X82.496 Y92.334 E0.01776
G1 X82.589 Y91.824 E0.01625
G1 X82.861 Y91.102 E0.02417
G1 X83.089 Y90.716 E0.01408
G1 X83.417 Y89.871 E0.02841
G1 X83.873 Y89.190 E0.02571
G1 X84.033 Y89.014 E0.00745
G1 X84.313 Y87.967 E0.03398
G1 X84.968 Y86.871 E0.04005
G1 X85.286 Y87.058 F9000.000
G1 F900.000
G1 X86.245 Y86.191 E0.04053
G1 X86.880 Y85.856 E0.02253
G1 X87.587 Y85.623 E0.02334
G1 X88.345 Y85.564 E0.02382
G1 X88.816 Y85.365 E0.01604
G1 X89.153 Y85.293 E0.01080
G1 X89.323 Y85.225 E0.00575
G1 X89.828 Y85.092 E0.01637
G1 X92.651 Y85.046 E0.08853
G1 X93.299 Y84.929 E0.02064
G1 X94.220 Y84.935 E0.02890
G1 X94.769 Y85.042 E0.01753
G1 X97.353 Y85.072 E0.08103
G1 X98.211 Y85.283 E0.02770
G1 X98.765 Y85.548 E0.01925
G1 X99.121 Y85.553 E0.01116
G1 X123.481 Y85.553 E0.76377
G1 X124.371 Y85.546 E0.02793
G1 X125.070 Y85.426 E0.02223
G1 X125.918 Y85.426 E0.02658
G1 X126.444 Y85.543 E0.01689
G1 X127.306 Y85.553 E0.02702
G1 X136.428 Y85.553 E0.28603
G1 X137.107 Y85.545 E0.02127
G1 X137.794 Y85.288 E0.02301
G1 X138.968 Y85.041 E0.03764
G1 X146.076 Y85.041 E0.22286
G1 X147.394 Y85.382 E0.04268
G1 X147.969 Y85.705 E0.02068
G1 X148.191 Y85.768 E0.00723
G1 X148.917 Y86.095 E0.02498
G1 X150.827 Y87.820 E0.08070
G1 X151.388 Y88.654 E0.03149
G1 X151.678 Y89.461 E0.02689
G1 X151.873 Y89.685 E0.00932
G1 X152.373 Y90.532 E0.03084
G1 X152.689 Y91.649 E0.03641
G1 X152.713 Y92.182 E0.01673
G1 X153.215 Y93.386 E0.04090
G1 X153.308 Y94.104 E0.02270
G1 X153.308 Y97.862 E0.11781
G1 X153.101 Y98.911 E0.03354
G1 X152.746 Y99.709 E0.02738
G1 X152.681 Y99.810 E0.00377
G1 X152.659 Y99.965 E0.00493
G1 X152.433 Y100.710 E0.02439
G1 X152.225 Y101.098 E0.01382
G1 X152.065 Y101.489 E0.01323
G1 X151.803 Y101.935 E0.01624
G1 X151.633 Y102.134 E0.00821
G1 X151.621 Y112.155 E0.31418
G1 X151.631 Y113.017 E0.02704
G1 X151.749 Y113.553 E0.01720
G1 X151.744 Y114.449 E0.02808
G1 X151.628 Y115.073 E0.01990
G1 X151.621 Y115.979 E0.02839
G1 X151.634 Y146.480 E0.95634
G1 X151.231 Y147.860 E0.04509
G1 X150.376 Y149.017 E0.04509
G1 X149.985 Y149.318 E0.01548
G1 X149.695 Y149.594 E0.01256
G1 X149.072 Y150.010 E0.02347
G1 X147.592 Y150.459 E0.04852
G1 X134.284 Y150.457 E0.41724
G1 X133.910 Y150.668 E0.01348
G1 X133.225 Y150.901 E0.02269
G1 X133.119 Y150.963 E0.00383
G1 X132.559 Y151.195 E0.01900
G1 X132.245 Y151.270 E0.01013
G1 X131.949 Y151.386 E0.00997
G1 X131.109 Y151.546 E0.02681
G1 X126.440 Y151.548 E0.14640
G1 X125.595 Y151.527 E0.02650
G1 X124.489 Y151.242 E0.03583
G1 X123.928 Y150.966 E0.01959
G1 X123.651 Y150.760 E0.01082
G1 X123.077 Y150.549 E0.01916
G1 X122.909 Y150.454 E0.00607
G1 X113.675 Y150.455 E0.28950
G1 X113.184 Y150.691 E0.01710
G1 X112.922 Y150.768 E0.00855
G1 X112.645 Y150.974 E0.01084
G1 X112.028 Y151.269 E0.02142
G1 X111.068 Y151.515 E0.03108
G1 X105.266 Y151.547 E0.18192
G1 X104.166 Y151.324 E0.03520
G1 X103.340 Y150.943 E0.02851
G1 X102.503 Y150.772 E0.02681
G1 X101.802 Y150.452 E0.02417
G1 X90.513 Y150.447 E0.35393
G1 X90.337 Y150.461 E0.00555
G1 X88.402 Y150.393 E0.06070
G1 X87.539 Y150.123 E0.02836
G1 X86.747 Y149.681 E0.02843
G1 X85.133 Y148.137 E0.07003
G1 X84.524 Y147.145 E0.03649
G1 X84.251 Y146.065 E0.03493
G1 X84.256 Y145.167 E0.02815
G1 X84.370 Y144.551 E0.01966
G1 X84.367 Y135.923 E0.27052
G1 X84.115 Y135.640 E0.01187
G1 X83.727 Y134.959 E0.02457
G1 X83.316 Y134.446 E0.02061
G1 X82.907 Y133.573 E0.03024
G1 X82.702 Y132.613 E0.03078
G1 X82.692 Y125.833 E0.21257
G1 X82.827 Y124.971 E0.02736
G1 X83.535 Y123.550 E0.04977
G1 X84.367 Y122.673 E0.03790
G1 X84.379 Y102.515 E0.63203
G1 X84.375 Y102.176 E0.01065
G1 X84.209 Y101.993 E0.00773
G1 X83.674 Y101.142 E0.03152
G1 X83.348 Y100.137 E0.03311
G1 X83.309 Y99.694 E0.01397
G1 X82.785 Y98.428 E0.04296
G1 X82.692 Y97.707 E0.02278
G1 X82.723 Y92.954 E0.14903
G1 X82.865 Y92.414 E0.01751
G1 X82.949 Y91.940 E0.01509
G1 X83.208 Y91.252 E0.02306
G1 X83.430 Y90.881 E0.01354
G1 X83.742 Y90.063 E0.02747
G1 X84.177 Y89.413 E0.02451
G1 X84.374 Y89.202 E0.00904
G1 X84.652 Y88.135 E0.03458
G1 X85.256 Y87.110 E0.03730
G1 X85.565 Y87.312 F9000.000
G1 F900.000
G1 X86.443 Y86.513 E0.03722
G1 X87.014 Y86.209 E0.02027
G1 X87.682 Y85.989 E0.02206
G1 X88.435 Y85.936 E0.02366
G1 X88.914 Y85.730 E0.01635
G1 X89.265 Y85.654 E0.01127
G1 X89.432 Y85.586 E0.00564
G1 X89.901 Y85.462 E0.01523
G1 X92.689 Y85.423 E0.08740
G1 X93.315 Y85.306 E0.01997
G1 X94.199 Y85.312 E0.02773
G1 X94.729 Y85.419 E0.01695
G1 X97.285 Y85.444 E0.08013
G1 X98.101 Y85.644 E0.02636
G1 X98.675 Y85.923 E0.02001
G1 X99.119 Y85.930 E0.01391
G1 X123.482 Y85.930 E0.76390
G1 X124.406 Y85.923 E0.02897
G1 X125.087 Y85.803 E0.02168
G1 X125.896 Y85.803 E0.02536
G1 X126.398 Y85.920 E0.01616
G1 X127.304 Y85.930 E0.02840
G1 X136.430 Y85.930 E0.28617
G1 X137.178 Y85.921 E0.02345
G1 X137.874 Y85.657 E0.02333
G1 X138.204 Y85.599 E0.01051
G1 X138.992 Y85.418 E0.02535
G1 X146.051 Y85.418 E0.22136
G1 X147.272 Y85.740 E0.03959
G1 X147.823 Y86.056 E0.01990
G1 X148.050 Y86.118 E0.00740
G1 X148.735 Y86.426 E0.02354
G1 X150.556 Y88.083 E0.07718
G1 X151.062 Y88.844 E0.02865
G1 X151.284 Y89.450 E0.02025
G1 X151.313 Y89.619 E0.00538
G1 X151.559 Y89.893 E0.01155
G1 X152.036 Y90.701 E0.02942
G1 X152.319 Y91.727 E0.03337
G1 X152.339 Y92.265 E0.01688
G1 X152.845 Y93.461 E0.04072
G1 X152.931 Y94.117 E0.02073
G1 X152.931 Y97.843 E0.11682
G1 X152.736 Y98.815 E0.03110
G1 X152.411 Y99.535 E0.02476
G1 X152.316 Y99.672 E0.00522
G1 X152.293 Y99.874 E0.00638
G1 X152.078 Y100.581 E0.02315
G1 X151.884 Y100.936 E0.01270
G1 X151.733 Y101.310 E0.01264
G1 X151.487 Y101.727 E0.01518
G1 X151.256 Y101.990 E0.01098
G1 X151.244 Y112.157 E0.31877
G1 X151.255 Y113.063 E0.02842
G1 X151.372 Y113.574 E0.01643
G1 X151.367 Y114.429 E0.02682
G1 X151.252 Y115.036 E0.01936
G1 X151.244 Y115.977 E0.02952
G1 X151.257 Y146.453 E0.95556
G1 X150.906 Y147.665 E0.03954
G1 X150.124 Y148.735 E0.04155
G1 X149.737 Y149.033 E0.01532
G1 X149.471 Y149.291 E0.01163
G1 X148.886 Y149.681 E0.02204
G1 X147.564 Y150.082 E0.04332
G1 X134.183 Y150.079 E0.41955
G1 X133.766 Y150.320 E0.01509
G1 X133.221 Y150.513 E0.01812
G1 X133.094 Y150.539 E0.00405
G1 X132.960 Y150.621 E0.00493
G1 X132.430 Y150.840 E0.01797
G1 X132.131 Y150.909 E0.00963
G1 X131.858 Y151.020 E0.00925
G1 X131.091 Y151.169 E0.02450
G1 X126.443 Y151.171 E0.14574
G1 X125.626 Y151.150 E0.02560
G1 X124.638 Y150.895 E0.03201
G1 X124.112 Y150.636 E0.01839
G1 X123.835 Y150.426 E0.01090
G1 X123.225 Y150.202 E0.02037
G1 X123.014 Y150.077 E0.00770
G1 X113.589 Y150.078 E0.29549
G1 X113.036 Y150.344 E0.01925
G1 X112.751 Y150.424 E0.00929
G1 X112.463 Y150.643 E0.01133
G1 X111.882 Y150.921 E0.02022
G1 X111.043 Y151.138 E0.02718
G1 X105.284 Y151.170 E0.18055
G1 X104.263 Y150.959 E0.03268
G1 X103.590 Y150.650 E0.02324
G1 X103.472 Y150.570 E0.00447
G1 X103.300 Y150.558 E0.00540
G1 X102.604 Y150.408 E0.02232
G1 X101.885 Y150.075 E0.02485
G1 X90.497 Y150.070 E0.35709
G1 X90.337 Y150.084 E0.00504
G1 X88.490 Y150.025 E0.05794
G1 X87.670 Y149.769 E0.02691
G1 X86.954 Y149.365 E0.02581
G1 X85.412 Y147.882 E0.06708
G1 X84.881 Y147.023 E0.03164
G1 X84.628 Y146.042 E0.03175
G1 X84.633 Y145.187 E0.02682
G1 X84.747 Y144.586 E0.01917
G1 X84.744 Y135.774 E0.27629
G1 X84.431 Y135.434 E0.01448
G1 X84.039 Y134.744 E0.02488
G1 X83.646 Y134.263 E0.01948
G1 X83.271 Y133.470 E0.02750
G1 X83.079 Y132.592 E0.02820
G1 X83.069 Y125.848 E0.21145
G1 X83.195 Y125.060 E0.02501
G1 X83.858 Y123.746 E0.04614
G1 X84.744 Y122.826 E0.04005
G1 X84.756 Y102.513 E0.63689
G1 X84.750 Y102.023 E0.01537
G1 X84.516 Y101.774 E0.01071
G1 X84.025 Y101.002 E0.02868
G1 X83.714 Y100.043 E0.03160
G1 X83.676 Y99.556 E0.01531
G1 X83.608 Y99.447 E0.00407
G1 X83.155 Y98.354 E0.03708
G1 X83.069 Y97.696 E0.02081
G1 X83.094 Y93.027 E0.14641
G1 X83.234 Y92.493 E0.01730
G1 X83.308 Y92.055 E0.01391
G1 X83.554 Y91.402 E0.02190
G1 X83.770 Y91.047 E0.01302
