; generated by PrusaSlicer 2.3.0-beta3+win64 on 2022-03-27 at 03:51:28 UTC

; 

; external perimeters extrusion width = 0.45mm
; perimeters extrusion width = 0.45mm
; infill extrusion width = 0.45mm
; solid infill extrusion width = 0.45mm
; top infill extrusion width = 0.40mm
; support material extrusion width = 0.38mm
; first layer extrusion width = 0.42mm

M201 X500 Y500 Z100 E5000 ; sets maximum accelerations, mm/sec^2
M203 X500 Y500 Z10 E60 ; sets maximum feedrates, mm/sec
M204 P500 R1000 T500 ; sets acceleration (P, T) and retract acceleration (R), mm/sec^2
M205 X8.00 Y8.00 Z0.40 E5.00 ; sets the jerk limits, mm/sec
M205 S0 T0 ; sets the minimum extruding and travel feed rate, mm/sec
M107
;TYPE:Custom
G90 ; use absolute coordinates
M83 ; extruder relative mode
M104 S210 ; set extruder temp
M140 S55 ; set bed temp
M190 S55 ; wait for bed temp
M109 S210 ; wait for extruder temp
G28 ; home all
G1 Z2 F240
G1 X2 Y10 F3000
G1 Z0.28 F240
G92 E0
G1 Y190 E15 F1500 ; intro line
G1 X2.3 F5000
G92 E0
G1 Y10 E15 F1200 ; intro line
G92 E0
G21 ; set units to millimeters
G90 ; use absolute coordinates
M83 ; use relative distances for extrusion
; Filament gcode
;LAYER_CHANGE
;Z:0.2
;HEIGHT:0.2
;BEFORE_LAYER_CHANGE
G92 E0
;0.2


G1 E-5.00000 F3600.000
G1 Z0.200 F9000.000
;AFTER_LAYER_CHANGE
;0.2
G1 X84.112 Y84.442
G1 E5.00000 F2400.000
;TYPE:Skirt
;WIDTH:0.42
G1 F1200.000
G1 X84.923 Y83.664 E0.03525
G1 X85.924 Y83.086 E0.03626
G1 X86.996 Y82.790 E0.03486
G1 X88.135 Y82.736 E0.03576
G1 X147.223 Y82.736 E1.85264
G1 X149.068 Y82.814 E0.05791
G1 X149.916 Y83.078 E0.02784
G1 X150.865 Y83.590 E0.03380
G1 X151.647 Y84.280 E0.03271
G1 X152.238 Y85.010 E0.02945
G1 X152.959 Y87.126 E0.07009
G1 X152.959 Y149.044 E1.94138
G1 X152.626 Y150.361 E0.04259
G1 X151.888 Y151.558 E0.04409
G1 X151.077 Y152.336 E0.03525
G1 X150.076 Y152.914 E0.03626
G1 X149.004 Y153.210 E0.03486
G1 X147.865 Y153.264 E0.03576
G1 X87.475 Y153.264 E1.89346
G1 X85.993 Y152.884 E0.04799
G1 X84.666 Y152.037 E0.04936
G1 X84.092 Y151.423 E0.02635
G1 X83.657 Y150.814 E0.02346
G1 X83.041 Y148.857 E0.06432
G1 X83.041 Y86.956 E1.94086
G1 X83.374 Y85.639 E0.04259
G1 X84.080 Y84.493 E0.04221
G1 X84.390 Y84.698 F9000.000
G1 F1200.000
G1 X85.167 Y83.953 E0.03377
G1 X86.090 Y83.426 E0.03332
G1 X87.071 Y83.160 E0.03188
G1 X88.149 Y83.113 E0.03384
G1 X147.219 Y83.113 E1.85210
G1 X148.981 Y83.182 E0.05529
G1 X149.755 Y83.419 E0.02538
G1 X150.632 Y83.887 E0.03116
G1 X151.385 Y84.552 E0.03150
G1 X151.924 Y85.220 E0.02691
G1 X152.581 Y87.157 E0.06413
G1 X152.581 Y149.020 E1.93966
G1 X152.269 Y150.239 E0.03946
G1 X151.610 Y151.302 E0.03920
G1 X150.833 Y152.047 E0.03377
G1 X149.910 Y152.574 E0.03332
G1 X148.929 Y152.840 E0.03188
G1 X147.851 Y152.887 E0.03384
G1 X87.500 Y152.887 E1.89226
G1 X86.117 Y152.527 E0.04480
G1 X84.926 Y151.762 E0.04440
G1 X84.376 Y151.175 E0.02522
G1 X83.982 Y150.620 E0.02134
G1 X83.419 Y148.829 E0.05888
G1 X83.419 Y86.980 E1.93920
G1 X83.731 Y85.761 E0.03946
G1 X84.358 Y84.749 E0.03732
G1 X84.670 Y84.952 F9000.000
G1 F1200.000
G1 X85.375 Y84.268 E0.03079
G1 X86.255 Y83.766 E0.03177
G1 X87.145 Y83.531 E0.02887
G1 X87.943 Y83.512 E0.02503
G1 X88.159 Y83.490 E0.00682
G1 X147.216 Y83.490 E1.85169
G1 X148.896 Y83.550 E0.05271
G1 X149.596 Y83.762 E0.02293
G1 X150.400 Y84.185 E0.02848
G1 X151.123 Y84.824 E0.03026
G1 X151.609 Y85.430 E0.02435
G1 X152.204 Y87.188 E0.05820
G1 X152.204 Y148.996 E1.93796
G1 X151.932 Y150.066 E0.03463
G1 X151.330 Y151.048 E0.03611
G1 X150.625 Y151.732 E0.03079
G1 X149.745 Y152.234 E0.03177
G1 X148.855 Y152.469 E0.02887
G1 X148.057 Y152.488 E0.02503
G1 X147.841 Y152.510 E0.00682
G1 X87.523 Y152.510 E1.89121
G1 X86.294 Y152.193 E0.03981
G1 X85.185 Y151.487 E0.04123
G1 X84.660 Y150.927 E0.02406
G1 X84.306 Y150.426 E0.01921
G1 X83.796 Y148.800 E0.05346
G1 X83.796 Y87.004 E1.93757
G1 X84.068 Y85.934 E0.03463
G1 X84.638 Y85.003 E0.03422
G1 X84.949 Y85.206 F9000.000
G1 F1200.000
G1 X85.619 Y84.556 E0.02928
G1 X86.417 Y84.107 E0.02871
G1 X87.216 Y83.901 E0.02586
G1 X87.966 Y83.889 E0.02352
G1 X88.170 Y83.867 E0.00643
G1 X147.213 Y83.867 E1.85127
G1 X148.813 Y83.919 E0.05017
G1 X149.439 Y84.105 E0.02049
G1 X150.168 Y84.483 E0.02575
G1 X150.861 Y85.095 E0.02899
G1 X151.293 Y85.639 E0.02176
G1 X151.827 Y87.219 E0.05230
G1 X151.827 Y148.972 E1.93623
G1 X151.574 Y149.944 E0.03149
G1 X151.051 Y150.794 E0.03130
G1 X150.381 Y151.444 E0.02928
G1 X149.583 Y151.893 E0.02871
G1 X148.784 Y152.099 E0.02586
G1 X148.034 Y152.111 E0.02352
G1 X147.830 Y152.133 E0.00643
G1 X87.548 Y152.133 E1.89010
G1 X86.419 Y151.836 E0.03661
G1 X85.444 Y151.212 E0.03629
G1 X84.945 Y150.679 E0.02290
G1 X84.632 Y150.234 E0.01706
G1 X84.173 Y148.771 E0.04806
G1 X84.173 Y87.028 E1.93590
G1 X84.426 Y86.056 E0.03149
G1 X84.917 Y85.257 E0.02942
G1 X85.229 Y85.459 F9000.000
G1 F1200.000
G1 X85.827 Y84.872 E0.02625
G1 X86.579 Y84.448 E0.02709
G1 X87.284 Y84.273 E0.02278
G1 X87.989 Y84.266 E0.02209
G1 X88.181 Y84.244 E0.00606
G1 X147.211 Y84.244 E1.85085
G1 X148.731 Y84.287 E0.04767
G1 X149.284 Y84.449 E0.01808
G1 X149.937 Y84.782 E0.02296
G1 X150.598 Y85.366 E0.02768
G1 X150.977 Y85.846 E0.01915
G1 X151.450 Y87.249 E0.04643
G1 X151.450 Y148.946 E1.93447
G1 X151.218 Y149.819 E0.02831
G1 X150.771 Y150.541 E0.02663
G1 X150.173 Y151.128 E0.02625
G1 X149.421 Y151.552 E0.02709
G1 X148.716 Y151.727 E0.02278
G1 X148.011 Y151.734 E0.02209
G1 X147.819 Y151.756 E0.00606
G1 X87.572 Y151.756 E1.88901
G1 X86.595 Y151.502 E0.03164
G1 X85.703 Y150.937 E0.03312
G1 X85.230 Y150.431 E0.02171
G1 X84.958 Y150.042 E0.01490
G1 X84.550 Y148.742 E0.04270
G1 X84.550 Y87.053 E1.93421
G1 X84.782 Y86.181 E0.02831
G1 X85.198 Y85.510 E0.02475
G1 X85.510 Y85.712 F9000.000
G1 F1200.000
G1 X86.072 Y85.160 E0.02473
G1 X86.738 Y84.791 E0.02386
G1 X87.349 Y84.645 E0.01971
G1 X88.012 Y84.643 E0.02078
G1 X88.193 Y84.621 E0.00571
G1 X147.209 Y84.621 E1.85042
G1 X148.651 Y84.657 E0.04522
G1 X149.132 Y84.795 E0.01570
G1 X149.706 Y85.082 E0.02011
G1 X150.336 Y85.637 E0.02632
G1 X150.659 Y86.052 E0.01651
G1 X151.073 Y87.280 E0.04062
G1 X151.073 Y148.921 E1.93270
G1 X150.862 Y149.692 E0.02508
G1 X150.490 Y150.288 E0.02200
G1 X149.928 Y150.840 E0.02473
G1 X149.262 Y151.209 E0.02386
G1 X148.651 Y151.355 E0.01971
G1 X147.988 Y151.357 E0.02078
G1 X147.807 Y151.379 E0.00571
G1 X87.597 Y151.379 E1.88784
G1 X86.721 Y151.145 E0.02843
G1 X85.962 Y150.662 E0.02822
G1 X85.515 Y150.184 E0.02052
G1 X85.284 Y149.851 E0.01271
G1 X84.927 Y148.714 E0.03737
G1 X84.927 Y87.079 E1.93250
G1 X85.138 Y86.308 E0.02508
G1 X85.478 Y85.763 E0.02012
G1 X85.791 Y85.964 F9000.000
G1 F1200.000
G1 X86.279 Y85.476 E0.02161
G1 X86.897 Y85.135 E0.02214
G1 X87.410 Y85.017 E0.01653
G1 X88.035 Y85.020 E0.01959
G1 X88.206 Y84.998 E0.00538
G1 X147.208 Y84.998 E1.84997
G1 X148.573 Y85.026 E0.04282
G1 X148.984 Y85.141 E0.01337
G1 X149.476 Y85.382 E0.01718
G1 X150.072 Y85.908 E0.02491
G1 X150.341 Y86.257 E0.01383
G1 X150.696 Y87.311 E0.03485
G1 X150.696 Y148.894 E1.93090
G1 X150.507 Y149.562 E0.02179
G1 X150.209 Y150.036 E0.01755
G1 X149.721 Y150.524 E0.02161
G1 X149.103 Y150.865 E0.02214
G1 X148.590 Y150.983 E0.01653
G1 X147.965 Y150.980 E0.01959
G1 X147.794 Y151.002 E0.00538
G1 X87.623 Y151.002 E1.88663
G1 X86.849 Y150.789 E0.02516
G1 X86.221 Y150.387 E0.02338
G1 X85.800 Y149.937 E0.01933
G1 X85.611 Y149.661 E0.01049
G1 X85.304 Y148.685 E0.03209
G1 X85.304 Y87.106 E1.93075
G1 X85.493 Y86.438 E0.02179
G1 X85.759 Y86.014 E0.01567
G1 X86.072 Y86.216 F9000.000
G1 F1200.000
G1 X86.525 Y85.763 E0.02008
G1 X87.050 Y85.480 E0.01870
G1 X87.467 Y85.391 E0.01337
G1 X88.060 Y85.398 E0.01858
G1 X88.220 Y85.375 E0.00507
G1 X147.206 Y85.375 E1.84949
G1 X148.497 Y85.396 E0.04048
G1 X148.839 Y85.490 E0.01112
G1 X149.248 Y85.683 E0.01416
G1 X149.808 Y86.177 E0.02343
G1 X150.022 Y86.460 E0.01112
G1 X150.319 Y87.341 E0.02916
G1 X150.319 Y148.866 E1.92905
G1 X150.153 Y149.429 E0.01842
G1 X149.928 Y149.784 E0.01318
G1 X149.475 Y150.237 E0.02008
G1 X148.950 Y150.520 E0.01870
G1 X148.533 Y150.609 E0.01337
G1 X147.940 Y150.602 E0.01858
G1 X147.780 Y150.625 E0.00507
G1 X87.650 Y150.625 E1.88535
G1 X86.980 Y150.435 E0.02184
G1 X86.481 Y150.113 E0.01862
G1 X86.086 Y149.691 E0.01813
G1 X85.939 Y149.473 E0.00824
G1 X85.681 Y148.656 E0.02686
G1 X85.681 Y87.134 E1.92897
G1 X85.847 Y86.571 E0.01842
G1 X86.040 Y86.267 E0.01130
G1 X86.353 Y86.469 F9000.000
G1 F1200.000
G1 X86.770 Y86.051 E0.01852
G1 X87.200 Y85.827 E0.01518
G1 X87.482 Y85.768 E0.00906
G1 X88.087 Y85.775 E0.01897
G1 X88.235 Y85.752 E0.00469
G1 X147.206 Y85.752 E1.84898
G1 X148.424 Y85.767 E0.03821
G1 X148.694 Y85.839 E0.00876
G1 X149.061 Y86.012 E0.01271
G1 X149.541 Y86.444 E0.02024
G1 X149.702 Y86.660 E0.00847
G1 X149.942 Y87.372 E0.02355
G1 X149.942 Y148.836 E1.92716
G1 X149.801 Y149.292 E0.01496
G1 X149.647 Y149.531 E0.00892
G1 X149.230 Y149.949 E0.01852
G1 X148.800 Y150.173 E0.01518
G1 X148.518 Y150.232 E0.00906
G1 X147.913 Y150.225 E0.01897
G1 X147.765 Y150.248 E0.00469
G1 X87.678 Y150.248 E1.88398
G1 X87.114 Y150.081 E0.01844
G1 X86.741 Y149.839 E0.01395
G1 X86.372 Y149.445 E0.01691
G1 X86.267 Y149.287 E0.00595
G1 X86.058 Y148.627 E0.02172
G1 X86.058 Y87.164 E1.92713
G1 X86.199 Y86.708 E0.01496
G1 X86.320 Y86.519 E0.00704
G1 X86.632 Y86.723 F9000.000
G1 F1200.000
G1 X87.014 Y86.340 E0.01696
G1 X87.343 Y86.176 E0.01153
G1 X87.497 Y86.145 E0.00491
G1 X88.119 Y86.153 E0.01950
G1 X88.253 Y86.130 E0.00426
G1 X148.355 Y86.138 E1.88446
G1 X148.551 Y86.188 E0.00632
G1 X148.873 Y86.340 E0.01117
G1 X149.270 Y86.706 E0.01694
G1 X149.380 Y86.858 E0.00588
G1 X149.565 Y87.403 E0.01805
G1 X149.565 Y148.804 E1.92519
G1 X149.452 Y149.149 E0.01136
G1 X149.367 Y149.278 E0.00484
G1 X148.986 Y149.660 E0.01692
G1 X148.657 Y149.824 E0.01153
G1 X148.503 Y149.855 E0.00491
G1 X147.881 Y149.847 E0.01950
G1 X147.747 Y149.870 E0.00426
G1 X87.708 Y149.870 E1.88249
G1 X87.252 Y149.730 E0.01495
G1 X87.001 Y149.565 E0.00941
G1 X86.660 Y149.201 E0.01565
G1 X86.598 Y149.104 E0.00360
G1 X86.435 Y148.597 E0.01670
G1 X86.435 Y87.196 E1.92520
G1 X86.548 Y86.851 E0.01136
G1 X86.599 Y86.773 E0.00293
G1 X86.909 Y86.980 F9000.000
G1 F1200.000
G1 X87.256 Y86.632 E0.01540
G1 X87.478 Y86.529 E0.00769
G1 X88.157 Y86.530 E0.02128
G1 X88.274 Y86.507 E0.00376
G1 X148.292 Y86.510 E1.88180
G1 X148.409 Y86.538 E0.00378
G1 X148.683 Y86.667 E0.00949
G1 X148.994 Y86.964 E0.01349
G1 X149.056 Y87.052 E0.00338
G1 X149.188 Y87.435 E0.01270
G1 X149.188 Y148.769 E1.92309
G1 X149.088 Y149.024 E0.00856
G1 X148.744 Y149.368 E0.01526
G1 X148.490 Y149.477 E0.00869
G1 X147.843 Y149.470 E0.02026
G1 X147.726 Y149.493 E0.00376
G1 X87.739 Y149.493 E1.88084
G1 X87.396 Y149.381 E0.01134
G1 X87.262 Y149.292 E0.00503
G1 X86.950 Y148.959 E0.01430
G1 X86.812 Y148.566 E0.01305
G1 X86.812 Y87.231 E1.92313
G1 X86.883 Y87.034 E0.00656
G1 X87.218 Y87.203 F9000.000
G1 F1200.000
G1 X87.492 Y86.929 E0.01216
G1 X87.563 Y86.900 E0.00239
G1 X88.205 Y86.908 E0.02015
G1 X88.302 Y86.884 E0.00312
G1 X89.158 Y86.884 E0.02685
G1 X89.266 Y86.909 E0.00348
G1 X89.374 Y86.884 E0.00348
G1 X90.232 Y86.884 E0.02689
G1 X90.340 Y86.909 E0.00348
G1 X90.449 Y86.884 E0.00348
G1 X91.306 Y86.884 E0.02689
G1 X91.415 Y86.909 E0.00348
G1 X91.523 Y86.884 E0.00348
G1 X92.381 Y86.884 E0.02689
G1 X92.489 Y86.909 E0.00348
G1 X92.597 Y86.884 E0.00348
G1 X93.455 Y86.884 E0.02689
G1 X93.563 Y86.909 E0.00348
G1 X93.671 Y86.884 E0.00348
G1 X94.529 Y86.884 E0.02689
G1 X94.637 Y86.909 E0.00348
G1 X94.745 Y86.884 E0.00348
G1 X95.603 Y86.884 E0.02689
G1 X95.711 Y86.909 E0.00348
G1 X95.819 Y86.884 E0.00348
G1 X96.677 Y86.884 E0.02689
G1 X96.785 Y86.909 E0.00348
G1 X96.894 Y86.884 E0.00348
G1 X97.751 Y86.884 E0.02689
G1 X97.860 Y86.909 E0.00348
G1 X97.968 Y86.884 E0.00348
G1 X98.825 Y86.884 E0.02689
G1 X98.934 Y86.909 E0.00348
G1 X99.042 Y86.884 E0.00348
G1 X99.900 Y86.884 E0.02689
G1 X100.008 Y86.909 E0.00348
G1 X100.116 Y86.884 E0.00348
G1 X100.974 Y86.884 E0.02689
G1 X101.082 Y86.909 E0.00348
G1 X101.190 Y86.884 E0.00348
G1 X102.048 Y86.884 E0.02689
G1 X102.156 Y86.909 E0.00348
G1 X102.264 Y86.884 E0.00348
G1 X103.122 Y86.884 E0.02689
G1 X103.230 Y86.909 E0.00348
G1 X103.339 Y86.884 E0.00348
G1 X104.196 Y86.884 E0.02689
G1 X104.304 Y86.909 E0.00348
G1 X104.413 Y86.884 E0.00348
G1 X105.270 Y86.884 E0.02689
G1 X105.379 Y86.909 E0.00348
G1 X105.487 Y86.884 E0.00348
G1 X106.345 Y86.884 E0.02689
G1 X106.453 Y86.909 E0.00348
G1 X106.561 Y86.884 E0.00348
G1 X107.419 Y86.884 E0.02689
G1 X107.527 Y86.909 E0.00348
G1 X107.635 Y86.884 E0.00348
G1 X108.493 Y86.884 E0.02689
G1 X108.601 Y86.909 E0.00348
G1 X108.709 Y86.884 E0.00348
G1 X109.567 Y86.884 E0.02689
G1 X109.675 Y86.909 E0.00348
G1 X109.783 Y86.884 E0.00348
G1 X110.641 Y86.884 E0.02689
G1 X110.749 Y86.909 E0.00348
G1 X110.858 Y86.884 E0.00348
G1 X111.715 Y86.884 E0.02689
G1 X111.824 Y86.909 E0.00348
G1 X111.932 Y86.884 E0.00348
G1 X112.790 Y86.884 E0.02689
G1 X112.898 Y86.909 E0.00348
G1 X113.006 Y86.884 E0.00348
G1 X113.864 Y86.884 E0.02689
G1 X113.972 Y86.909 E0.00348
G1 X114.080 Y86.884 E0.00348
G1 X114.938 Y86.884 E0.02689
G1 X115.046 Y86.909 E0.00348
G1 X115.154 Y86.884 E0.00348
G1 X116.012 Y86.884 E0.02689
G1 X116.120 Y86.909 E0.00348
G1 X116.228 Y86.884 E0.00348
G1 X117.086 Y86.884 E0.02689
G1 X117.194 Y86.909 E0.00348
G1 X117.303 Y86.884 E0.00348
G1 X118.160 Y86.884 E0.02689
G1 X118.269 Y86.909 E0.00348
G1 X118.377 Y86.884 E0.00348
G1 X119.234 Y86.884 E0.02689
G1 X119.343 Y86.909 E0.00348
G1 X119.451 Y86.884 E0.00348
G1 X120.309 Y86.884 E0.02689
G1 X120.417 Y86.909 E0.00348
G1 X120.525 Y86.884 E0.00348
G1 X121.383 Y86.884 E0.02689
G1 X121.491 Y86.909 E0.00348
G1 X121.599 Y86.884 E0.00348
G1 X122.457 Y86.884 E0.02689
G1 X122.565 Y86.909 E0.00348
G1 X122.673 Y86.884 E0.00348
G1 X123.531 Y86.884 E0.02689
G1 X123.639 Y86.909 E0.00348
G1 X123.748 Y86.884 E0.00348
G1 X124.605 Y86.884 E0.02689
G1 X124.713 Y86.909 E0.00348
G1 X124.822 Y86.884 E0.00348
G1 X125.679 Y86.884 E0.02689
G1 X125.788 Y86.909 E0.00348
G1 X125.896 Y86.884 E0.00348
G1 X126.754 Y86.884 E0.02689
G1 X126.862 Y86.909 E0.00348
G1 X126.970 Y86.884 E0.00348
G1 X127.828 Y86.884 E0.02689
G1 X127.936 Y86.909 E0.00348
G1 X128.044 Y86.884 E0.00348
G1 X128.902 Y86.884 E0.02689
G1 X129.010 Y86.909 E0.00348
G1 X129.118 Y86.884 E0.00348
G1 X129.976 Y86.884 E0.02689
G1 X130.084 Y86.909 E0.00348
G1 X130.192 Y86.884 E0.00348
G1 X131.050 Y86.884 E0.02689
G1 X131.158 Y86.909 E0.00348
G1 X131.267 Y86.884 E0.00348
G1 X132.124 Y86.884 E0.02689
G1 X132.233 Y86.909 E0.00348
G1 X132.341 Y86.884 E0.00348
G1 X133.199 Y86.884 E0.02689
G1 X133.307 Y86.909 E0.00348
G1 X133.415 Y86.884 E0.00348
G1 X134.273 Y86.884 E0.02689
G1 X134.381 Y86.909 E0.00348
G1 X134.489 Y86.884 E0.00348
G1 X135.347 Y86.884 E0.02689
G1 X135.455 Y86.909 E0.00348
G1 X135.563 Y86.884 E0.00348
G1 X136.421 Y86.884 E0.02689
G1 X136.529 Y86.909 E0.00348
G1 X136.637 Y86.884 E0.00348
G1 X137.495 Y86.884 E0.02689
G1 X137.603 Y86.909 E0.00348
G1 X137.712 Y86.884 E0.00348
G1 X138.569 Y86.884 E0.02689
G1 X138.678 Y86.909 E0.00348
G1 X138.786 Y86.884 E0.00348
G1 X139.643 Y86.884 E0.02689
G1 X139.752 Y86.909 E0.00348
G1 X139.860 Y86.884 E0.00348
G1 X140.718 Y86.884 E0.02689
G1 X140.826 Y86.909 E0.00348
G1 X140.934 Y86.884 E0.00348
G1 X141.792 Y86.884 E0.02689
G1 X141.900 Y86.909 E0.00348
G1 X142.008 Y86.884 E0.00348
G1 X142.866 Y86.884 E0.02689
G1 X142.974 Y86.909 E0.00348
G1 X143.082 Y86.884 E0.00348
G1 X143.940 Y86.884 E0.02689
G1 X144.048 Y86.909 E0.00348
G1 X144.157 Y86.884 E0.00348
G1 X145.014 Y86.884 E0.02689
G1 X145.122 Y86.909 E0.00348
G1 X145.231 Y86.884 E0.00348
G1 X146.088 Y86.884 E0.02689
G1 X146.197 Y86.909 E0.00348
G1 X146.305 Y86.884 E0.00348
G1 X147.163 Y86.884 E0.02689
G1 X147.271 Y86.909 E0.00348
G1 X147.379 Y86.884 E0.00348
G1 X148.240 Y86.884 E0.02699
G1 X148.490 Y86.993 E0.00856
G1 X148.711 Y87.214 E0.00980
G1 X148.811 Y87.469 E0.00856
G1 X148.811 Y148.727 E1.92072
G1 X148.782 Y148.797 E0.00235
G1 X148.508 Y149.071 E0.01216
G1 X148.437 Y149.100 E0.00239
G1 X147.795 Y149.092 E0.02015
G1 X147.698 Y149.116 E0.00312
G1 X146.842 Y149.116 E0.02685
G1 X146.734 Y149.091 E0.00348
