; generated by PrusaSlicer 2.3.0-beta3+win64 on 2022-04-20 at 03:51:03 UTC

; 

; external perimeters extrusion width = 0.35mm
; perimeters extrusion width = 0.40mm
; infill extrusion width = 0.45mm
; solid infill extrusion width = 0.45mm
; top infill extrusion width = 0.40mm
; support material extrusion width = 0.38mm
; first layer extrusion width = 0.45mm

M201 X500 Y500 Z100 E5000 ; sets maximum accelerations, mm/sec^2
M203 X500 Y500 Z10 E60 ; sets maximum feedrates, mm/sec
M204 P500 R1000 T500 ; sets acceleration (P, T) and retract acceleration (R), mm/sec^2
M205 X8.00 Y8.00 Z0.40 E5.00 ; sets the jerk limits, mm/sec
M205 S0 T0 ; sets the minimum extruding and travel feed rate, mm/sec
M107
;TYPE:Custom
G90 ; use absolute coordinates
M83 ; extruder relative mode
M104 S210 ; set extruder temp
M140 S60 ; set bed temp
M190 S60 ; wait for bed temp
M109 S210 ; wait for extruder temp
G28 ; home all
G1 Z2 F240
G1 X2 Y10 F3000
G1 Z0.28 F240
G92 E0
G1 Y190 E15 F1500 ; intro line
G1 X2.3 F5000
G92 E0
G1 Y10 E15 F1200 ; intro line
G92 E0
G21 ; set units to millimeters
G90 ; use absolute coordinates
M83 ; use relative distances for extrusion
; Filament gcode
;LAYER_CHANGE
;Z:0.2
;HEIGHT:0.2
;BEFORE_LAYER_CHANGE
G92 E0
;0.2


G1 E-5.00000 F3600.000
G1 Z0.200 F9000.000
;AFTER_LAYER_CHANGE
;0.2
G1 X81.740 Y81.740
G1 E5.00000 F2400.000
;TYPE:Skirt
;WIDTH:0.45
G1 F900.000
G1 X82.014 Y81.466 E0.01311
G1 X82.798 Y80.878 E0.03319
G1 X84.180 Y80.270 E0.05110
G1 X85.805 Y79.927 E0.05621
G1 X150.231 Y79.932 E2.18076
G1 X152.014 Y80.379 E0.06220
G1 X153.525 Y81.315 E0.06017
G1 X156.523 Y84.378 E0.14507
G1 X157.190 Y85.578 E0.04650
G1 X157.542 Y87.051 E0.05124
G1 X157.536 Y88.151 E0.03724
G1 X157.413 Y88.870 E0.02470
G1 X157.404 Y91.234 E0.07999
G1 X157.417 Y91.408 E0.00593
G1 X157.404 Y145.514 E1.83141
G1 X157.418 Y145.706 E0.00652
G1 X157.404 Y147.305 E0.05413
G1 X157.419 Y149.024 E0.05818
G1 X156.931 Y150.878 E0.06490
G1 X155.890 Y152.620 E0.06866
G1 X153.447 Y154.958 E0.11449
G1 X151.901 Y155.708 E0.05816
G1 X150.121 Y156.081 E0.06156
G1 X148.434 Y156.067 E0.05709
G1 X146.712 Y156.080 E0.05829
G1 X130.493 Y156.067 E0.54900
G1 X130.315 Y156.080 E0.00605
G1 X90.925 Y156.067 E1.33328
G1 X89.158 Y156.080 E0.05982
G1 X87.576 Y156.067 E0.05357
G1 X85.854 Y156.081 E0.05827
G1 X84.045 Y155.645 E0.06299
G1 X82.492 Y154.693 E0.06167
G1 X79.478 Y151.623 E0.14561
G1 X78.810 Y150.422 E0.04655
G1 X78.458 Y148.949 E0.05125
G1 X78.464 Y147.849 E0.03724
G1 X78.587 Y147.130 E0.02470
G1 X78.596 Y144.623 E0.08486
G1 X78.582 Y129.849 E0.50006
G1 X78.595 Y129.669 E0.00612
G1 X78.583 Y123.266 E0.21672
G1 X78.596 Y123.085 E0.00614
G1 X78.595 Y88.577 E1.16806
G1 X78.581 Y86.974 E0.05428
G1 X79.095 Y85.064 E0.06695
G1 X80.138 Y83.342 E0.06813
G1 X81.697 Y81.782 E0.07466
G1 X81.985 Y82.070 F9000.000
G1 F900.000
G1 X82.291 Y81.764 E0.01464
G1 X83.023 Y81.218 E0.03091
G1 X84.285 Y80.663 E0.04668
G1 X85.826 Y80.334 E0.05334
G1 X150.207 Y80.339 E2.17919
G1 X151.828 Y80.743 E0.05654
G1 X153.252 Y81.618 E0.05660
G1 X156.182 Y84.602 E0.14153
G1 X156.802 Y85.703 E0.04277
G1 X157.135 Y87.074 E0.04776
G1 X157.129 Y88.131 E0.03579
G1 X157.006 Y88.834 E0.02414
G1 X156.997 Y91.249 E0.08174
G1 X157.010 Y91.416 E0.00569
G1 X156.997 Y145.529 E1.83165
G1 X157.010 Y145.711 E0.00618
G1 X156.997 Y147.305 E0.05396
G1 X157.011 Y149.000 E0.05738
G1 X156.566 Y150.695 E0.05932
G1 X155.588 Y152.346 E0.06493
G1 X153.238 Y154.607 E0.11037
G1 X151.791 Y155.316 E0.05455
G1 X150.102 Y155.674 E0.05846
G1 X148.434 Y155.660 E0.05645
G1 X146.711 Y155.673 E0.05831
G1 X130.477 Y155.660 E0.54951
G1 X130.307 Y155.673 E0.00579
G1 X90.924 Y155.660 E1.33306
G1 X89.157 Y155.673 E0.05982
G1 X87.576 Y155.660 E0.05352
G1 X85.875 Y155.674 E0.05756
G1 X84.229 Y155.281 E0.05730
G1 X82.764 Y154.389 E0.05805
G1 X79.819 Y151.399 E0.14204
G1 X79.198 Y150.297 E0.04281
G1 X78.865 Y148.926 E0.04777
G1 X78.871 Y147.869 E0.03579
G1 X78.994 Y147.166 E0.02415
G1 X79.003 Y144.623 E0.08607
G1 X78.990 Y129.857 E0.49982
G1 X79.003 Y129.684 E0.00587
G1 X78.990 Y123.274 E0.21698
G1 X79.003 Y123.101 E0.00586
G1 X79.002 Y88.575 E1.16866
G1 X78.989 Y86.998 E0.05340
G1 X79.459 Y85.249 E0.06130
G1 X80.443 Y83.612 E0.06466
G1 X81.943 Y82.112 E0.07177
G1 X82.231 Y82.400 F9000.000
G1 F900.000
G1 X82.568 Y82.063 E0.01616
G1 X83.247 Y81.558 E0.02862
G1 X84.392 Y81.057 E0.04231
G1 X85.848 Y80.741 E0.05046
G1 X150.181 Y80.746 E2.17758
G1 X151.697 Y81.129 E0.05293
G1 X152.979 Y81.921 E0.05101
G1 X155.842 Y84.827 E0.13807
G1 X156.414 Y85.829 E0.03904
G1 X156.728 Y87.097 E0.04423
G1 X156.722 Y88.111 E0.03432
G1 X156.599 Y88.797 E0.02358
G1 X156.590 Y91.265 E0.08355
G1 X156.603 Y91.425 E0.00544
G1 X156.590 Y145.545 E1.83191
G1 X156.603 Y145.717 E0.00583
G1 X156.590 Y147.305 E0.05377
G1 X156.604 Y148.977 E0.05659
G1 X156.200 Y150.514 E0.05378
G1 X155.285 Y152.073 E0.06121
G1 X153.029 Y154.256 E0.10625
G1 X151.680 Y154.923 E0.05094
G1 X150.082 Y155.267 E0.05532
G1 X148.434 Y155.253 E0.05579
G1 X146.711 Y155.266 E0.05834
G1 X130.460 Y155.253 E0.55005
G1 X130.298 Y155.266 E0.00551
G1 X90.922 Y155.253 E1.33282
G1 X89.155 Y155.266 E0.05982
G1 X87.576 Y155.253 E0.05347
G1 X85.897 Y155.267 E0.05681
G1 X84.356 Y154.893 E0.05368
G1 X83.036 Y154.086 E0.05238
G1 X80.159 Y151.174 E0.13855
G1 X79.586 Y150.171 E0.03908
G1 X79.272 Y148.903 E0.04423
G1 X79.278 Y147.889 E0.03432
G1 X79.401 Y147.203 E0.02358
G1 X79.410 Y144.624 E0.08732
G1 X79.397 Y129.865 E0.49956
G1 X79.410 Y129.700 E0.00560
G1 X79.397 Y123.282 E0.21726
G1 X79.410 Y123.118 E0.00556
G1 X79.409 Y88.574 E1.16928
G1 X79.396 Y87.022 E0.05253
G1 X79.823 Y85.433 E0.05569
G1 X80.749 Y83.882 E0.06116
G1 X82.188 Y82.443 E0.06888
G1 X82.476 Y82.731 F9000.000
G1 F900.000
G1 X82.845 Y82.362 E0.01767
G1 X83.470 Y81.900 E0.02631
G1 X84.499 Y81.450 E0.03800
G1 X85.871 Y81.148 E0.04755
G1 X150.156 Y81.153 E2.17598
G1 X151.511 Y81.493 E0.04729
G1 X152.707 Y82.225 E0.04747
G1 X155.503 Y85.054 E0.13463
G1 X156.026 Y85.957 E0.03531
G1 X156.320 Y87.121 E0.04064
G1 X156.315 Y88.090 E0.03280
G1 X156.192 Y88.758 E0.02299
G1 X156.183 Y91.282 E0.08542
G1 X156.196 Y91.434 E0.00517
G1 X156.183 Y145.562 E1.83218
G1 X156.196 Y145.723 E0.00546
G1 X156.183 Y147.305 E0.05356
G1 X156.197 Y148.953 E0.05579
G1 X155.835 Y150.333 E0.04829
G1 X154.980 Y151.801 E0.05750
G1 X152.819 Y153.907 E0.10214
G1 X151.568 Y154.531 E0.04732
G1 X150.063 Y154.859 E0.05215
G1 X148.434 Y154.845 E0.05512
G1 X146.710 Y154.859 E0.05836
G1 X130.443 Y154.846 E0.55063
G1 X130.289 Y154.859 E0.00522
G1 X90.921 Y154.846 E1.33257
G1 X89.154 Y154.859 E0.05982
G1 X87.576 Y154.845 E0.05342
G1 X85.919 Y154.859 E0.05609
G1 X84.540 Y154.528 E0.04801
G1 X83.307 Y153.781 E0.04879
G1 X80.497 Y150.947 E0.13509
G1 X79.974 Y150.043 E0.03535
G1 X79.680 Y148.879 E0.04065
G1 X79.685 Y147.910 E0.03281
G1 X79.808 Y147.242 E0.02299
G1 X79.817 Y144.624 E0.08860
G1 X79.804 Y129.874 E0.49929
G1 X79.817 Y129.717 E0.00532
G1 X79.804 Y123.290 E0.21754
G1 X79.817 Y123.135 E0.00526
G1 X79.804 Y88.748 E1.16399
G1 X79.817 Y88.598 E0.00509
G1 X79.803 Y87.046 E0.05252
G1 X80.187 Y85.616 E0.05011
G1 X81.055 Y84.151 E0.05765
G1 X82.434 Y82.773 E0.06597
G1 X82.722 Y83.061 F9000.000
G1 F900.000
G1 X83.122 Y82.661 E0.01917
G1 X83.692 Y82.241 E0.02397
G1 X84.607 Y81.843 E0.03376
G1 X85.894 Y81.555 E0.04463
G1 X150.130 Y81.560 E2.17433
G1 X151.380 Y81.879 E0.04367
G1 X152.435 Y82.529 E0.04194
G1 X155.166 Y85.283 E0.13129
G1 X155.640 Y86.087 E0.03159
G1 X155.913 Y87.146 E0.03699
G1 X155.908 Y88.069 E0.03125
G1 X155.785 Y88.719 E0.02239
G1 X155.776 Y91.300 E0.08737
G1 X155.789 Y91.444 E0.00488
G1 X155.776 Y145.581 E1.83248
G1 X155.789 Y145.730 E0.00507
G1 X155.775 Y147.305 E0.05332
G1 X155.789 Y148.930 E0.05500
G1 X155.468 Y150.154 E0.04284
G1 X154.675 Y151.531 E0.05378
G1 X152.607 Y153.558 E0.09803
G1 X151.454 Y154.139 E0.04369
G1 X150.043 Y154.452 E0.04894
G1 X148.435 Y154.438 E0.05444
G1 X146.710 Y154.452 E0.05839
G1 X130.424 Y154.439 E0.55125
G1 X130.279 Y154.452 E0.00491
G1 X90.919 Y154.439 E1.33229
G1 X89.152 Y154.452 E0.05981
G1 X87.576 Y154.438 E0.05337
G1 X85.941 Y154.452 E0.05534
G1 X84.667 Y154.140 E0.04438
G1 X83.578 Y153.477 E0.04317
G1 X80.835 Y150.717 E0.13172
G1 X80.360 Y149.913 E0.03162
G1 X80.087 Y148.854 E0.03699
G1 X80.092 Y147.931 E0.03125
G1 X80.215 Y147.281 E0.02239
G1 X80.225 Y144.622 E0.08999
G1 X80.211 Y143.056 E0.05301
G1 X80.225 Y134.754 E0.28101
G1 X80.211 Y133.182 E0.05321
G1 X80.224 Y131.434 E0.05917
G1 X80.211 Y129.880 E0.05261
G1 X80.224 Y129.735 E0.00491
G1 X80.211 Y123.299 E0.21786
G1 X80.224 Y123.154 E0.00493
G1 X80.211 Y88.757 E1.16430
G1 X80.224 Y88.615 E0.00483
G1 X80.211 Y87.070 E0.05229
G1 X80.552 Y85.799 E0.04457
G1 X81.362 Y84.421 E0.05410
G1 X82.679 Y83.103 E0.06305
G1 X82.967 Y83.391 F9000.000
G1 F900.000
G1 X83.398 Y82.960 E0.02065
G1 X83.914 Y82.584 E0.02160
G1 X84.716 Y82.236 E0.02960
G1 X85.917 Y81.962 E0.04169
G1 X150.105 Y81.967 E2.17270
G1 X151.195 Y82.243 E0.03806
G1 X152.164 Y82.834 E0.03843
G1 X154.830 Y85.515 E0.12798
G1 X155.254 Y86.221 E0.02787
G1 X155.506 Y87.171 E0.03327
G1 X155.501 Y88.047 E0.02966
G1 X155.378 Y88.678 E0.02177
G1 X155.369 Y91.320 E0.08940
G1 X155.382 Y91.454 E0.00457
G1 X155.369 Y145.601 E1.83280
G1 X155.382 Y145.738 E0.00466
G1 X155.368 Y147.305 E0.05306
G1 X155.382 Y148.906 E0.05420
G1 X155.101 Y149.976 E0.03743
G1 X154.369 Y151.261 E0.05007
G1 X152.393 Y153.210 E0.09394
G1 X151.339 Y153.748 E0.04005
G1 X150.022 Y154.045 E0.04568
G1 X148.435 Y154.031 E0.05374
G1 X146.709 Y154.045 E0.05841
G1 X130.404 Y154.032 E0.55192
G1 X130.269 Y154.045 E0.00458
G1 X90.918 Y154.032 E1.33199
G1 X89.151 Y154.045 E0.05981
G1 X87.576 Y154.031 E0.05332
G1 X85.962 Y154.045 E0.05461
G1 X84.850 Y153.775 E0.03872
G1 X83.849 Y153.171 E0.03960
G1 X81.170 Y150.486 E0.12839
G1 X80.746 Y149.779 E0.02789
G1 X80.494 Y148.829 E0.03327
G1 X80.499 Y147.953 E0.02966
G1 X80.622 Y147.321 E0.02177
G1 X80.632 Y144.621 E0.09139
G1 X80.618 Y143.056 E0.05299
G1 X80.632 Y134.753 E0.28105
G1 X80.618 Y133.184 E0.05311
G1 X80.631 Y131.434 E0.05923
G1 X80.618 Y129.888 E0.05233
G1 X80.631 Y129.756 E0.00450
G1 X80.618 Y123.309 E0.21820
G1 X80.631 Y123.175 E0.00458
G1 X80.618 Y88.768 E1.16464
G1 X80.631 Y88.634 E0.00456
G1 X80.618 Y87.094 E0.05210
G1 X80.918 Y85.980 E0.03907
G1 X81.669 Y84.689 E0.05053
G1 X82.925 Y83.434 E0.06012
G1 X83.212 Y83.721 F9000.000
G1 F900.000
G1 X83.674 Y83.259 E0.02212
G1 X84.134 Y82.927 E0.01920
G1 X84.826 Y82.628 E0.02552
G1 X85.940 Y82.369 E0.03872
G1 X150.079 Y82.374 E2.17100
G1 X151.063 Y82.629 E0.03441
G1 X151.893 Y83.138 E0.03297
G1 X154.497 Y85.749 E0.12480
G1 X154.870 Y86.357 E0.02416
G1 X155.099 Y87.197 E0.02946
G1 X155.094 Y88.028 E0.02814
G1 X155.014 Y88.471 E0.01521
G1 X154.971 Y88.597 E0.00451
G1 X154.962 Y91.341 E0.09290
G1 X154.975 Y91.465 E0.00422
G1 X154.961 Y112.762 E0.72088
G1 X154.975 Y114.327 E0.05297
G1 X154.962 Y145.623 E1.05931
G1 X154.975 Y145.747 E0.00422
G1 X154.961 Y147.305 E0.05276
G1 X154.975 Y148.881 E0.05336
G1 X154.717 Y149.837 E0.03352
G1 X154.519 Y150.159 E0.01280
G1 X154.060 Y150.994 E0.03225
G1 X152.178 Y152.863 E0.08979
G1 X151.222 Y153.357 E0.03641
G1 X150.002 Y153.638 E0.04238
G1 X148.435 Y153.624 E0.05303
G1 X146.709 Y153.638 E0.05844
G1 X90.917 Y153.624 E1.88849
G1 X89.150 Y153.638 E0.05981
G1 X87.576 Y153.624 E0.05328
G1 X85.985 Y153.638 E0.05385
G1 X84.979 Y153.388 E0.03508
G1 X84.119 Y152.866 E0.03405
G1 X81.504 Y150.251 E0.12518
G1 X81.130 Y149.643 E0.02418
G1 X80.901 Y148.803 E0.02946
G1 X80.906 Y147.972 E0.02814
G1 X80.986 Y147.529 E0.01521
G1 X81.029 Y147.403 E0.00451
G1 X81.039 Y144.620 E0.09419
G1 X81.025 Y143.056 E0.05297
G1 X81.039 Y134.751 E0.28108
G1 X81.025 Y133.185 E0.05302
G1 X81.038 Y131.434 E0.05928
G1 X81.025 Y129.897 E0.05201
G1 X81.038 Y129.776 E0.00413
G1 X81.025 Y128.253 E0.05157
G1 X81.038 Y128.131 E0.00413
G1 X81.025 Y126.608 E0.05157
G1 X81.038 Y124.841 E0.05978
G1 X81.025 Y90.422 E1.16507
G1 X81.038 Y88.655 E0.05981
G1 X81.025 Y87.119 E0.05200
G1 X81.284 Y86.160 E0.03362
G1 X81.976 Y84.958 E0.04694
G1 X83.170 Y83.764 E0.05716
G1 X83.458 Y84.052 F9000.000
G1 F900.000
G1 X83.950 Y83.559 E0.02357
G1 X84.353 Y83.270 E0.01678
G1 X84.923 Y83.024 E0.02103
G1 X85.299 Y82.950 E0.01295
G1 X85.435 Y82.894 E0.00501
G1 X85.962 Y82.776 E0.01826
G1 X150.005 Y82.775 E2.16778
G1 X150.879 Y82.994 E0.03051
G1 X151.623 Y83.444 E0.02943
G1 X154.165 Y85.986 E0.12167
G1 X154.487 Y86.498 E0.02047
G1 X154.691 Y87.224 E0.02554
G1 X154.687 Y88.007 E0.02650
G1 X154.618 Y88.376 E0.01271
G1 X154.564 Y88.522 E0.00525
G1 X154.554 Y91.366 E0.09626
G1 X154.568 Y91.478 E0.00382
G1 X154.554 Y97.960 E0.21942
G1 X154.568 Y99.524 E0.05295
G1 X154.554 Y112.764 E0.44815
G1 X154.568 Y114.328 E0.05294
G1 X154.554 Y144.001 E1.00440
G1 X154.567 Y144.112 E0.00378
G1 X154.554 Y145.645 E0.05189
G1 X154.567 Y145.757 E0.00381
G1 X154.554 Y147.305 E0.05240
G1 X154.567 Y148.857 E0.05254
G1 X154.355 Y149.649 E0.02775
G1 X154.166 Y149.957 E0.01222
G1 X153.750 Y150.728 E0.02966
G1 X151.960 Y152.518 E0.08566
G1 X151.103 Y152.967 E0.03277
G1 X149.980 Y153.230 E0.03903
G1 X133.631 Y153.217 E0.55339
G1 X131.906 Y153.230 E0.05841
G1 X130.358 Y153.217 E0.05241
G1 X130.249 Y153.230 E0.00369
G1 X120.488 Y153.217 E0.33040
G1 X120.380 Y153.230 E0.00371
G1 X89.236 Y153.217 E1.05416
G1 X89.128 Y153.230 E0.00369
G1 X87.576 Y153.217 E0.05255
G1 X86.007 Y153.230 E0.05311
G1 X85.161 Y153.023 E0.02946
G1 X84.388 Y152.560 E0.03050
G1 X81.835 Y150.014 E0.12203
G1 X81.513 Y149.502 E0.02048
G1 X81.309 Y148.776 E0.02554
G1 X81.313 Y147.993 E0.02650
G1 X81.382 Y147.624 E0.01271
G1 X81.436 Y147.478 E0.00525
G1 X81.446 Y144.619 E0.09677
G1 X81.432 Y143.055 E0.05295
G1 X81.446 Y134.750 E0.28112
G1 X81.432 Y133.187 E0.05292
G1 X81.446 Y131.434 E0.05934
G1 X81.432 Y129.909 E0.05163
G1 X81.446 Y129.800 E0.00369
G1 X81.432 Y128.264 E0.05202
G1 X81.446 Y128.156 E0.00369
G1 X81.432 Y126.619 E0.05202
G1 X81.446 Y126.511 E0.00369
G1 X81.432 Y124.974 E0.05202
G1 X81.446 Y124.866 E0.00369
G1 X81.432 Y123.329 E0.05202
G1 X81.446 Y123.221 E0.00369
G1 X81.432 Y121.684 E0.05202
G1 X81.446 Y121.576 E0.00369
G1 X81.432 Y120.039 E0.05202
G1 X81.446 Y119.931 E0.00369
G1 X81.432 Y118.395 E0.05202
G1 X81.446 Y118.286 E0.00369
G1 X81.432 Y116.750 E0.05202
G1 X81.446 Y116.642 E0.00369
G1 X81.433 Y87.143 E0.99850
G1 X81.645 Y86.351 E0.02775
G1 X81.835 Y86.042 E0.01227
G1 X82.285 Y85.224 E0.03161
G1 X83.415 Y84.094 E0.05409
G1 X83.703 Y84.382 F9000.000
G1 F900.000
G1 X84.226 Y83.860 E0.02500
G1 X84.571 Y83.615 E0.01431
G1 X85.024 Y83.419 E0.01671
G1 X85.424 Y83.340 E0.01380
G1 X85.549 Y83.285 E0.00464
G1 X85.987 Y83.183 E0.01520
G1 X97.324 Y83.177 E0.38376
G1 X97.421 Y83.190 E0.00332
G1 X98.969 Y83.177 E0.05239
G1 X99.066 Y83.190 E0.00332
G1 X100.614 Y83.177 E0.05239
G1 X100.711 Y83.190 E0.00332
G1 X102.258 Y83.177 E0.05239
G1 X102.356 Y83.190 E0.00332
G1 X103.903 Y83.177 E0.05239
G1 X104.000 Y83.190 E0.00332
G1 X105.548 Y83.177 E0.05239
G1 X105.645 Y83.190 E0.00332
G1 X107.193 Y83.177 E0.05239
G1 X107.290 Y83.190 E0.00332
G1 X108.838 Y83.177 E0.05239
G1 X108.935 Y83.190 E0.00332
G1 X110.483 Y83.177 E0.05239
G1 X110.580 Y83.190 E0.00332
G1 X112.128 Y83.177 E0.05239
G1 X112.225 Y83.190 E0.00332
G1 X113.772 Y83.177 E0.05239
G1 X113.870 Y83.190 E0.00332
G1 X115.417 Y83.177 E0.05239
G1 X115.514 Y83.190 E0.00332
G1 X117.062 Y83.177 E0.05239
G1 X117.159 Y83.190 E0.00332
G1 X118.707 Y83.177 E0.05239
G1 X118.804 Y83.190 E0.00332
G1 X120.352 Y83.177 E0.05239
G1 X120.449 Y83.190 E0.00332
G1 X121.997 Y83.177 E0.05239
G1 X122.094 Y83.190 E0.00332
G1 X123.641 Y83.177 E0.05239
G1 X123.739 Y83.190 E0.00332
G1 X125.286 Y83.177 E0.05239
G1 X125.383 Y83.190 E0.00332
G1 X126.931 Y83.177 E0.05239
G1 X127.028 Y83.190 E0.00332
G1 X128.576 Y83.177 E0.05239
G1 X128.673 Y83.190 E0.00332
G1 X130.221 Y83.177 E0.05239
G1 X130.318 Y83.190 E0.00332
G1 X131.866 Y83.177 E0.05239
G1 X131.963 Y83.190 E0.00332
G1 X133.511 Y83.177 E0.05239
G1 X133.608 Y83.190 E0.00332
G1 X135.155 Y83.177 E0.05239
G1 X135.253 Y83.190 E0.00332
G1 X136.800 Y83.177 E0.05239
