; generated by PrusaSlicer 2.3.0-beta3+win64 on 2022-04-10 at 01:40:37 UTC

; 

; external perimeters extrusion width = 0.45mm
; perimeters extrusion width = 0.45mm
; infill extrusion width = 0.45mm
; solid infill extrusion width = 0.45mm
; top infill extrusion width = 0.40mm
; support material extrusion width = 0.38mm
; first layer extrusion width = 0.45mm

M201 X500 Y500 Z100 E5000 ; sets maximum accelerations, mm/sec^2
M203 X500 Y500 Z10 E60 ; sets maximum feedrates, mm/sec
M204 P500 R1000 T500 ; sets acceleration (P, T) and retract acceleration (R), mm/sec^2
M205 X8.00 Y8.00 Z0.40 E5.00 ; sets the jerk limits, mm/sec
M205 S0 T0 ; sets the minimum extruding and travel feed rate, mm/sec
M107
;TYPE:Custom
G90 ; use absolute coordinates
M83 ; extruder relative mode
M104 S220 ; set extruder temp
M140 S60 ; set bed temp
M190 S60 ; wait for bed temp
M109 S220 ; wait for extruder temp
G28 ; home all
G1 Z2 F240
G1 X2 Y10 F3000
G1 Z0.28 F240
G92 E0
G1 Y190 E15 F1500 ; intro line
G1 X2.3 F5000
G92 E0
G1 Y10 E15 F1200 ; intro line
G92 E0
G21 ; set units to millimeters
G90 ; use absolute coordinates
M83 ; use relative distances for extrusion
; Filament gcode
;LAYER_CHANGE
;Z:0.2
;HEIGHT:0.2
;BEFORE_LAYER_CHANGE
G92 E0
;0.2


G1 E-5.00000 F3600.000
G1 Z0.200 F9000.000
;AFTER_LAYER_CHANGE
;0.2
G1 X85.232 Y86.090
G1 E5.00000 F2400.000
;TYPE:Skirt
;WIDTH:0.45
G1 F900.000
G1 X85.927 Y85.534 E0.03014
G1 X87.398 Y84.934 E0.05378
G1 X88.129 Y84.852 E0.02490
G1 X88.824 Y84.588 E0.02515
G1 X89.495 Y84.480 E0.02302
G1 X89.984 Y84.356 E0.01709
G1 X92.910 Y84.323 E0.09904
G1 X93.610 Y84.199 E0.02408
G1 X94.587 Y84.199 E0.03304
G1 X95.279 Y84.320 E0.02381
G1 X97.615 Y84.351 E0.07906
G1 X98.590 Y84.576 E0.03388
G1 X99.150 Y84.824 E0.02072
G1 X99.755 Y84.830 E0.02048
G1 X137.076 Y84.822 E1.26329
G1 X137.838 Y84.508 E0.02788
G1 X138.851 Y84.318 E0.03488
G1 X143.779 Y84.332 E0.16682
G1 X145.409 Y84.318 E0.05518
G1 X146.655 Y84.562 E0.04298
G1 X147.272 Y84.831 E0.02277
G1 X147.971 Y84.869 E0.02369
G1 X149.271 Y85.243 E0.04582
G1 X150.446 Y85.975 E0.04683
G1 X151.431 Y86.953 E0.04700
G1 X152.037 Y87.865 E0.03705
G1 X152.353 Y88.695 E0.03007
G1 X152.397 Y88.985 E0.00992
G1 X153.067 Y90.135 E0.04506
G1 X153.384 Y91.237 E0.03881
G1 X153.420 Y91.699 E0.01569
G1 X153.587 Y92.002 E0.01171
G1 X153.889 Y92.830 E0.02983
G1 X154.031 Y95.211 E0.08073
G1 X154.017 Y97.021 E0.06127
G1 X154.031 Y97.866 E0.02861
G1 X153.777 Y99.162 E0.04470
G1 X153.400 Y99.993 E0.03088
G1 X153.363 Y100.307 E0.01071
G1 X153.118 Y101.117 E0.02863
G1 X152.487 Y102.202 E0.04249
G1 X152.350 Y102.371 E0.00737
G1 X152.356 Y131.628 E0.99032
G1 X152.342 Y133.190 E0.05284
G1 X152.356 Y134.912 E0.05831
G1 X152.342 Y136.482 E0.05316
G1 X152.356 Y144.652 E0.27652
G1 X152.343 Y144.816 E0.00556
G1 X152.357 Y146.401 E0.05366
G1 X151.819 Y148.185 E0.06308
G1 X151.358 Y148.876 E0.02812
G1 X151.158 Y149.102 E0.01021
G1 X150.982 Y149.372 E0.01093
G1 X150.438 Y149.957 E0.02704
G1 X149.127 Y150.809 E0.05293
G1 X147.683 Y151.183 E0.05047
G1 X146.116 Y151.169 E0.05304
G1 X134.261 Y151.180 E0.40129
G1 X134.012 Y151.308 E0.00946
G1 X133.764 Y151.398 E0.00895
G1 X132.856 Y151.932 E0.03565
G1 X131.502 Y152.269 E0.04723
G1 X126.402 Y152.263 E0.17262
G1 X124.924 Y151.881 E0.05168
G1 X124.507 Y151.662 E0.01595
G1 X124.285 Y151.648 E0.00753
G1 X123.549 Y151.501 E0.02540
G1 X122.808 Y151.179 E0.02733
G1 X115.569 Y151.168 E0.24502
G1 X113.849 Y151.177 E0.05822
G1 X113.677 Y151.265 E0.00654
G1 X113.249 Y151.412 E0.01531
G1 X112.649 Y151.787 E0.02398
G1 X111.865 Y152.080 E0.02832
G1 X111.088 Y152.244 E0.02688
G1 X110.286 Y152.243 E0.02713
G1 X110.042 Y152.269 E0.00830
G1 X106.788 Y152.255 E0.11015
G1 X105.169 Y152.270 E0.05482
G1 X103.686 Y151.908 E0.05166
G1 X103.152 Y151.636 E0.02029
G1 X102.348 Y151.479 E0.02772
G1 X101.661 Y151.176 E0.02542
G1 X89.952 Y151.178 E0.39634
G1 X89.259 Y151.301 E0.02383
G1 X88.033 Y151.277 E0.04151
G1 X87.010 Y150.999 E0.03587
G1 X86.218 Y150.596 E0.03009
G1 X84.858 Y149.340 E0.06266
G1 X84.009 Y147.954 E0.05501
G1 X83.643 Y146.394 E0.05424
G1 X83.657 Y144.856 E0.05207
G1 X83.647 Y136.417 E0.28563
G1 X83.197 Y135.854 E0.02440
G1 X82.813 Y134.973 E0.03256
G1 X82.645 Y134.735 E0.00985
G1 X82.317 Y134.070 E0.02508
G1 X81.969 Y132.531 E0.05342
G1 X81.983 Y129.922 E0.08832
G1 X81.968 Y126.507 E0.11560
G1 X82.001 Y125.457 E0.03557
G1 X82.280 Y124.352 E0.03857
G1 X82.811 Y123.316 E0.03940
G1 X83.649 Y122.398 E0.04206
G1 X83.657 Y120.196 E0.07455
G1 X83.644 Y120.025 E0.00581
G1 X83.647 Y102.031 E0.60907
G1 X83.327 Y101.540 E0.01983
G1 X82.721 Y100.796 E0.03249
G1 X82.077 Y99.268 E0.05613
G1 X81.970 Y98.418 E0.02897
G1 X82.022 Y92.449 E0.20206
G1 X82.329 Y91.338 E0.03902
G1 X82.645 Y90.697 E0.02420
G1 X82.813 Y90.460 E0.00983
G1 X83.196 Y89.580 E0.03249
G1 X83.672 Y88.986 E0.02577
G1 X83.883 Y88.125 E0.03000
G1 X84.347 Y87.135 E0.03700
G1 X85.193 Y86.136 E0.04433
G1 X85.502 Y86.400 F9000.000
G1 F900.000
G1 X86.156 Y85.872 E0.02846
G1 X87.522 Y85.323 E0.04982
G1 X88.223 Y85.252 E0.02384
G1 X88.948 Y84.977 E0.02626
G1 X89.576 Y84.880 E0.02151
G1 X90.061 Y84.757 E0.01694
G1 X92.949 Y84.730 E0.09777
G1 X93.629 Y84.606 E0.02340
G1 X94.568 Y84.606 E0.03177
G1 X95.241 Y84.727 E0.02313
G1 X97.545 Y84.752 E0.07800
G1 X98.478 Y84.968 E0.03242
G1 X99.059 Y85.230 E0.02158
G1 X99.778 Y85.238 E0.02432
G1 X99.930 Y85.225 E0.00517
G1 X101.421 Y85.238 E0.05047
G1 X101.575 Y85.225 E0.00522
G1 X103.066 Y85.238 E0.05047
G1 X103.220 Y85.225 E0.00522
G1 X104.711 Y85.238 E0.05047
G1 X104.865 Y85.225 E0.00522
G1 X106.356 Y85.238 E0.05047
G1 X106.509 Y85.225 E0.00522
G1 X108.001 Y85.238 E0.05047
G1 X108.154 Y85.225 E0.00522
G1 X109.645 Y85.238 E0.05047
G1 X109.799 Y85.225 E0.00522
G1 X111.290 Y85.238 E0.05047
G1 X111.444 Y85.225 E0.00522
G1 X112.935 Y85.238 E0.05047
G1 X113.089 Y85.225 E0.00522
G1 X114.580 Y85.238 E0.05047
G1 X114.734 Y85.225 E0.00522
G1 X116.225 Y85.238 E0.05047
G1 X116.379 Y85.225 E0.00525
G1 X137.159 Y85.229 E0.70335
G1 X137.936 Y84.903 E0.02852
G1 X138.869 Y84.725 E0.03217
G1 X143.780 Y84.739 E0.16622
G1 X145.391 Y84.725 E0.05454
G1 X146.552 Y84.956 E0.04007
G1 X147.176 Y85.234 E0.02312
G1 X147.884 Y85.267 E0.02397
G1 X149.082 Y85.605 E0.04216
G1 X150.176 Y86.281 E0.04350
G1 X151.129 Y87.227 E0.04548
G1 X151.684 Y88.069 E0.03413
G1 X151.963 Y88.814 E0.02693
G1 X152.010 Y89.170 E0.01214
G1 X152.137 Y89.323 E0.00674
G1 X152.701 Y90.314 E0.03857
G1 X152.987 Y91.326 E0.03560
G1 X153.020 Y91.819 E0.01671
G1 X153.211 Y92.158 E0.01319
G1 X153.496 Y92.941 E0.02821
G1 X153.624 Y95.227 E0.07749
G1 X153.610 Y97.023 E0.06080
G1 X153.624 Y97.851 E0.02803
G1 X153.383 Y99.058 E0.04166
G1 X153.002 Y99.884 E0.03080
G1 X152.968 Y100.209 E0.01105
G1 X152.735 Y100.975 E0.02710
G1 X152.146 Y101.979 E0.03941
G1 X151.943 Y102.220 E0.01067
G1 X151.949 Y131.628 E0.99540
G1 X151.935 Y133.189 E0.05287
G1 X151.949 Y134.913 E0.05836
G1 X151.935 Y136.481 E0.05307
G1 X151.949 Y143.002 E0.22074
G1 X151.936 Y143.155 E0.00518
G1 X151.949 Y144.646 E0.05047
G1 X151.936 Y144.800 E0.00523
G1 X151.950 Y146.374 E0.05327
G1 X151.464 Y147.984 E0.05694
G1 X151.028 Y148.637 E0.02658
G1 X150.834 Y148.853 E0.00981
G1 X150.651 Y149.135 E0.01139
G1 X150.158 Y149.661 E0.02441
G1 X148.990 Y150.424 E0.04720
G1 X147.659 Y150.775 E0.04661
G1 X146.093 Y150.762 E0.05301
G1 X145.938 Y150.775 E0.00526
G1 X134.160 Y150.773 E0.39868
G1 X133.860 Y150.930 E0.01146
G1 X133.587 Y151.029 E0.00983
G1 X132.726 Y151.546 E0.03400
G1 X131.477 Y151.862 E0.04362
G1 X126.429 Y151.856 E0.17085
G1 X125.053 Y151.494 E0.04818
G1 X124.620 Y151.261 E0.01663
G1 X124.349 Y151.245 E0.00919
G1 X123.651 Y151.106 E0.02410
G1 X122.895 Y150.773 E0.02798
G1 X115.569 Y150.761 E0.24798
G1 X113.744 Y150.770 E0.06175
G1 X113.528 Y150.886 E0.00828
G1 X113.072 Y151.042 E0.01634
G1 X112.485 Y151.414 E0.02351
G1 X111.763 Y151.685 E0.02611
G1 X111.066 Y151.837 E0.02415
G1 X110.263 Y151.836 E0.02718
G1 X110.032 Y151.862 E0.00789
G1 X106.787 Y151.848 E0.10982
G1 X105.191 Y151.862 E0.05403
G1 X103.809 Y151.520 E0.04821
G1 X103.289 Y151.248 E0.01985
G1 X102.450 Y151.084 E0.02894
G1 X101.749 Y150.769 E0.02600
G1 X89.915 Y150.771 E0.40059
G1 X89.244 Y150.893 E0.02309
G1 X88.114 Y150.877 E0.03823
G1 X87.138 Y150.612 E0.03425
G1 X86.430 Y150.247 E0.02697
G1 X85.155 Y149.061 E0.05894
G1 X84.397 Y147.828 E0.04900
G1 X84.051 Y146.372 E0.05064
G1 X84.064 Y144.857 E0.05129
G1 X84.054 Y136.270 E0.29065
G1 X83.558 Y135.665 E0.02648
G1 X83.168 Y134.769 E0.03309
G1 X83.002 Y134.539 E0.00960
G1 X82.693 Y133.912 E0.02365
G1 X82.377 Y132.510 E0.04865
G1 X82.390 Y129.922 E0.08760
G1 X82.375 Y126.509 E0.11554
G1 X82.408 Y125.492 E0.03442
G1 X82.668 Y124.476 E0.03551
G1 X83.159 Y123.528 E0.03613
G1 X84.055 Y122.559 E0.04468
G1 X84.064 Y120.179 E0.08055
G1 X84.051 Y120.019 E0.00543
G1 X84.064 Y118.531 E0.05038
G1 X84.051 Y118.375 E0.00532
G1 X84.064 Y116.886 E0.05038
G1 X84.051 Y116.729 E0.00534
G1 X84.054 Y101.910 E0.50160
G1 X83.655 Y101.298 E0.02474
G1 X83.083 Y100.608 E0.03033
G1 X82.477 Y99.187 E0.05227
G1 X82.377 Y98.407 E0.02662
G1 X82.421 Y92.530 E0.19893
G1 X82.703 Y91.500 E0.03615
G1 X83.002 Y90.893 E0.02291
G1 X83.168 Y90.664 E0.00958
G1 X83.558 Y89.769 E0.03303
G1 X84.076 Y89.136 E0.02769
G1 X84.091 Y88.980 E0.00530
G1 X84.260 Y88.279 E0.02442
G1 X84.704 Y87.333 E0.03535
G1 X85.463 Y86.446 E0.03954
G1 X85.770 Y86.712 F9000.000
G1 F900.000
G1 X85.822 Y86.652 E0.00267
G1 X86.384 Y86.211 E0.02418
G1 X87.642 Y85.713 E0.04583
G1 X88.313 Y85.653 E0.02280
G1 X89.071 Y85.365 E0.02743
G1 X89.655 Y85.280 E0.01997
G1 X90.137 Y85.158 E0.01683
G1 X92.988 Y85.136 E0.09653
G1 X93.649 Y85.013 E0.02273
G1 X94.549 Y85.013 E0.03047
G1 X95.201 Y85.134 E0.02246
G1 X97.475 Y85.154 E0.07697
G1 X98.365 Y85.360 E0.03094
G1 X98.968 Y85.637 E0.02243
G1 X99.794 Y85.645 E0.02799
G1 X99.937 Y85.632 E0.00485
G1 X101.438 Y85.645 E0.05081
G1 X101.582 Y85.632 E0.00489
G1 X103.083 Y85.645 E0.05081
G1 X103.227 Y85.632 E0.00489
G1 X104.728 Y85.645 E0.05081
G1 X104.872 Y85.632 E0.00489
G1 X106.373 Y85.645 E0.05081
G1 X106.517 Y85.632 E0.00489
G1 X108.018 Y85.645 E0.05081
G1 X108.161 Y85.632 E0.00489
G1 X109.662 Y85.645 E0.05081
G1 X109.806 Y85.632 E0.00489
G1 X111.307 Y85.645 E0.05081
G1 X111.451 Y85.632 E0.00489
G1 X112.952 Y85.645 E0.05081
G1 X113.096 Y85.632 E0.00489
G1 X114.597 Y85.645 E0.05081
G1 X114.741 Y85.632 E0.00489
G1 X116.242 Y85.645 E0.05081
G1 X116.386 Y85.632 E0.00489
G1 X117.887 Y85.645 E0.05081
G1 X118.031 Y85.632 E0.00489
G1 X119.531 Y85.645 E0.05081
G1 X119.675 Y85.632 E0.00489
G1 X121.176 Y85.645 E0.05081
G1 X121.321 Y85.632 E0.00492
G1 X137.227 Y85.636 E0.53841
G1 X137.584 Y85.504 E0.01288
G1 X138.040 Y85.298 E0.01693
G1 X138.888 Y85.132 E0.02926
G1 X143.781 Y85.146 E0.16562
G1 X145.373 Y85.132 E0.05388
G1 X146.447 Y85.350 E0.03711
G1 X147.081 Y85.638 E0.02354
G1 X147.797 Y85.666 E0.02427
G1 X148.943 Y85.989 E0.04031
G1 X149.939 Y86.613 E0.03978
G1 X150.826 Y87.499 E0.04244
G1 X151.330 Y88.272 E0.03121
G1 X151.572 Y88.930 E0.02374
G1 X151.619 Y89.342 E0.01405
G1 X151.796 Y89.546 E0.00913
G1 X152.316 Y90.449 E0.03528
G1 X152.589 Y91.414 E0.03394
G1 X152.618 Y91.938 E0.01775
G1 X152.835 Y92.315 E0.01472
G1 X153.103 Y93.052 E0.02655
G1 X153.217 Y95.241 E0.07421
G1 X153.202 Y97.025 E0.06037
G1 X153.217 Y97.836 E0.02745
G1 X152.989 Y98.952 E0.03856
G1 X152.602 Y99.777 E0.03083
G1 X152.572 Y100.112 E0.01140
G1 X152.353 Y100.833 E0.02550
G1 X151.806 Y101.755 E0.03628
G1 X151.536 Y102.068 E0.01400
G1 X151.542 Y131.627 E1.00055
G1 X151.528 Y133.189 E0.05289
G1 X151.542 Y134.915 E0.05842
G1 X151.528 Y136.480 E0.05297
G1 X151.542 Y142.993 E0.22048
G1 X151.529 Y143.138 E0.00491
G1 X151.542 Y144.639 E0.05081
G1 X151.529 Y144.783 E0.00489
G1 X151.542 Y146.346 E0.05292
G1 X151.109 Y147.783 E0.05079
G1 X150.698 Y148.398 E0.02502
G1 X150.509 Y148.605 E0.00948
G1 X150.338 Y148.874 E0.01079
G1 X149.911 Y149.336 E0.02132
G1 X148.851 Y150.040 E0.04305
G1 X147.634 Y150.368 E0.04267
G1 X146.076 Y150.355 E0.05275
G1 X145.932 Y150.368 E0.00489
G1 X144.431 Y150.355 E0.05081
G1 X144.287 Y150.368 E0.00489
G1 X142.786 Y150.355 E0.05081
G1 X142.641 Y150.368 E0.00492
G1 X134.057 Y150.365 E0.29056
G1 X133.707 Y150.552 E0.01343
G1 X133.409 Y150.660 E0.01074
G1 X132.593 Y151.160 E0.03237
G1 X131.452 Y151.455 E0.03991
G1 X128.195 Y151.441 E0.11024
G1 X126.506 Y151.455 E0.05719
G1 X125.182 Y151.107 E0.04632
G1 X124.736 Y150.858 E0.01731
G1 X124.413 Y150.843 E0.01093
G1 X123.754 Y150.711 E0.02275
G1 X122.983 Y150.366 E0.02861
G1 X115.568 Y150.354 E0.25099
G1 X113.636 Y150.364 E0.06539
G1 X113.378 Y150.507 E0.00998
G1 X112.893 Y150.673 E0.01736
G1 X112.320 Y151.041 E0.02304
G1 X111.659 Y151.292 E0.02392
G1 X111.043 Y151.430 E0.02136
G1 X110.238 Y151.428 E0.02725
G1 X110.020 Y151.455 E0.00744
G1 X106.786 Y151.441 E0.10946
G1 X105.214 Y151.455 E0.05322
G1 X103.934 Y151.132 E0.04469
G1 X103.428 Y150.860 E0.01943
G1 X102.552 Y150.690 E0.03021
G1 X101.839 Y150.362 E0.02656
G1 X89.876 Y150.364 E0.40494
G1 X89.226 Y150.486 E0.02239
G1 X88.195 Y150.478 E0.03489
G1 X87.267 Y150.225 E0.03257
G1 X86.644 Y149.900 E0.02379
G1 X85.455 Y148.783 E0.05520
G1 X84.762 Y147.644 E0.04513
G1 X84.458 Y146.352 E0.04495
G1 X84.471 Y144.832 E0.05144
G1 X84.458 Y144.687 E0.00493
G1 X84.461 Y136.121 E0.28993
G1 X83.917 Y135.471 E0.02872
G1 X83.589 Y134.743 E0.02700
G1 X83.545 Y134.593 E0.00530
G1 X83.358 Y134.341 E0.01061
G1 X83.069 Y133.754 E0.02218
G1 X82.784 Y132.489 E0.04388
G1 X82.798 Y129.922 E0.08689
G1 X82.783 Y126.511 E0.11548
G1 X82.814 Y125.528 E0.03326
G1 X83.056 Y124.602 E0.03241
G1 X83.506 Y123.742 E0.03286
G1 X84.462 Y122.721 E0.04733
G1 X84.471 Y120.162 E0.08663
G1 X84.458 Y120.013 E0.00507
G1 X84.471 Y118.514 E0.05071
G1 X84.458 Y118.368 E0.00499
G1 X84.471 Y116.870 E0.05071
G1 X84.458 Y116.723 E0.00499
G1 X84.471 Y115.225 E0.05071
G1 X84.458 Y115.078 E0.00499
G1 X84.471 Y113.580 E0.05071
G1 X84.458 Y113.432 E0.00501
G1 X84.461 Y101.732 E0.39602
G1 X84.294 Y101.552 E0.00832
G1 X83.985 Y101.058 E0.01973
G1 X83.444 Y100.417 E0.02837
G1 X82.877 Y99.106 E0.04836
G1 X82.784 Y98.396 E0.02424
G1 X82.821 Y92.611 E0.19582
G1 X83.077 Y91.662 E0.03326
G1 X83.359 Y91.090 E0.02157
G1 X83.545 Y90.839 E0.01059
G1 X83.589 Y90.689 E0.00529
G1 X83.916 Y89.963 E0.02695
G1 X84.475 Y89.295 E0.02951
G1 X84.491 Y89.054 E0.00815
G1 X84.638 Y88.432 E0.02163
G1 X85.060 Y87.532 E0.03365
G1 X85.731 Y86.757 E0.03470
G1 X86.036 Y87.025 F9000.000
G1 F900.000
G1 X86.114 Y86.936 E0.00401
G1 X86.609 Y86.551 E0.02122
G1 X87.760 Y86.104 E0.04179
G1 X88.439 Y86.052 E0.02304
G1 X88.570 Y85.984 E0.00501
G1 X89.189 Y85.755 E0.02235
G1 X89.732 Y85.680 E0.01854
G1 X90.213 Y85.558 E0.01678
G1 X93.029 Y85.543 E0.09533
G1 X93.669 Y85.420 E0.02205
G1 X94.529 Y85.420 E0.02913
G1 X95.160 Y85.540 E0.02175
G1 X97.448 Y85.561 E0.07744
G1 X98.250 Y85.751 E0.02790
G1 X98.874 Y86.043 E0.02333
G1 X99.813 Y86.052 E0.03177
G1 X99.945 Y86.039 E0.00450
G1 X101.457 Y86.052 E0.05117
G1 X101.590 Y86.039 E0.00453
G1 X103.102 Y86.052 E0.05117
G1 X103.235 Y86.039 E0.00453
G1 X104.747 Y86.052 E0.05117
G1 X104.880 Y86.039 E0.00453
G1 X106.392 Y86.052 E0.05117
G1 X106.525 Y86.039 E0.00453
G1 X108.036 Y86.052 E0.05117
G1 X108.169 Y86.039 E0.00453
G1 X109.681 Y86.052 E0.05117
G1 X109.814 Y86.039 E0.00453
G1 X111.326 Y86.052 E0.05117
G1 X111.459 Y86.039 E0.00453
G1 X112.971 Y86.052 E0.05117
G1 X113.104 Y86.039 E0.00453
G1 X114.616 Y86.052 E0.05117
G1 X114.749 Y86.039 E0.00453
G1 X116.261 Y86.052 E0.05117
G1 X116.394 Y86.039 E0.00453
G1 X117.905 Y86.052 E0.05117
G1 X118.039 Y86.039 E0.00453
G1 X119.550 Y86.052 E0.05117
G1 X119.683 Y86.039 E0.00453
G1 X121.195 Y86.052 E0.05117
G1 X121.328 Y86.039 E0.00453
G1 X122.840 Y86.052 E0.05117
G1 X122.973 Y86.039 E0.00453
G1 X124.485 Y86.052 E0.05117
G1 X124.618 Y86.039 E0.00453
G1 X126.130 Y86.052 E0.05117
G1 X126.264 Y86.039 E0.00456
G1 X137.300 Y86.043 E0.37358
G1 X137.742 Y85.879 E0.01595
G1 X138.145 Y85.692 E0.01504
G1 X138.908 Y85.539 E0.02634
G1 X143.782 Y85.553 E0.16499
G1 X145.354 Y85.539 E0.05321
G1 X146.341 Y85.744 E0.03409
G1 X146.985 Y86.043 E0.02404
