; generated by PrusaSlicer 2.3.0-beta3+win64 on 2022-04-06 at 05:17:07 UTC

; 

; external perimeters extrusion width = 0.45mm
; perimeters extrusion width = 0.45mm
; infill extrusion width = 0.45mm
; solid infill extrusion width = 0.45mm
; top infill extrusion width = 0.40mm
; support material extrusion width = 0.38mm
; first layer extrusion width = 0.42mm

M201 X500 Y500 Z100 E5000 ; sets maximum accelerations, mm/sec^2
M203 X500 Y500 Z10 E60 ; sets maximum feedrates, mm/sec
M204 P500 R1000 T500 ; sets acceleration (P, T) and retract acceleration (R), mm/sec^2
M205 X8.00 Y8.00 Z0.40 E5.00 ; sets the jerk limits, mm/sec
M205 S0 T0 ; sets the minimum extruding and travel feed rate, mm/sec
M107
;TYPE:Custom
G90 ; use absolute coordinates
M83 ; extruder relative mode
M104 S220 ; set extruder temp
M140 S60 ; set bed temp
M190 S60 ; wait for bed temp
M109 S220 ; wait for extruder temp
G28 ; home all
G1 Z2 F240
G1 X2 Y10 F3000
G1 Z0.28 F240
G92 E0
G1 Y190 E15 F1500 ; intro line
G1 X2.3 F5000
G92 E0
G1 Y10 E15 F1200 ; intro line
G92 E0
G21 ; set units to millimeters
G90 ; use absolute coordinates
M83 ; use relative distances for extrusion
; Filament gcode
;LAYER_CHANGE
;Z:0.2
;HEIGHT:0.2
;BEFORE_LAYER_CHANGE
G92 E0
;0.2


G1 E-5.00000 F3600.000
G1 Z0.200 F9000.000
;AFTER_LAYER_CHANGE
;0.2
G1 X85.788 Y87.997
G1 E5.00000 F2400.000
;TYPE:Skirt
;WIDTH:0.42
G1 F1200.000
G1 X86.494 Y87.312 E0.03083
G1 X87.469 Y86.713 E0.03590
G1 X88.890 Y86.336 E0.04609
G1 X147.086 Y86.340 E1.82470
G1 X148.035 Y86.524 E0.03029
G1 X148.943 Y86.915 E0.03101
G1 X150.162 Y87.938 E0.04990
G1 X150.953 Y89.156 E0.04551
G1 X151.313 Y90.539 E0.04481
G1 X151.313 Y145.497 E1.72317
G1 X150.759 Y147.242 E0.05742
G1 X150.212 Y148.003 E0.02939
G1 X149.506 Y148.688 E0.03083
G1 X148.531 Y149.287 E0.03590
G1 X147.110 Y149.663 E0.04608
G1 X88.853 Y149.663 E1.82660
G1 X87.108 Y149.109 E0.05742
G1 X86.347 Y148.562 E0.02939
G1 X85.662 Y147.856 E0.03083
G1 X85.063 Y146.881 E0.03590
G1 X84.687 Y145.460 E0.04608
G1 X84.687 Y90.503 E1.72313
G1 X85.241 Y88.758 E0.05742
G1 X85.753 Y88.045 E0.02751
G1 X86.055 Y88.266 F9000.000
G1 F1200.000
G1 X86.709 Y87.622 E0.02878
G1 X87.643 Y87.049 E0.03436
G1 X88.914 Y86.714 E0.04122
G1 X147.068 Y86.717 E1.82335
G1 X147.941 Y86.890 E0.02791
G1 X148.766 Y87.249 E0.02823
G1 X149.897 Y88.208 E0.04647
G1 X150.596 Y89.282 E0.04018
G1 X150.936 Y90.563 E0.04157
G1 X150.936 Y145.467 E1.72145
G1 X150.410 Y147.097 E0.05371
G1 X149.938 Y147.745 E0.02514
G1 X149.291 Y148.378 E0.02839
G1 X148.357 Y148.951 E0.03435
G1 X147.086 Y149.286 E0.04122
G1 X88.883 Y149.286 E1.82490
G1 X87.253 Y148.760 E0.05371
G1 X86.605 Y148.288 E0.02514
G1 X85.972 Y147.641 E0.02839
G1 X85.399 Y146.707 E0.03435
G1 X85.064 Y145.436 E0.04122
G1 X85.064 Y90.533 E1.72143
G1 X85.590 Y88.903 E0.05371
G1 X86.019 Y88.314 E0.02286
G1 X86.320 Y88.537 F9000.000
G1 F1200.000
G1 X86.926 Y87.932 E0.02685
G1 X87.817 Y87.385 E0.03279
G1 X88.938 Y87.091 E0.03636
G1 X147.048 Y87.094 E1.82200
G1 X147.846 Y87.255 E0.02550
G1 X148.588 Y87.583 E0.02545
G1 X149.630 Y88.476 E0.04302
G1 X150.263 Y89.460 E0.03669
G1 X150.559 Y90.588 E0.03655
G1 X150.559 Y145.436 E1.71974
G1 X150.062 Y146.949 E0.04993
G1 X149.663 Y147.486 E0.02099
G1 X149.074 Y148.068 E0.02594
G1 X148.183 Y148.615 E0.03279
G1 X147.062 Y148.909 E0.03636
G1 X88.914 Y148.909 E1.82319
G1 X87.401 Y148.412 E0.04993
G1 X86.864 Y148.013 E0.02099
G1 X86.282 Y147.424 E0.02594
G1 X85.735 Y146.533 E0.03279
G1 X85.441 Y145.412 E0.03636
G1 X85.441 Y90.564 E1.71972
G1 X85.938 Y89.051 E0.04993
G1 X86.284 Y88.585 E0.01820
G1 X86.582 Y88.812 F9000.000
G1 F1200.000
G1 X87.142 Y88.242 E0.02508
G1 X87.990 Y87.721 E0.03119
G1 X88.962 Y87.468 E0.03150
G1 X147.029 Y87.471 E1.82064
G1 X147.748 Y87.620 E0.02304
G1 X148.408 Y87.915 E0.02266
G1 X149.362 Y88.742 E0.03960
G1 X149.906 Y89.587 E0.03149
G1 X150.182 Y90.613 E0.03331
G1 X150.182 Y145.405 E1.71797
G1 X149.715 Y146.798 E0.04607
G1 X149.388 Y147.228 E0.01695
G1 X148.858 Y147.758 E0.02350
G1 X148.010 Y148.279 E0.03119
G1 X147.038 Y148.532 E0.03149
G1 X88.945 Y148.532 E1.82146
G1 X87.552 Y148.065 E0.04607
G1 X87.122 Y147.738 E0.01695
G1 X86.591 Y147.208 E0.02350
G1 X86.071 Y146.360 E0.03119
G1 X85.818 Y145.388 E0.03149
G1 X85.818 Y90.595 E1.71799
G1 X86.285 Y89.202 E0.04607
G1 X86.545 Y88.860 E0.01349
G1 X86.845 Y89.086 F9000.000
G1 F1200.000
G1 X87.394 Y88.523 E0.02464
G1 X88.115 Y88.077 E0.02658
G1 X88.987 Y87.845 E0.02832
G1 X147.010 Y87.848 E1.81925
G1 X147.613 Y87.973 E0.01933
G1 X148.228 Y88.247 E0.02110
G1 X149.092 Y89.007 E0.03609
G1 X149.572 Y89.764 E0.02809
G1 X149.805 Y90.637 E0.02835
G1 X149.805 Y145.374 E1.71624
G1 X149.396 Y146.595 E0.04038
G1 X149.112 Y146.971 E0.01477
G1 X148.606 Y147.477 E0.02241
G1 X147.885 Y147.923 E0.02658
G1 X147.013 Y148.155 E0.02831
G1 X88.976 Y148.155 E1.81971
G1 X87.755 Y147.746 E0.04038
G1 X87.379 Y147.462 E0.01477
G1 X86.873 Y146.956 E0.02241
G1 X86.427 Y146.235 E0.02658
G1 X86.195 Y145.363 E0.02831
G1 X86.195 Y90.626 E1.71624
G1 X86.604 Y89.405 E0.04038
G1 X86.809 Y89.134 E0.01064
G1 X87.110 Y89.359 F9000.000
G1 F1200.000
G1 X87.645 Y88.805 E0.02418
G1 X88.242 Y88.433 E0.02203
G1 X89.013 Y88.222 E0.02509
G1 X146.989 Y88.226 E1.81780
G1 X147.514 Y88.337 E0.01681
G1 X148.045 Y88.578 E0.01829
G1 X148.822 Y89.271 E0.03263
G1 X149.216 Y89.891 E0.02306
G1 X149.428 Y90.663 E0.02510
G1 X149.428 Y145.344 E1.71447
G1 X149.076 Y146.394 E0.03472
G1 X148.835 Y146.714 E0.01257
G1 X148.355 Y147.195 E0.02132
G1 X147.758 Y147.567 E0.02203
G1 X146.987 Y147.778 E0.02508
G1 X89.006 Y147.778 E1.81794
G1 X87.956 Y147.426 E0.03472
G1 X87.636 Y147.185 E0.01257
G1 X87.155 Y146.705 E0.02132
G1 X86.783 Y146.108 E0.02203
G1 X86.572 Y145.337 E0.02508
G1 X86.572 Y90.656 E1.71447
G1 X86.924 Y89.606 E0.03472
G1 X87.074 Y89.407 E0.00780
G1 X87.375 Y89.631 F9000.000
G1 F1200.000
G1 X87.441 Y89.542 E0.00348
G1 X87.897 Y89.086 E0.02022
G1 X88.371 Y88.788 E0.01755
G1 X89.040 Y88.599 E0.02179
G1 X146.968 Y88.603 E1.81629
G1 X147.411 Y88.700 E0.01423
G1 X147.859 Y88.908 E0.01548
G1 X148.550 Y89.533 E0.02920
G1 X148.862 Y90.021 E0.01818
G1 X149.051 Y90.690 E0.02179
G1 X149.051 Y145.313 E1.71267
G1 X148.755 Y146.193 E0.02911
G1 X148.559 Y146.458 E0.01034
G1 X148.103 Y146.914 E0.02022
G1 X147.629 Y147.212 E0.01755
G1 X146.960 Y147.401 E0.02179
G1 X89.037 Y147.401 E1.81614
G1 X88.157 Y147.105 E0.02911
G1 X87.892 Y146.909 E0.01034
G1 X87.436 Y146.453 E0.02022
G1 X87.138 Y145.979 E0.01755
G1 X86.949 Y145.310 E0.02179
G1 X86.949 Y90.687 E1.71267
G1 X87.245 Y89.807 E0.02911
G1 X87.339 Y89.680 E0.00497
G1 X87.642 Y89.902 F9000.000
G1 F1200.000
G1 X87.719 Y89.798 E0.00403
G1 X88.150 Y89.367 E0.01911
G1 X88.504 Y89.142 E0.01318
G1 X89.068 Y88.976 E0.01842
G1 X146.946 Y88.980 E1.81471
G1 X147.305 Y89.063 E0.01157
G1 X147.671 Y89.235 E0.01268
G1 X148.276 Y89.793 E0.02580
G1 X148.508 Y90.155 E0.01347
G1 X148.674 Y90.718 E0.01841
G1 X148.674 Y145.282 E1.71082
G1 X148.434 Y145.994 E0.02354
G1 X148.281 Y146.202 E0.00808
G1 X147.850 Y146.633 E0.01911
G1 X147.496 Y146.858 E0.01318
G1 X146.932 Y147.024 E0.01842
G1 X89.068 Y147.024 E1.81429
G1 X88.356 Y146.784 E0.02354
G1 X88.148 Y146.631 E0.00808
G1 X87.717 Y146.200 E0.01911
G1 X87.492 Y145.846 E0.01318
G1 X87.326 Y145.282 E0.01842
G1 X87.326 Y90.718 E1.71082
G1 X87.566 Y90.006 E0.02354
G1 X87.607 Y89.950 E0.00217
G1 X87.912 Y90.171 F9000.000
G1 F1200.000
G1 X87.996 Y90.054 E0.00452
G1 X88.402 Y89.648 E0.01800
G1 X88.642 Y89.494 E0.00892
G1 X89.098 Y89.353 E0.01496
G1 X146.924 Y89.357 E1.81310
G1 X147.162 Y89.412 E0.00767
G1 X147.482 Y89.563 E0.01109
G1 X148.001 Y90.051 E0.02233
G1 X148.156 Y90.292 E0.00898
G1 X148.297 Y90.748 E0.01495
G1 X148.297 Y145.251 E1.70892
G1 X148.112 Y145.796 E0.01806
G1 X148.004 Y145.946 E0.00579
G1 X147.598 Y146.352 E0.01800
G1 X147.358 Y146.506 E0.00892
G1 X146.902 Y146.647 E0.01496
G1 X89.099 Y146.647 E1.81239
G1 X88.554 Y146.462 E0.01806
G1 X88.404 Y146.354 E0.00579
G1 X87.998 Y145.948 E0.01800
G1 X87.844 Y145.708 E0.00892
G1 X87.703 Y145.252 E0.01496
G1 X87.703 Y90.749 E1.70892
G1 X87.882 Y90.222 E0.01745
G1 X88.212 Y90.398 F9000.000
G1 F1200.000
G1 X88.275 Y90.308 E0.00345
G1 X88.656 Y89.928 E0.01686
G1 X88.785 Y89.843 E0.00484
G1 X89.129 Y89.730 E0.01136
G1 X146.902 Y89.734 E1.81142
G1 X147.019 Y89.761 E0.00377
G1 X147.292 Y89.890 E0.00947
G1 X147.723 Y90.307 E0.01880
G1 X147.807 Y90.435 E0.00479
G1 X147.920 Y90.779 E0.01136
G1 X147.920 Y145.219 E1.70693
G1 X147.788 Y145.602 E0.01270
G1 X147.725 Y145.692 E0.00345
G1 X147.344 Y146.072 E0.01686
G1 X147.215 Y146.157 E0.00484
G1 X146.871 Y146.270 E0.01136
G1 X89.131 Y146.270 E1.81039
G1 X88.748 Y146.138 E0.01270
G1 X88.658 Y146.075 E0.00345
G1 X88.278 Y145.694 E0.01686
G1 X88.193 Y145.565 E0.00484
G1 X88.080 Y145.221 E0.01136
G1 X88.080 Y90.781 E1.70693
G1 X88.193 Y90.455 E0.01081
G1 X88.539 Y90.587 F9000.000
G1 F1200.000
G1 X88.910 Y90.207 E0.01666
G1 X89.164 Y90.107 E0.00856
G1 X146.850 Y90.107 E1.80868
G1 X147.100 Y90.217 E0.00856
G1 X147.443 Y90.560 E0.01522
G1 X147.543 Y90.814 E0.00856
G1 X147.543 Y145.186 E1.70477
G1 X147.443 Y145.440 E0.00856
G1 X147.090 Y145.793 E0.01566
G1 X146.836 Y145.893 E0.00856
G1 X89.164 Y145.893 E1.80824
G1 X88.910 Y145.793 E0.00856
G1 X88.557 Y145.440 E0.01566
G1 X88.457 Y145.186 E0.00856
G1 X88.457 Y90.814 E1.70477
G1 X88.519 Y90.644 E0.00569
G1 X88.863 Y90.787 F9000.000
G1 F1200.000
G1 X89.137 Y90.513 E0.01215
G1 X89.206 Y90.484 E0.00235
G1 X146.794 Y90.484 E1.80561
G1 X146.863 Y90.513 E0.00235
G1 X147.137 Y90.787 E0.01215
G1 X147.166 Y90.856 E0.00235
G1 X147.166 Y145.144 E1.70214
G1 X147.137 Y145.213 E0.00235
G1 X146.863 Y145.487 E0.01215
G1 X146.794 Y145.516 E0.00235
G1 X89.206 Y145.516 E1.80561
G1 X89.137 Y145.487 E0.00235
G1 X88.863 Y145.213 E0.01215
G1 X88.834 Y145.144 E0.00235
G1 X88.840 Y90.842 E1.70258
G1 X89.211 Y90.972 F9000.000
G1 F1200.000
G1 X89.322 Y90.861 E0.00490
G1 X146.678 Y90.861 E1.79836
G1 X146.789 Y90.972 E0.00490
G1 X146.789 Y145.028 E1.69489
G1 X146.678 Y145.139 E0.00490
G1 X89.322 Y145.139 E1.79836
G1 X89.211 Y145.028 E0.00490
G1 X89.211 Y91.032 E1.69301
G1 E-3.50000 F3600.000
;WIPE_START
G1 F7200.000
G1 X89.322 Y90.861 E-0.09647
G1 X92.119 Y90.861 E-1.32853
;WIPE_END
G1 E-0.07500 F3600.000
G1 X89.610 Y140.466 F9000.000
G1 E5.00000 F2400.000
;TYPE:External perimeter
G1 F1200.000
G1 X89.610 Y91.260 E1.54282
G1 X146.390 Y91.260 E1.78030
G1 X146.390 Y144.740 E1.67683
G1 X89.610 Y144.740 E1.78030
G1 X89.610 Y140.526 E0.13213
G1 X89.819 Y140.125 F9000.000
G1 X89.987 Y140.526
;TYPE:Perimeter
G1 F1200.000
G1 X89.987 Y91.637 E1.53288
G1 X146.013 Y91.637 E1.75665
G1 X146.013 Y144.363 E1.65318
G1 X89.987 Y144.363 E1.75665
G1 X89.987 Y140.586 E0.11842
G1 E-3.50000 F3600.000
;WIPE_START
G1 F7200.000
G1 X89.987 Y137.586 E-1.42500
;WIPE_END
G1 E-0.07500 F3600.000
G1 X125.558 Y105.232 F9000.000
G1 E5.00000 F2400.000
;TYPE:External perimeter
G1 F1200.000
G1 X125.402 Y105.667 E0.01449
G1 X125.067 Y106.378 E0.02466
G1 X124.662 Y107.052 E0.02464
G1 X124.194 Y107.683 E0.02465
G1 X123.666 Y108.266 E0.02466
G1 X123.083 Y108.794 E0.02466
G1 X122.452 Y109.262 E0.02465
G1 X121.778 Y109.667 E0.02464
G1 X121.067 Y110.002 E0.02466
G1 X120.326 Y110.268 E0.02468
G1 X119.563 Y110.459 E0.02466
G1 X118.786 Y110.574 E0.02463
G1 X118.000 Y110.613 E0.02466
G1 X117.214 Y110.574 E0.02466
G1 X116.437 Y110.459 E0.02463
G1 X115.674 Y110.268 E0.02466
G1 X114.933 Y110.002 E0.02468
G1 X114.222 Y109.667 E0.02466
G1 X113.548 Y109.262 E0.02464
G1 X112.917 Y108.794 E0.02465
G1 X112.334 Y108.266 E0.02466
G1 X111.806 Y107.683 E0.02466
G1 X111.338 Y107.052 E0.02465
G1 X110.933 Y106.378 E0.02464
G1 X110.598 Y105.667 E0.02466
G1 X110.332 Y104.926 E0.02468
G1 X110.141 Y104.163 E0.02466
G1 X110.026 Y103.386 E0.02463
G1 X109.987 Y102.600 E0.02466
G1 X110.026 Y101.814 E0.02466
G1 X110.141 Y101.037 E0.02463
G1 X110.332 Y100.274 E0.02466
G1 X110.598 Y99.533 E0.02468
G1 X110.933 Y98.822 E0.02466
G1 X111.338 Y98.148 E0.02464
G1 X111.806 Y97.517 E0.02465
G1 X112.334 Y96.934 E0.02466
G1 X112.917 Y96.406 E0.02466
G1 X113.548 Y95.938 E0.02465
G1 X114.222 Y95.533 E0.02464
G1 X114.933 Y95.198 E0.02466
G1 X115.674 Y94.932 E0.02468
G1 X116.439 Y94.740 E0.02470
G1 X117.324 Y94.621 E0.02801
G1 X118.000 Y94.588 E0.02123
G1 X118.785 Y94.626 E0.02465
G1 X119.563 Y94.741 E0.02464
G1 X120.326 Y94.932 E0.02466
G1 X121.067 Y95.198 E0.02468
G1 X121.778 Y95.533 E0.02466
G1 X122.452 Y95.938 E0.02464
G1 X123.083 Y96.406 E0.02465
G1 X123.666 Y96.934 E0.02466
G1 X124.194 Y97.517 E0.02466
G1 X124.662 Y98.148 E0.02465
G1 X125.067 Y98.822 E0.02464
G1 X125.402 Y99.533 E0.02466
G1 X125.668 Y100.274 E0.02468
G1 X125.859 Y101.037 E0.02466
G1 X125.974 Y101.814 E0.02463
G1 X126.013 Y102.600 E0.02466
G1 X125.974 Y103.386 E0.02466
G1 X125.859 Y104.163 E0.02463
G1 X125.668 Y104.926 E0.02466
G1 X125.579 Y105.175 E0.00831
G1 X125.824 Y105.531 F9000.000
G1 X125.934 Y105.302
;TYPE:Perimeter
G1 F1200.000
G1 X125.751 Y105.811 E0.01694
G1 X125.400 Y106.556 E0.02582
G1 X124.976 Y107.261 E0.02580
G1 X124.486 Y107.923 E0.02581
G1 X123.933 Y108.533 E0.02583
G1 X123.323 Y109.086 E0.02583
G1 X122.661 Y109.576 E0.02581
G1 X121.956 Y110.000 E0.02580
G1 X121.211 Y110.351 E0.02582
G1 X120.435 Y110.629 E0.02584
G1 X119.636 Y110.830 E0.02583
G1 X118.823 Y110.950 E0.02579
G1 X118.000 Y110.991 E0.02582
G1 X117.177 Y110.950 E0.02582
G1 X116.364 Y110.830 E0.02579
G1 X115.565 Y110.629 E0.02583
G1 X114.789 Y110.351 E0.02584
G1 X114.044 Y110.000 E0.02582
G1 X113.339 Y109.576 E0.02580
G1 X112.677 Y109.086 E0.02581
G1 X112.067 Y108.533 E0.02583
G1 X111.514 Y107.923 E0.02583
G1 X111.024 Y107.261 E0.02581
G1 X110.600 Y106.556 E0.02580
G1 X110.249 Y105.811 E0.02582
G1 X109.971 Y105.035 E0.02584
G1 X109.770 Y104.236 E0.02583
G1 X109.650 Y103.423 E0.02579
G1 X109.609 Y102.600 E0.02582
G1 X109.650 Y101.777 E0.02582
G1 X109.770 Y100.964 E0.02579
G1 X109.971 Y100.165 E0.02583
G1 X110.249 Y99.389 E0.02584
G1 X110.600 Y98.644 E0.02582
G1 X111.024 Y97.939 E0.02580
G1 X111.514 Y97.277 E0.02581
G1 X112.067 Y96.667 E0.02583
G1 X112.677 Y96.114 E0.02583
G1 X113.339 Y95.624 E0.02581
G1 X114.044 Y95.200 E0.02580
G1 X114.789 Y94.849 E0.02582
G1 X115.565 Y94.571 E0.02584
G1 X116.367 Y94.369 E0.02594
G1 X117.289 Y94.245 E0.02917
G1 X118.000 Y94.210 E0.02231
G1 X118.822 Y94.250 E0.02581
G1 X119.636 Y94.370 E0.02580
G1 X120.435 Y94.571 E0.02583
G1 X121.211 Y94.849 E0.02584
G1 X121.956 Y95.200 E0.02582
G1 X122.661 Y95.624 E0.02580
G1 X123.323 Y96.114 E0.02581
G1 X123.933 Y96.667 E0.02583
G1 X124.486 Y97.277 E0.02583
G1 X124.976 Y97.939 E0.02581
G1 X125.400 Y98.644 E0.02580
G1 X125.751 Y99.389 E0.02582
G1 X126.029 Y100.165 E0.02584
G1 X126.230 Y100.964 E0.02583
G1 X126.350 Y101.777 E0.02579
G1 X126.391 Y102.600 E0.02582
G1 X126.350 Y103.423 E0.02582
G1 X126.230 Y104.236 E0.02579
G1 X126.029 Y105.035 E0.02583
G1 X125.954 Y105.246 E0.00701
G1 E-3.50000 F3600.000
;WIPE_START
G1 F7200.000
G1 X125.751 Y105.811 E-0.28518
G1 X125.400 Y106.556 E-0.39111
G1 X124.976 Y107.261 E-0.39090
G1 X124.528 Y107.866 E-0.35781
;WIPE_END
G1 E-0.07500 F3600.000
G1 X145.137 Y91.750 F9000.000
G1 E5.00000 F2400.000
;TYPE:Solid infill
;WIDTH:0.420419
G1 F1200.000
G1 X145.730 Y92.344 E0.02634
G1 X145.730 Y92.878 E0.01676
G1 X144.772 Y91.920 E0.04251
G1 X144.239 Y91.920 E0.01676
G1 X145.730 Y93.411 E0.06621
G1 X145.730 Y93.945 E0.01676
G1 X143.705 Y91.920 E0.08991
G1 X143.171 Y91.920 E0.01676
G1 X145.730 Y94.479 E0.11361
G1 X145.730 Y95.013 E0.01676
G1 X142.637 Y91.920 E0.13731
G1 X142.103 Y91.920 E0.01676
G1 X145.730 Y95.547 E0.16100
G1 X145.730 Y96.081 E0.01676
G1 X141.569 Y91.920 E0.18470
G1 X141.035 Y91.920 E0.01676
G1 X145.730 Y96.615 E0.20840
G1 X145.730 Y97.148 E0.01676
G1 X140.502 Y91.920 E0.23210
G1 X139.968 Y91.920 E0.01676
G1 X145.730 Y97.682 E0.25580
G1 X145.730 Y98.216 E0.01676
G1 X139.434 Y91.920 E0.27950
G1 X138.900 Y91.920 E0.01676
G1 X145.730 Y98.750 E0.30320
G1 X145.730 Y99.284 E0.01676
G1 X138.366 Y91.920 E0.32690
G1 X137.832 Y91.920 E0.01676
G1 X145.730 Y99.818 E0.35060
G1 X145.730 Y100.352 E0.01676
G1 X137.298 Y91.920 E0.37429
G1 X136.765 Y91.920 E0.01676
