; generated by PrusaSlicer 2.3.0-beta3+win64 on 2022-04-19 at 02:29:31 UTC

; 

; external perimeters extrusion width = 0.45mm
; perimeters extrusion width = 0.45mm
; infill extrusion width = 0.45mm
; solid infill extrusion width = 0.45mm
; top infill extrusion width = 0.40mm
; support material extrusion width = 0.38mm
; first layer extrusion width = 0.42mm

M201 X500 Y500 Z100 E5000 ; sets maximum accelerations, mm/sec^2
M203 X500 Y500 Z10 E60 ; sets maximum feedrates, mm/sec
M204 P500 R1000 T500 ; sets acceleration (P, T) and retract acceleration (R), mm/sec^2
M205 X8.00 Y8.00 Z0.40 E5.00 ; sets the jerk limits, mm/sec
M205 S0 T0 ; sets the minimum extruding and travel feed rate, mm/sec
M107
;TYPE:Custom
G90 ; use absolute coordinates
M83 ; extruder relative mode
M104 S210 ; set extruder temp
M140 S60 ; set bed temp
M190 S60 ; wait for bed temp
M109 S210 ; wait for extruder temp
G28 ; home all
G1 Z2 F240
G1 X2 Y10 F3000
G1 Z0.28 F240
G92 E0
G1 Y190 E15 F1500 ; intro line
G1 X2.3 F5000
G92 E0
G1 Y10 E15 F1200 ; intro line
G92 E0
G21 ; set units to millimeters
G90 ; use absolute coordinates
M83 ; use relative distances for extrusion
; Filament gcode
;LAYER_CHANGE
;Z:0.2
;HEIGHT:0.2
;BEFORE_LAYER_CHANGE
G92 E0
;0.2


G1 E-5.00000 F3600.000
G1 Z0.200 F9000.000
;AFTER_LAYER_CHANGE
;0.2
G1 X79.990 Y83.527
G1 E5.00000 F2400.000
;TYPE:Skirt
;WIDTH:0.42
G1 F900.000
G1 X82.697 Y80.976 E0.11661
G1 X84.025 Y80.348 E0.04606
G1 X84.336 Y80.280 E0.00997
G1 X84.715 Y80.146 E0.01260
G1 X85.825 Y79.948 E0.03538
G1 X149.978 Y79.952 E2.01147
G1 X151.732 Y80.366 E0.05648
G1 X153.312 Y81.320 E0.05789
G1 X156.447 Y84.501 E0.14003
G1 X157.147 Y85.748 E0.04483
G1 X157.486 Y87.083 E0.04318
G1 X157.502 Y88.241 E0.03633
G1 X157.383 Y88.982 E0.02352
G1 X157.377 Y89.759 E0.02437
G1 X157.389 Y149.286 E1.86644
G1 X156.957 Y150.981 E0.05484
G1 X156.010 Y152.473 E0.05542
G1 X153.303 Y155.024 E0.11661
G1 X151.975 Y155.652 E0.04606
G1 X151.664 Y155.720 E0.00997
G1 X151.285 Y155.854 E0.01260
G1 X150.175 Y156.052 E0.03538
G1 X86.051 Y156.052 E2.01054
G1 X84.234 Y155.621 E0.05857
G1 X82.678 Y154.670 E0.05717
G1 X79.510 Y151.441 E0.14184
G1 X78.803 Y150.129 E0.04671
G1 X78.495 Y148.700 E0.04583
G1 X78.501 Y147.701 E0.03132
G1 X78.617 Y147.012 E0.02193
G1 X78.623 Y146.241 E0.02416
G1 X78.611 Y86.714 E1.86644
G1 X79.043 Y85.019 E0.05484
G1 X79.958 Y83.577 E0.05353
G1 X80.266 Y83.785 F9000.000
G1 F900.000
G1 X82.887 Y81.304 E0.11314
G1 X84.127 Y80.712 E0.04310
G1 X84.441 Y80.643 E0.01007
G1 X84.798 Y80.514 E0.01190
G1 X85.843 Y80.325 E0.03328
G1 X149.956 Y80.329 E2.01023
G1 X151.615 Y80.726 E0.05348
G1 X153.060 Y81.602 E0.05299
G1 X156.132 Y84.709 E0.13699
G1 X156.789 Y85.867 E0.04173
G1 X157.109 Y87.111 E0.04028
G1 X157.124 Y88.229 E0.03507
G1 X157.006 Y88.949 E0.02287
G1 X157.000 Y89.758 E0.02535
G1 X157.012 Y149.262 E1.86572
G1 X156.600 Y150.858 E0.05167
G1 X155.734 Y152.215 E0.05049
G1 X153.113 Y154.696 E0.11314
G1 X151.872 Y155.288 E0.04310
G1 X151.559 Y155.357 E0.01006
G1 X151.202 Y155.486 E0.01190
G1 X150.158 Y155.675 E0.03328
G1 X86.073 Y155.675 E2.00933
G1 X84.403 Y155.283 E0.05377
G1 X82.930 Y154.388 E0.05405
G1 X79.828 Y151.237 E0.13865
G1 X79.166 Y150.022 E0.04339
G1 X78.872 Y148.681 E0.04302
G1 X78.878 Y147.720 E0.03016
G1 X78.994 Y147.046 E0.02144
G1 X79.000 Y146.242 E0.02518
G1 X78.988 Y86.738 E1.86572
G1 X79.400 Y85.142 E0.05167
G1 X80.234 Y83.835 E0.04861
G1 X80.543 Y84.041 F9000.000
G1 F900.000
G1 X83.077 Y81.630 E0.10966
G1 X84.230 Y81.075 E0.04012
G1 X84.548 Y81.005 E0.01020
G1 X84.883 Y80.882 E0.01120
G1 X85.860 Y80.702 E0.03114
G1 X149.934 Y80.707 E2.00901
G1 X151.446 Y81.064 E0.04871
G1 X152.809 Y81.884 E0.04988
G1 X155.817 Y84.918 E0.13396
G1 X156.430 Y85.987 E0.03863
G1 X156.732 Y87.139 E0.03734
G1 X156.747 Y88.217 E0.03380
G1 X156.629 Y88.916 E0.02222
G1 X156.623 Y89.756 E0.02636
G1 X156.635 Y149.239 E1.86503
G1 X156.265 Y150.681 E0.04670
G1 X155.456 Y151.959 E0.04740
G1 X152.923 Y154.370 E0.10966
G1 X151.770 Y154.925 E0.04012
G1 X151.452 Y154.995 E0.01020
G1 X151.117 Y155.118 E0.01120
G1 X150.140 Y155.298 E0.03114
G1 X86.095 Y155.298 E2.00808
G1 X84.520 Y154.923 E0.05077
G1 X83.182 Y154.107 E0.04914
G1 X80.145 Y151.031 E0.13553
G1 X79.528 Y149.913 E0.04006
G1 X79.250 Y148.662 E0.04017
G1 X79.255 Y147.738 E0.02898
G1 X79.371 Y147.080 E0.02094
G1 X79.377 Y146.244 E0.02623
G1 X79.365 Y86.761 E1.86503
G1 X79.735 Y85.319 E0.04670
G1 X80.511 Y84.092 E0.04552
G1 X80.821 Y84.298 F9000.000
G1 F900.000
G1 X83.269 Y81.956 E0.10623
G1 X84.333 Y81.439 E0.03711
G1 X84.656 Y81.368 E0.01037
G1 X84.970 Y81.249 E0.01051
G1 X85.878 Y81.079 E0.02896
G1 X149.912 Y81.084 E2.00774
G1 X151.329 Y81.424 E0.04571
G1 X152.558 Y82.166 E0.04502
G1 X155.504 Y85.129 E0.13100
G1 X156.073 Y86.109 E0.03554
G1 X156.356 Y87.168 E0.03436
G1 X156.370 Y88.204 E0.03249
G1 X156.252 Y88.881 E0.02154
G1 X156.245 Y89.755 E0.02739
G1 X156.258 Y149.214 E1.86432
G1 X155.908 Y150.557 E0.04351
G1 X155.179 Y151.702 E0.04254
G1 X152.731 Y154.044 E0.10623
G1 X151.667 Y154.561 E0.03711
G1 X151.344 Y154.632 E0.01037
G1 X151.030 Y154.751 E0.01051
G1 X150.122 Y154.921 E0.02896
G1 X86.117 Y154.921 E2.00685
G1 X84.689 Y154.585 E0.04598
G1 X83.433 Y153.825 E0.04603
G1 X80.461 Y150.824 E0.13242
G1 X79.889 Y149.802 E0.03673
G1 X79.627 Y148.642 E0.03728
G1 X79.632 Y147.757 E0.02777
G1 X79.748 Y147.116 E0.02042
G1 X79.754 Y146.245 E0.02730
G1 X79.742 Y86.786 E1.86432
G1 X80.092 Y85.443 E0.04351
G1 X80.788 Y84.349 E0.04066
G1 X81.099 Y84.553 F9000.000
G1 F900.000
G1 X83.462 Y82.281 E0.10279
G1 X84.437 Y81.802 E0.03406
G1 X84.766 Y81.730 E0.01058
G1 X85.059 Y81.616 E0.00983
G1 X85.896 Y81.456 E0.02673
G1 X149.890 Y81.461 E2.00649
G1 X151.161 Y81.762 E0.04096
G1 X152.308 Y82.449 E0.04192
G1 X155.191 Y85.341 E0.12804
G1 X155.716 Y86.234 E0.03246
G1 X155.979 Y87.198 E0.03133
G1 X155.993 Y88.191 E0.03115
G1 X155.876 Y88.846 E0.02086
G1 X155.868 Y89.753 E0.02845
G1 X155.881 Y149.191 E1.86362
G1 X155.573 Y150.381 E0.03856
G1 X154.901 Y151.446 E0.03948
G1 X152.538 Y153.719 E0.10279
G1 X151.563 Y154.198 E0.03406
G1 X151.233 Y154.270 E0.01058
G1 X150.941 Y154.384 E0.00982
G1 X150.104 Y154.544 E0.02672
G1 X86.139 Y154.544 E2.00557
G1 X84.806 Y154.225 E0.04298
G1 X83.685 Y153.543 E0.04116
G1 X80.778 Y150.618 E0.12931
G1 X80.232 Y149.642 E0.03505
G1 X80.004 Y148.624 E0.03272
G1 X80.009 Y147.776 E0.02657
G1 X80.124 Y147.152 E0.01989
G1 X80.132 Y146.247 E0.02840
G1 X80.119 Y86.809 E1.86362
G1 X80.427 Y85.619 E0.03856
G1 X81.067 Y84.604 E0.03760
G1 X81.377 Y84.809 F9000.000
G1 F900.000
G1 X83.657 Y82.606 E0.09941
G1 X84.541 Y82.165 E0.03098
G1 X84.879 Y82.091 E0.01084
G1 X85.150 Y81.983 E0.00915
G1 X85.914 Y81.833 E0.02443
G1 X149.867 Y81.838 E2.00520
G1 X151.044 Y82.122 E0.03796
G1 X152.058 Y82.732 E0.03710
G1 X154.879 Y85.553 E0.12509
G1 X155.378 Y86.403 E0.03092
G1 X155.602 Y87.227 E0.02675
G1 X155.615 Y88.177 E0.02981
G1 X155.499 Y88.809 E0.02016
G1 X155.491 Y89.752 E0.02955
G1 X155.504 Y149.166 E1.86289
G1 X155.216 Y150.257 E0.03536
G1 X154.623 Y151.191 E0.03470
G1 X152.343 Y153.394 E0.09941
G1 X151.459 Y153.835 E0.03098
G1 X151.121 Y153.909 E0.01084
G1 X150.850 Y154.017 E0.00914
G1 X150.086 Y154.167 E0.02443
G1 X86.161 Y154.167 E2.00432
G1 X84.975 Y153.887 E0.03821
G1 X83.935 Y153.260 E0.03807
G1 X81.092 Y150.409 E0.12624
G1 X80.593 Y149.530 E0.03169
G1 X80.381 Y148.604 E0.02980
G1 X80.386 Y147.796 E0.02532
G1 X80.501 Y147.190 E0.01935
G1 X80.509 Y146.248 E0.02953
G1 X80.496 Y86.834 E1.86289
G1 X80.784 Y85.743 E0.03536
G1 X81.345 Y84.860 E0.03282
G1 X81.656 Y85.063 F9000.000
G1 F900.000
G1 X83.853 Y82.929 E0.09603
G1 X84.646 Y82.528 E0.02785
G1 X84.994 Y82.452 E0.01117
G1 X85.243 Y82.348 E0.00847
G1 X85.933 Y82.210 E0.02207
G1 X149.845 Y82.215 E2.00392
G1 X150.876 Y82.461 E0.03323
G1 X151.808 Y83.016 E0.03400
G1 X154.594 Y85.802 E0.12355
G1 X155.040 Y86.570 E0.02785
G1 X155.225 Y87.255 E0.02225
G1 X155.238 Y88.163 E0.02845
G1 X155.122 Y88.772 E0.01944
G1 X155.114 Y89.750 E0.03068
G1 X155.127 Y149.142 E1.86219
G1 X154.881 Y150.081 E0.03043
G1 X154.344 Y150.937 E0.03169
G1 X152.147 Y153.071 E0.09603
G1 X151.354 Y153.472 E0.02785
G1 X151.006 Y153.548 E0.01117
G1 X150.757 Y153.652 E0.00847
G1 X150.067 Y153.790 E0.02207
G1 X86.182 Y153.790 E2.00305
G1 X85.142 Y153.548 E0.03347
G1 X84.185 Y152.977 E0.03496
G1 X81.406 Y150.198 E0.12321
G1 X80.953 Y149.416 E0.02832
G1 X80.758 Y148.583 E0.02682
G1 X80.763 Y147.817 E0.02404
G1 X80.878 Y147.228 E0.01879
G1 X80.886 Y146.250 E0.03069
G1 X80.873 Y86.858 E1.86219
G1 X81.119 Y85.919 E0.03043
G1 X81.624 Y85.114 E0.02981
G1 X81.935 Y85.318 F9000.000
G1 F900.000
G1 X84.051 Y83.251 E0.09273
G1 X84.751 Y82.891 E0.02468
G1 X85.111 Y82.812 E0.01156
G1 X85.340 Y82.713 E0.00780
G1 X85.953 Y82.588 E0.01963
G1 X149.824 Y82.592 E2.00263
G1 X150.710 Y82.800 E0.02855
G1 X151.558 Y83.300 E0.03086
G1 X154.309 Y86.050 E0.12197
G1 X154.700 Y86.736 E0.02474
G1 X154.849 Y87.284 E0.01782
G1 X154.861 Y88.151 E0.02719
G1 X154.786 Y88.574 E0.01346
G1 X154.745 Y88.695 E0.00400
G1 X154.737 Y89.749 E0.03304
G1 X154.750 Y149.117 E1.86144
G1 X154.525 Y149.955 E0.02721
G1 X154.065 Y150.682 E0.02699
G1 X151.949 Y152.749 E0.09273
G1 X151.249 Y153.109 E0.02468
G1 X150.889 Y153.188 E0.01156
G1 X150.660 Y153.287 E0.00780
G1 X150.047 Y153.412 E0.01963
G1 X86.205 Y153.412 E2.00173
G1 X85.258 Y153.188 E0.03050
G1 X84.435 Y152.694 E0.03010
G1 X81.691 Y149.950 E0.12168
G1 X81.295 Y149.254 E0.02509
G1 X81.136 Y148.564 E0.02222
G1 X81.140 Y147.834 E0.02289
G1 X81.214 Y147.424 E0.01305
G1 X81.255 Y147.305 E0.00395
G1 X81.263 Y146.251 E0.03304
G1 X81.250 Y86.883 E1.86144
G1 X81.475 Y86.045 E0.02721
G1 X81.903 Y85.368 E0.02511
G1 X82.216 Y85.570 F9000.000
G1 F900.000
G1 X84.249 Y83.573 E0.08935
G1 X84.898 Y83.239 E0.02290
G1 X85.227 Y83.174 E0.01052
G1 X85.440 Y83.077 E0.00732
G1 X85.973 Y82.965 E0.01709
G1 X149.803 Y82.969 E2.00133
G1 X150.546 Y83.141 E0.02392
G1 X151.310 Y83.584 E0.02767
G1 X154.024 Y86.298 E0.12034
G1 X154.359 Y86.899 E0.02158
G1 X154.472 Y87.313 E0.01346
G1 X154.483 Y88.137 E0.02584
G1 X154.419 Y88.488 E0.01116
G1 X154.369 Y88.625 E0.00458
G1 X154.360 Y89.747 E0.03520
G1 X154.372 Y149.093 E1.86072
G1 X154.190 Y149.780 E0.02229
G1 X153.784 Y150.430 E0.02403
G1 X151.751 Y152.427 E0.08935
G1 X151.102 Y152.760 E0.02290
G1 X150.773 Y152.826 E0.01052
G1 X150.560 Y152.923 E0.00732
G1 X150.027 Y153.035 E0.01709
G1 X86.226 Y153.035 E2.00043
G1 X85.425 Y152.848 E0.02580
G1 X84.684 Y152.410 E0.02697
G1 X81.976 Y149.702 E0.12008
G1 X81.638 Y149.095 E0.02179
G1 X81.513 Y148.545 E0.01769
G1 X81.517 Y147.854 E0.02168
G1 X81.581 Y147.512 E0.01090
G1 X81.631 Y147.375 E0.00456
G1 X81.640 Y146.252 E0.03520
G1 X81.628 Y86.907 E1.86072
G1 X81.810 Y86.220 E0.02229
G1 X82.184 Y85.621 E0.02215
G1 X82.496 Y85.823 F9000.000
G1 F900.000
G1 X84.450 Y83.893 E0.08610
G1 X85.000 Y83.604 E0.01949
G1 X85.350 Y83.534 E0.01119
G1 X85.545 Y83.440 E0.00678
G1 X85.994 Y83.342 E0.01443
G1 X149.743 Y83.342 E1.99879
G1 X150.386 Y83.483 E0.02064
G1 X151.061 Y83.869 E0.02439
G1 X153.737 Y86.545 E0.11866
G1 X154.018 Y87.059 E0.01838
G1 X154.095 Y87.343 E0.00921
G1 X154.106 Y88.122 E0.02445
G1 X154.053 Y88.396 E0.00873
G1 X153.992 Y88.550 E0.00519
G1 X153.983 Y89.746 E0.03751
G1 X153.995 Y149.066 E1.85995
G1 X153.834 Y149.652 E0.01904
G1 X153.504 Y150.177 E0.01945
G1 X151.550 Y152.107 E0.08610
G1 X151.000 Y152.396 E0.01949
G1 X150.650 Y152.466 E0.01119
G1 X150.455 Y152.560 E0.00678
G1 X150.006 Y152.658 E0.01443
G1 X86.249 Y152.658 E1.99906
G1 X85.541 Y152.489 E0.02281
G1 X84.935 Y152.127 E0.02214
G1 X82.263 Y149.455 E0.11848
G1 X81.982 Y148.939 E0.01842
G1 X81.890 Y148.526 E0.01326
G1 X81.894 Y147.874 E0.02044
G1 X81.947 Y147.604 E0.00863
G1 X82.008 Y147.450 E0.00519
G1 X82.017 Y146.254 E0.03751
G1 X82.005 Y86.934 E1.85995
G1 X82.166 Y86.348 E0.01904
G1 X82.464 Y85.874 E0.01757
G1 X82.780 Y86.078 F9000.000
G1 F900.000
G1 X83.043 Y85.834 E0.01124
G1 X83.112 Y85.740 E0.00366
G1 X84.650 Y84.214 E0.06796
G1 X85.147 Y83.952 E0.01760
G1 X85.471 Y83.896 E0.01032
G1 X85.655 Y83.802 E0.00649
G1 X86.017 Y83.719 E0.01162
G1 X87.286 Y83.719 E0.03979
G1 X87.410 Y83.739 E0.00395
G1 X87.526 Y83.719 E0.00368
G1 X88.809 Y83.719 E0.04025
G1 X88.934 Y83.739 E0.00395
G1 X89.049 Y83.719 E0.00368
G1 X90.333 Y83.719 E0.04025
G1 X90.457 Y83.739 E0.00395
G1 X90.573 Y83.719 E0.00368
G1 X91.857 Y83.719 E0.04025
G1 X91.981 Y83.739 E0.00395
G1 X92.097 Y83.719 E0.00368
G1 X93.380 Y83.719 E0.04025
G1 X93.505 Y83.739 E0.00395
G1 X93.620 Y83.719 E0.00368
G1 X94.904 Y83.719 E0.04025
G1 X95.028 Y83.739 E0.00395
G1 X95.144 Y83.719 E0.00368
G1 X96.427 Y83.719 E0.04025
G1 X96.552 Y83.739 E0.00395
G1 X96.667 Y83.719 E0.00368
G1 X97.951 Y83.719 E0.04025
G1 X98.075 Y83.739 E0.00395
G1 X98.191 Y83.719 E0.00368
G1 X99.475 Y83.719 E0.04025
G1 X99.599 Y83.739 E0.00395
G1 X99.715 Y83.719 E0.00368
G1 X100.998 Y83.719 E0.04025
G1 X101.123 Y83.739 E0.00395
G1 X101.238 Y83.719 E0.00368
G1 X102.522 Y83.719 E0.04025
G1 X102.646 Y83.739 E0.00395
G1 X102.762 Y83.719 E0.00368
G1 X104.046 Y83.719 E0.04025
G1 X104.170 Y83.739 E0.00395
G1 X104.286 Y83.719 E0.00368
G1 X105.569 Y83.719 E0.04025
G1 X105.694 Y83.739 E0.00395
G1 X105.809 Y83.719 E0.00368
G1 X107.093 Y83.719 E0.04025
G1 X107.217 Y83.739 E0.00395
G1 X107.333 Y83.719 E0.00368
G1 X108.616 Y83.719 E0.04025
G1 X108.741 Y83.739 E0.00395
G1 X108.856 Y83.719 E0.00368
G1 X110.140 Y83.719 E0.04025
G1 X110.264 Y83.739 E0.00395
G1 X110.380 Y83.719 E0.00368
G1 X111.664 Y83.719 E0.04025
G1 X111.788 Y83.739 E0.00395
G1 X111.904 Y83.719 E0.00368
G1 X113.187 Y83.719 E0.04025
G1 X113.312 Y83.739 E0.00395
G1 X113.427 Y83.719 E0.00368
G1 X114.711 Y83.719 E0.04025
G1 X114.835 Y83.739 E0.00395
G1 X114.951 Y83.719 E0.00368
G1 X116.235 Y83.719 E0.04025
G1 X116.359 Y83.739 E0.00395
G1 X116.475 Y83.719 E0.00368
G1 X117.758 Y83.719 E0.04025
G1 X117.883 Y83.739 E0.00395
G1 X117.998 Y83.719 E0.00368
G1 X119.282 Y83.719 E0.04025
G1 X119.406 Y83.739 E0.00395
G1 X119.522 Y83.719 E0.00368
G1 X120.806 Y83.719 E0.04025
G1 X120.930 Y83.739 E0.00395
G1 X121.045 Y83.719 E0.00368
G1 X122.329 Y83.719 E0.04025
G1 X122.454 Y83.739 E0.00395
G1 X122.569 Y83.719 E0.00368
G1 X123.853 Y83.719 E0.04025
G1 X123.977 Y83.739 E0.00395
G1 X124.093 Y83.719 E0.00368
G1 X125.376 Y83.719 E0.04025
G1 X125.501 Y83.739 E0.00395
G1 X125.616 Y83.719 E0.00368
G1 X126.900 Y83.719 E0.04025
G1 X127.024 Y83.739 E0.00395
G1 X127.140 Y83.719 E0.00368
G1 X128.424 Y83.719 E0.04025
G1 X128.548 Y83.739 E0.00395
G1 X128.664 Y83.719 E0.00368
G1 X129.947 Y83.719 E0.04025
G1 X130.072 Y83.739 E0.00395
G1 X130.187 Y83.719 E0.00368
G1 X131.471 Y83.719 E0.04025
G1 X131.595 Y83.739 E0.00395
G1 X131.711 Y83.719 E0.00368
G1 X132.995 Y83.719 E0.04025
G1 X133.119 Y83.739 E0.00395
G1 X133.235 Y83.719 E0.00368
G1 X134.518 Y83.719 E0.04025
G1 X134.643 Y83.739 E0.00395
G1 X134.758 Y83.719 E0.00368
G1 X136.042 Y83.719 E0.04025
G1 X136.166 Y83.739 E0.00395
G1 X136.282 Y83.719 E0.00368
G1 X137.565 Y83.719 E0.04025
G1 X137.690 Y83.739 E0.00395
G1 X137.805 Y83.719 E0.00368
G1 X139.089 Y83.719 E0.04025
G1 X139.213 Y83.739 E0.00395
G1 X139.329 Y83.719 E0.00368
G1 X140.613 Y83.719 E0.04025
G1 X140.737 Y83.739 E0.00395
G1 X140.853 Y83.719 E0.00368
G1 X142.136 Y83.719 E0.04025
G1 X142.261 Y83.739 E0.00395
G1 X142.376 Y83.719 E0.00368
G1 X143.660 Y83.719 E0.04025
G1 X143.784 Y83.739 E0.00395
G1 X143.900 Y83.719 E0.00368
G1 X145.184 Y83.719 E0.04025
G1 X145.308 Y83.739 E0.00395
G1 X145.424 Y83.719 E0.00368
G1 X146.707 Y83.719 E0.04025
G1 X146.832 Y83.739 E0.00395
G1 X146.947 Y83.719 E0.00368
G1 X148.231 Y83.719 E0.04025
G1 X148.355 Y83.739 E0.00395
G1 X148.471 Y83.719 E0.00368
G1 X149.724 Y83.719 E0.03928
G1 X150.227 Y83.826 E0.01616
G1 X150.813 Y84.154 E0.02106
G1 X153.450 Y86.791 E0.11689
G1 X153.673 Y87.214 E0.01500
G1 X153.724 Y87.412 E0.00643
G1 X153.729 Y88.103 E0.02165
G1 X153.688 Y88.297 E0.00623
G1 X153.615 Y88.473 E0.00597
G1 X153.618 Y89.627 E0.03617
G1 X153.598 Y89.744 E0.00373
G1 X153.618 Y89.868 E0.00396
G1 X153.618 Y91.152 E0.04025
G1 X153.598 Y91.267 E0.00368
G1 X153.618 Y91.392 E0.00395
