; generated by PrusaSlicer 2.3.0-beta3+win64 on 2022-04-07 at 16:18:52 UTC

; 

; external perimeters extrusion width = 0.45mm
; perimeters extrusion width = 0.45mm
; infill extrusion width = 0.45mm
; solid infill extrusion width = 0.45mm
; top infill extrusion width = 0.40mm
; support material extrusion width = 0.38mm
; first layer extrusion width = 0.42mm

M201 X500 Y500 Z100 E5000 ; sets maximum accelerations, mm/sec^2
M203 X500 Y500 Z10 E60 ; sets maximum feedrates, mm/sec
M204 P500 R1000 T500 ; sets acceleration (P, T) and retract acceleration (R), mm/sec^2
M205 X8.00 Y8.00 Z0.40 E5.00 ; sets the jerk limits, mm/sec
M205 S0 T0 ; sets the minimum extruding and travel feed rate, mm/sec
M107
;TYPE:Custom
G90 ; use absolute coordinates
M83 ; extruder relative mode
M104 S220 ; set extruder temp
M140 S65 ; set bed temp
M190 S65 ; wait for bed temp
M109 S220 ; wait for extruder temp
G28 ; home all
G1 Z2 F240
G1 X2 Y10 F3000
G1 Z0.28 F240
G92 E0
G1 Y190 E15 F1500 ; intro line
G1 X2.3 F5000
G92 E0
G1 Y10 E15 F1200 ; intro line
G92 E0
G21 ; set units to millimeters
G90 ; use absolute coordinates
M83 ; use relative distances for extrusion
; Filament gcode
;LAYER_CHANGE
;Z:0.2
;HEIGHT:0.2
;BEFORE_LAYER_CHANGE
G92 E0
;0.2


G1 E-5.00000 F3600.000
G1 Z0.200 F9000.000
;AFTER_LAYER_CHANGE
;0.2
G1 X101.574 Y93.236
G1 E5.00000 F2400.000
;TYPE:Skirt
;WIDTH:0.42
G1 F1200.000
G1 X102.199 Y92.568 E0.02867
G1 X102.446 Y92.377 E0.00979
G1 X103.185 Y91.601 E0.03359
G1 X103.869 Y91.185 E0.02512
G1 X104.842 Y90.364 E0.03991
G1 X105.586 Y90.008 E0.02585
G1 X106.562 Y89.730 E0.03182
G1 X129.316 Y89.714 E0.71344
G1 X130.274 Y89.950 E0.03093
G1 X131.193 Y90.389 E0.03195
G1 X132.117 Y91.177 E0.03805
G1 X132.940 Y91.704 E0.03065
G1 X133.556 Y92.378 E0.02863
G1 X133.801 Y92.568 E0.00972
G1 X134.426 Y93.236 E0.02867
G1 X134.541 Y93.397 E0.00623
G1 X135.381 Y94.343 E0.03966
G1 X135.871 Y95.281 E0.03317
G1 X136.191 Y96.580 E0.04197
G1 X136.197 Y138.786 E1.32333
G1 X135.621 Y140.577 E0.05897
G1 X135.101 Y141.290 E0.02767
G1 X134.519 Y141.872 E0.02581
G1 X133.851 Y142.362 E0.02599
G1 X132.600 Y142.852 E0.04211
G1 X131.341 Y142.969 E0.03964
G1 X104.754 Y142.972 E0.83362
G1 X103.509 Y142.876 E0.03916
G1 X102.361 Y142.474 E0.03813
G1 X101.419 Y141.813 E0.03609
G1 X100.538 Y140.830 E0.04138
G1 X100.101 Y139.974 E0.03015
G1 X99.803 Y138.751 E0.03945
G1 X99.803 Y96.598 E1.32169
G1 X100.419 Y94.641 E0.06431
G1 X100.822 Y94.071 E0.02191
G1 X101.451 Y93.408 E0.02863
G1 X101.539 Y93.284 E0.00477
G1 X101.847 Y93.500 F9000.000
G1 F1200.000
G1 X102.463 Y92.838 E0.02835
G1 X102.699 Y92.658 E0.00930
G1 X103.403 Y91.910 E0.03222
G1 X104.091 Y91.491 E0.02526
G1 X105.028 Y90.693 E0.03860
G1 X105.705 Y90.366 E0.02356
G1 X106.640 Y90.100 E0.03048
G1 X129.248 Y90.086 E0.70886
G1 X130.164 Y90.312 E0.02958
G1 X131.007 Y90.718 E0.02932
G1 X131.892 Y91.481 E0.03664
G1 X132.679 Y91.978 E0.02919
G1 X133.301 Y92.658 E0.02891
G1 X133.537 Y92.838 E0.00929
G1 X134.141 Y93.483 E0.02771
G1 X134.245 Y93.632 E0.00569
G1 X135.059 Y94.541 E0.03825
G1 X135.511 Y95.394 E0.03027
G1 X135.820 Y96.648 E0.04051
G1 X135.820 Y138.757 E1.32028
G1 X135.298 Y140.380 E0.05344
G1 X134.824 Y141.034 E0.02534
G1 X134.263 Y141.594 E0.02487
G1 X133.649 Y142.042 E0.02383
G1 X132.490 Y142.490 E0.03896
G1 X131.317 Y142.593 E0.03692
G1 X104.760 Y142.595 E0.83267
G1 X103.610 Y142.512 E0.03617
G1 X102.511 Y142.126 E0.03650
G1 X101.685 Y141.545 E0.03166
G1 X100.835 Y140.597 E0.03993
G1 X100.462 Y139.862 E0.02585
G1 X100.180 Y138.728 E0.03664
G1 X100.180 Y96.626 E1.32006
G1 X100.743 Y94.835 E0.05889
G1 X101.122 Y94.300 E0.02055
G1 X101.744 Y93.648 E0.02826
G1 X101.813 Y93.549 E0.00377
G1 X102.123 Y93.761 F9000.000
G1 F1200.000
G1 X102.726 Y93.108 E0.02787
G1 X102.952 Y92.940 E0.00882
G1 X103.622 Y92.218 E0.03089
G1 X104.314 Y91.797 E0.02541
G1 X105.216 Y91.021 E0.03731
G1 X105.825 Y90.724 E0.02122
G1 X106.718 Y90.470 E0.02913
G1 X129.182 Y90.458 E0.70433
G1 X130.019 Y90.660 E0.02701
G1 X130.820 Y91.046 E0.02787
G1 X131.667 Y91.785 E0.03526
G1 X132.419 Y92.252 E0.02774
G1 X133.048 Y92.940 E0.02923
G1 X133.274 Y93.108 E0.00884
G1 X133.855 Y93.729 E0.02666
G1 X133.968 Y93.895 E0.00628
G1 X134.057 Y93.971 E0.00369
G1 X134.737 Y94.738 E0.03214
G1 X135.151 Y95.509 E0.02743
G1 X135.443 Y96.672 E0.03759
G1 X135.443 Y138.726 E1.31858
G1 X134.950 Y140.232 E0.04968
G1 X134.548 Y140.776 E0.02121
G1 X134.007 Y141.317 E0.02398
G1 X133.448 Y141.722 E0.02163
G1 X132.382 Y142.128 E0.03578
G1 X131.295 Y142.216 E0.03420
G1 X104.767 Y142.218 E0.83175
G1 X103.663 Y142.138 E0.03471
G1 X102.663 Y141.780 E0.03330
G1 X101.951 Y141.277 E0.02735
G1 X101.159 Y140.402 E0.03700
G1 X100.822 Y139.747 E0.02308
G1 X100.557 Y138.704 E0.03376
G1 X100.557 Y96.655 E1.31841
G1 X101.068 Y95.029 E0.05346
G1 X101.421 Y94.529 E0.01918
G1 X102.038 Y93.885 E0.02795
G1 X102.089 Y93.811 E0.00283
G1 X102.402 Y94.019 F9000.000
G1 F1200.000
G1 X102.988 Y93.380 E0.02718
G1 X103.204 Y93.223 E0.00835
G1 X103.841 Y92.526 E0.02962
G1 X104.538 Y92.102 E0.02557
G1 X105.405 Y91.348 E0.03605
G1 X105.944 Y91.082 E0.01884
G1 X106.796 Y90.840 E0.02776
G1 X129.115 Y90.829 E0.69979
G1 X129.910 Y91.022 E0.02565
G1 X130.630 Y91.373 E0.02514
G1 X131.443 Y92.090 E0.03397
G1 X132.159 Y92.527 E0.02630
G1 X132.796 Y93.223 E0.02960
G1 X133.012 Y93.380 E0.00835
G1 X133.568 Y93.975 E0.02553
G1 X133.685 Y94.150 E0.00662
G1 X133.787 Y94.235 E0.00417
G1 X134.417 Y94.939 E0.02961
G1 X134.792 Y95.626 E0.02455
G1 X135.065 Y96.696 E0.03463
G1 X135.065 Y138.697 E1.31689
G1 X134.628 Y140.034 E0.04411
G1 X134.271 Y140.520 E0.01892
G1 X133.751 Y141.040 E0.02304
G1 X133.249 Y141.401 E0.01940
G1 X132.276 Y141.765 E0.03258
G1 X131.274 Y141.840 E0.03149
G1 X104.773 Y141.841 E0.83094
G1 X103.765 Y141.774 E0.03168
G1 X102.815 Y141.434 E0.03164
G1 X102.215 Y141.008 E0.02307
G1 X101.481 Y140.205 E0.03411
G1 X101.181 Y139.631 E0.02030
G1 X100.934 Y138.679 E0.03082
G1 X100.934 Y96.684 E1.31674
G1 X101.393 Y95.221 E0.04806
G1 X101.707 Y94.776 E0.01706
G1 X102.218 Y94.230 E0.02347
G1 X102.315 Y94.150 E0.00394
G1 X102.369 Y94.069 E0.00305
G1 X102.686 Y94.272 F9000.000
G1 F1200.000
G1 X103.249 Y93.653 E0.02625
G1 X103.485 Y93.487 E0.00904
G1 X103.562 Y93.376 E0.00422
G1 X104.097 Y92.804 E0.02456
G1 X104.761 Y92.409 E0.02424
G1 X105.596 Y91.674 E0.03489
G1 X106.065 Y91.440 E0.01642
G1 X106.874 Y91.210 E0.02638
G1 X129.050 Y91.201 E0.69531
G1 X129.764 Y91.370 E0.02300
G1 X130.441 Y91.701 E0.02363
G1 X131.218 Y92.396 E0.03270
G1 X131.903 Y92.805 E0.02501
G1 X132.438 Y93.376 E0.02454
G1 X132.515 Y93.487 E0.00422
G1 X132.751 Y93.653 E0.00904
G1 X133.280 Y94.219 E0.02429
G1 X133.402 Y94.408 E0.00705
G1 X133.520 Y94.502 E0.00473
G1 X134.099 Y95.141 E0.02705
G1 X134.433 Y95.746 E0.02166
G1 X134.688 Y96.721 E0.03161
G1 X134.688 Y138.667 E1.31518
G1 X134.306 Y139.836 E0.03856
G1 X133.994 Y140.264 E0.01662
G1 X133.496 Y140.762 E0.02207
G1 X133.052 Y141.079 E0.01712
G1 X132.173 Y141.402 E0.02935
G1 X131.256 Y141.463 E0.02880
G1 X104.778 Y141.464 E0.83021
G1 X103.866 Y141.410 E0.02864
G1 X102.967 Y141.088 E0.02993
G1 X102.479 Y140.738 E0.01884
G1 X101.802 Y140.006 E0.03127
G1 X101.540 Y139.512 E0.01752
G1 X101.312 Y138.654 E0.02783
G1 X101.312 Y96.713 E1.31505
G1 X101.719 Y95.413 E0.04270
G1 X101.991 Y95.024 E0.01490
G1 X102.482 Y94.499 E0.02253
G1 X102.598 Y94.408 E0.00464
G1 X102.653 Y94.322 E0.00318
G1 X102.973 Y94.520 F9000.000
G1 F1200.000
G1 X103.509 Y93.927 E0.02506
G1 X103.760 Y93.757 E0.00950
G1 X103.850 Y93.621 E0.00512
G1 X104.353 Y93.083 E0.02309
G1 X105.020 Y92.694 E0.02422
G1 X105.092 Y92.609 E0.00350
G1 X105.788 Y91.999 E0.02901
G1 X106.186 Y91.797 E0.01399
G1 X106.952 Y91.579 E0.02498
G1 X128.985 Y91.573 E0.69081
G1 X129.656 Y91.732 E0.02161
G1 X130.249 Y92.026 E0.02078
G1 X130.994 Y92.702 E0.03154
G1 X131.647 Y93.083 E0.02371
G1 X132.150 Y93.621 E0.02308
G1 X132.240 Y93.757 E0.00511
G1 X132.491 Y93.927 E0.00950
G1 X132.991 Y94.461 E0.02294
G1 X133.118 Y94.667 E0.00759
G1 X133.255 Y94.771 E0.00540
G1 X133.782 Y95.346 E0.02445
G1 X134.076 Y95.867 E0.01876
G1 X134.311 Y96.746 E0.02852
G1 X134.311 Y138.635 E1.31341
G1 X133.959 Y139.685 E0.03472
G1 X133.718 Y140.006 E0.01257
G1 X133.241 Y140.483 E0.02117
G1 X132.856 Y140.756 E0.01480
G1 X132.072 Y141.037 E0.02611
G1 X131.240 Y141.086 E0.02612
G1 X104.782 Y141.087 E0.82959
G1 X103.963 Y141.044 E0.02570
G1 X103.162 Y140.765 E0.02660
G1 X102.740 Y140.465 E0.01622
G1 X102.121 Y139.804 E0.02842
G1 X101.897 Y139.390 E0.01474
G1 X101.689 Y138.628 E0.02477
G1 X101.689 Y96.741 E1.31334
G1 X102.046 Y95.604 E0.03737
G1 X102.276 Y95.271 E0.01271
G1 X102.745 Y94.770 E0.02150
G1 X102.882 Y94.667 E0.00538
G1 X102.942 Y94.571 E0.00356
G1 X103.265 Y94.761 F9000.000
G1 F1200.000
G1 X103.300 Y94.702 E0.00215
G1 X103.768 Y94.203 E0.02146
G1 X104.037 Y94.027 E0.01006
G1 X104.139 Y93.863 E0.00607
G1 X104.608 Y93.362 E0.02151
G1 X105.275 Y92.984 E0.02404
G1 X105.358 Y92.876 E0.00427
G1 X105.983 Y92.323 E0.02617
G1 X106.308 Y92.155 E0.01148
G1 X107.030 Y91.949 E0.02355
G1 X128.922 Y91.946 E0.68640
G1 X129.509 Y92.080 E0.01887
G1 X130.058 Y92.352 E0.01924
G1 X130.665 Y92.903 E0.02569
G1 X130.730 Y92.986 E0.00332
G1 X131.392 Y93.362 E0.02387
G1 X131.861 Y93.863 E0.02150
G1 X131.963 Y94.027 E0.00607
G1 X132.232 Y94.203 E0.01006
G1 X132.700 Y94.702 E0.02146
G1 X132.833 Y94.929 E0.00825
G1 X132.994 Y95.043 E0.00618
G1 X133.466 Y95.554 E0.02183
G1 X133.719 Y95.992 E0.01586
G1 X133.934 Y96.772 E0.02536
G1 X133.934 Y138.605 E1.31163
G1 X133.638 Y139.485 E0.02911
G1 X133.442 Y139.749 E0.01034
G1 X132.986 Y140.205 E0.02019
G1 X132.662 Y140.431 E0.01241
G1 X131.975 Y140.672 E0.02283
G1 X131.227 Y140.709 E0.02347
G1 X104.787 Y140.710 E0.82902
G1 X104.011 Y140.669 E0.02434
G1 X103.316 Y140.420 E0.02317
G1 X103.002 Y140.193 E0.01214
G1 X102.438 Y139.599 E0.02568
G1 X102.253 Y139.265 E0.01196
G1 X102.066 Y138.602 E0.02162
G1 X102.066 Y96.770 E1.31159
G1 X102.373 Y95.794 E0.03209
G1 X102.562 Y95.518 E0.01049
G1 X103.006 Y95.044 E0.02037
G1 X103.167 Y94.929 E0.00620
G1 X103.235 Y94.813 E0.00421
G1 X103.562 Y94.996 F9000.000
G1 F1200.000
G1 X103.593 Y94.942 E0.00196
G1 X104.025 Y94.480 E0.01983
G1 X104.316 Y94.299 E0.01075
G1 X104.431 Y94.104 E0.00710
G1 X104.862 Y93.643 E0.01980
G1 X105.535 Y93.272 E0.02408
G1 X105.629 Y93.140 E0.00508
G1 X106.181 Y92.644 E0.02326
G1 X106.431 Y92.512 E0.00888
G1 X107.108 Y92.319 E0.02208
G1 X128.899 Y92.323 E0.68324
G1 X129.399 Y92.441 E0.01609
G1 X129.864 Y92.676 E0.01634
G1 X130.391 Y93.163 E0.02251
G1 X130.470 Y93.273 E0.00424
G1 X131.138 Y93.643 E0.02393
G1 X131.569 Y94.104 E0.01980
G1 X131.684 Y94.299 E0.00710
G1 X131.975 Y94.480 E0.01075
G1 X132.407 Y94.942 E0.01983
G1 X132.548 Y95.193 E0.00902
G1 X132.735 Y95.319 E0.00709
G1 X133.153 Y95.766 E0.01919
G1 X133.364 Y96.121 E0.01294
G1 X133.557 Y96.799 E0.02212
G1 X133.557 Y138.574 E1.30981
G1 X133.317 Y139.285 E0.02354
G1 X133.165 Y139.493 E0.00808
G1 X132.732 Y139.925 E0.01916
G1 X132.471 Y140.105 E0.00995
G1 X131.881 Y140.306 E0.01954
G1 X131.217 Y140.332 E0.02083
G1 X104.792 Y140.332 E0.82854
G1 X104.061 Y140.294 E0.02295
G1 X103.474 Y140.076 E0.01963
G1 X103.263 Y139.921 E0.00823
G1 X102.753 Y139.390 E0.02305
G1 X102.608 Y139.136 E0.00919
G1 X102.443 Y138.574 E0.01838
G1 X102.443 Y96.799 E1.30981
G1 X102.700 Y95.982 E0.02686
G1 X102.848 Y95.764 E0.00824
G1 X103.265 Y95.319 E0.01913
G1 X103.452 Y95.193 E0.00709
G1 X103.533 Y95.048 E0.00518
G1 X103.864 Y95.223 F9000.000
G1 F1200.000
G1 X104.280 Y94.759 E0.01953
G1 X104.598 Y94.572 E0.01158
G1 X104.724 Y94.342 E0.00822
G1 X105.115 Y93.924 E0.01795
G1 X105.801 Y93.558 E0.02438
G1 X105.904 Y93.399 E0.00593
G1 X106.382 Y92.963 E0.02029
G1 X106.559 Y92.867 E0.00631
G1 X107.136 Y92.696 E0.01887
G1 X128.877 Y92.700 E0.68167
G1 X129.248 Y92.788 E0.01196
G1 X129.668 Y93.000 E0.01476
G1 X130.112 Y93.418 E0.01909
G1 X130.201 Y93.558 E0.00522
G1 X130.885 Y93.924 E0.02430
G1 X131.276 Y94.342 E0.01795
G1 X131.402 Y94.572 E0.00822
G1 X131.720 Y94.759 E0.01158
G1 X132.113 Y95.179 E0.01804
G1 X132.261 Y95.459 E0.00993
G1 X132.479 Y95.596 E0.00808
G1 X132.865 Y96.009 E0.01771
G1 X133.010 Y96.252 E0.00887
G1 X133.180 Y96.827 E0.01883
G1 X133.180 Y138.543 E1.30795
G1 X132.995 Y139.088 E0.01806
G1 X132.887 Y139.238 E0.00579
G1 X132.479 Y139.645 E0.01807
G1 X132.281 Y139.779 E0.00748
G1 X131.838 Y139.930 E0.01469
G1 X131.206 Y139.955 E0.01985
G1 X104.794 Y139.955 E0.82810
G1 X104.159 Y139.929 E0.01994
G1 X103.672 Y139.754 E0.01624
G1 X103.520 Y139.645 E0.00586
G1 X103.065 Y139.178 E0.02044
G1 X102.961 Y139.001 E0.00643
G1 X102.820 Y138.544 E0.01500
G1 X102.820 Y96.828 E1.30797
G1 X103.029 Y96.168 E0.02172
G1 X103.134 Y96.010 E0.00595
G1 X103.521 Y95.596 E0.01776
G1 X103.739 Y95.459 E0.00808
G1 X103.836 Y95.276 E0.00651
G1 X104.171 Y95.440 F9000.000
G1 F1200.000
G1 X104.533 Y95.040 E0.01691
G1 X104.884 Y94.847 E0.01257
G1 X105.020 Y94.577 E0.00945
G1 X105.370 Y94.204 E0.01604
G1 X105.823 Y93.961 E0.01614
G1 X106.030 Y93.923 E0.00659
G1 X106.185 Y93.653 E0.00977
G1 X106.590 Y93.279 E0.01726
G1 X106.693 Y93.220 E0.00374
G1 X107.166 Y93.073 E0.01552
G1 X128.855 Y93.077 E0.68005
G1 X129.098 Y93.134 E0.00782
G1 X129.472 Y93.323 E0.01313
G1 X129.825 Y93.665 E0.01542
G1 X129.970 Y93.923 E0.00927
G1 X130.177 Y93.961 E0.00658
G1 X130.630 Y94.204 E0.01614
G1 X130.980 Y94.577 E0.01604
G1 X131.116 Y94.847 E0.00945
G1 X131.467 Y95.040 E0.01257
G1 X131.817 Y95.414 E0.01606
G1 X131.971 Y95.730 E0.01102
G1 X132.225 Y95.877 E0.00917
G1 X132.576 Y96.252 E0.01613
G1 X132.657 Y96.387 E0.00492
G1 X132.803 Y96.857 E0.01544
G1 X132.803 Y138.511 E1.30603
G1 X132.671 Y138.894 E0.01270
G1 X132.608 Y138.983 E0.00345
G1 X132.227 Y139.364 E0.01686
G1 X132.098 Y139.448 E0.00484
G1 X131.754 Y139.561 E0.01136
G1 X131.297 Y139.561 E0.01434
G1 X131.182 Y139.578 E0.00364
G1 X104.818 Y139.578 E0.82661
G1 X104.703 Y139.561 E0.00364
G1 X104.247 Y139.561 E0.01429
G1 X103.865 Y139.429 E0.01270
G1 X103.775 Y139.366 E0.00343
G1 X103.373 Y138.959 E0.01795
G1 X103.311 Y138.859 E0.00371
G1 X103.197 Y138.512 E0.01144
G1 X103.197 Y96.858 E1.30604
G1 X103.360 Y96.351 E0.01670
G1 X103.422 Y96.254 E0.00360
G1 X103.775 Y95.877 E0.01622
G1 X104.028 Y95.730 E0.00918
G1 X104.144 Y95.494 E0.00825
G1 X104.482 Y95.647 F9000.000
G1 F1200.000
G1 X104.784 Y95.324 E0.01388
G1 X105.174 Y95.124 E0.01374
G1 X105.318 Y94.811 E0.01081
G1 X105.621 Y94.487 E0.01390
G1 X105.954 Y94.317 E0.01170
G1 X106.270 Y94.287 E0.00998
G1 X106.470 Y93.903 E0.01358
G1 X106.805 Y93.588 E0.01441
G1 X107.198 Y93.450 E0.01305
G1 X128.833 Y93.454 E0.67837
G1 X128.948 Y93.481 E0.00369
G1 X129.273 Y93.646 E0.01144
G1 X129.534 Y93.907 E0.01157
G1 X129.729 Y94.287 E0.01339
G1 X130.046 Y94.317 E0.01000
G1 X130.379 Y94.487 E0.01170
G1 X130.682 Y94.811 E0.01390
G1 X130.826 Y95.124 E0.01081
G1 X131.216 Y95.324 E0.01374
G1 X131.518 Y95.647 E0.01388
G1 X131.680 Y96.005 E0.01231
G1 X131.973 Y96.160 E0.01040
G1 X132.288 Y96.496 E0.01444
G1 X132.426 Y96.889 E0.01305
G1 X132.426 Y138.477 E1.30398
G1 X132.326 Y138.732 E0.00856
G1 X131.946 Y139.103 E0.01666
G1 X131.719 Y139.184 E0.00757
G1 X131.262 Y139.184 E0.01431
G1 X131.163 Y139.201 E0.00315
G1 X104.836 Y139.201 E0.82546
G1 X104.738 Y139.184 E0.00315
G1 X104.281 Y139.184 E0.01431
G1 X104.054 Y139.103 E0.00757
G1 X103.655 Y138.705 E0.01766
G1 X103.574 Y138.477 E0.00757
G1 X103.574 Y96.889 E1.30398
G1 X103.712 Y96.496 E0.01305
G1 X104.027 Y96.160 E0.01444
G1 X104.320 Y96.005 E0.01041
G1 X104.457 Y95.702 E0.01043
G1 X104.782 Y95.878 F9000.000
G1 F1200.000
G1 X105.033 Y95.610 E0.01150
G1 X105.239 Y95.513 E0.00714
G1 X105.532 Y95.487 E0.00924
G1 X105.558 Y95.189 E0.00939
G1 X105.619 Y95.041 E0.00504
G1 X105.870 Y94.773 E0.01150
G1 X106.071 Y94.678 E0.00698
G1 X106.633 Y94.659 E0.01761
G1 X106.659 Y94.357 E0.00951
G1 X106.756 Y94.151 E0.00714
G1 X107.020 Y93.904 E0.01135
G1 X107.233 Y93.827 E0.00708
G1 X128.781 Y93.827 E0.67564
G1 X129.032 Y93.937 E0.00856
G1 X129.243 Y94.148 E0.00936
G1 X129.341 Y94.357 E0.00724
G1 X129.367 Y94.659 E0.00951
G1 X129.929 Y94.678 E0.01762
G1 X130.130 Y94.773 E0.00698
