; generated by PrusaSlicer 2.3.0-beta3+win64 on 2022-04-07 at 05:09:34 UTC

; 

; external perimeters extrusion width = 0.45mm
; perimeters extrusion width = 0.45mm
; infill extrusion width = 0.45mm
; solid infill extrusion width = 0.45mm
; top infill extrusion width = 0.40mm
; support material extrusion width = 0.38mm
; first layer extrusion width = 0.42mm

M201 X500 Y500 Z100 E5000 ; sets maximum accelerations, mm/sec^2
M203 X500 Y500 Z10 E60 ; sets maximum feedrates, mm/sec
M204 P500 R1000 T500 ; sets acceleration (P, T) and retract acceleration (R), mm/sec^2
M205 X8.00 Y8.00 Z0.40 E5.00 ; sets the jerk limits, mm/sec
M205 S0 T0 ; sets the minimum extruding and travel feed rate, mm/sec
M107
;TYPE:Custom
G90 ; use absolute coordinates
M83 ; extruder relative mode
M104 S210 ; set extruder temp
M140 S55 ; set bed temp
M190 S55 ; wait for bed temp
M109 S210 ; wait for extruder temp
G28 ; home all
G1 Z2 F240
G1 X2 Y10 F3000
G1 Z0.28 F240
G92 E0
G1 Y190 E15 F1500 ; intro line
G1 X2.3 F5000
G92 E0
G1 Y10 E15 F1200 ; intro line
G92 E0
G21 ; set units to millimeters
G90 ; use absolute coordinates
M83 ; use relative distances for extrusion
; Filament gcode
;LAYER_CHANGE
;Z:0.2
;HEIGHT:0.2
;BEFORE_LAYER_CHANGE
G92 E0
;0.2


G1 E-5.00000 F3600.000
G1 Z0.200 F9000.000
;AFTER_LAYER_CHANGE
;0.2
G1 X97.912 Y92.078
G1 E5.00000 F2400.000
;TYPE:Skirt
;WIDTH:0.42
G1 F1200.000
G1 X102.543 Y87.447 E0.20533
G1 X104.089 Y86.462 E0.05748
G1 X105.658 Y86.050 E0.05087
G1 X130.034 Y86.050 E0.76428
G1 X130.979 Y86.180 E0.02994
G1 X132.985 Y87.200 E0.07055
G1 X138.355 Y92.570 E0.23813
G1 X139.182 Y94.096 E0.05441
G1 X139.368 Y95.099 E0.03199
G1 X139.364 Y95.997 E0.02815
G1 X139.247 Y96.691 E0.02206
G1 X139.241 Y97.514 E0.02581
G1 X139.253 Y139.737 E1.32389
G1 X138.884 Y141.259 E0.04909
G1 X138.035 Y142.638 E0.05077
G1 X135.904 Y144.769 E0.09448
G1 X134.151 Y145.731 E0.06271
G1 X133.398 Y145.891 E0.02413
G1 X132.608 Y145.943 E0.02484
G1 X132.312 Y145.927 E0.00928
G1 X103.113 Y145.903 E0.91551
G1 X101.702 Y145.512 E0.04592
G1 X100.486 Y144.748 E0.04504
G1 X97.645 Y141.906 E0.12599
G1 X96.819 Y140.384 E0.05431
G1 X96.640 Y139.459 E0.02952
G1 X96.633 Y138.525 E0.02930
G1 X96.753 Y137.789 E0.02339
G1 X96.759 Y136.962 E0.02591
G1 X96.757 Y95.914 E1.28703
G1 X96.743 Y95.700 E0.00672
G1 X96.769 Y94.806 E0.02804
G1 X96.909 Y93.966 E0.02670
G1 X97.884 Y92.131 E0.06515
G1 X98.198 Y92.325 F9000.000
G1 F1200.000
G1 X102.794 Y87.729 E0.20380
G1 X104.265 Y86.796 E0.05461
G1 X105.682 Y86.428 E0.04589
G1 X130.022 Y86.428 E0.76318
G1 X130.840 Y86.532 E0.02584
G1 X132.740 Y87.488 E0.06670
G1 X138.070 Y92.818 E0.23632
G1 X138.817 Y94.195 E0.04914
G1 X138.991 Y95.116 E0.02939
G1 X138.987 Y95.979 E0.02707
G1 X138.870 Y96.657 E0.02155
G1 X138.863 Y97.512 E0.02683
G1 X138.876 Y139.714 E1.32321
G1 X138.525 Y141.139 E0.04602
G1 X137.753 Y142.386 E0.04598
G1 X135.656 Y144.483 E0.09297
G1 X134.046 Y145.368 E0.05762
G1 X133.334 Y145.520 E0.02282
G1 X132.596 Y145.566 E0.02317
G1 X132.324 Y145.550 E0.00854
G1 X103.188 Y145.533 E0.91356
G1 X101.878 Y145.177 E0.04257
G1 X100.737 Y144.465 E0.04214
G1 X97.930 Y141.659 E0.12445
G1 X97.183 Y140.282 E0.04911
G1 X97.017 Y139.438 E0.02697
G1 X97.010 Y138.539 E0.02821
G1 X97.130 Y137.822 E0.02279
G1 X97.137 Y136.964 E0.02691
G1 X97.134 Y95.901 E1.28750
G1 X97.120 Y95.702 E0.00626
G1 X97.146 Y94.830 E0.02733
G1 X97.276 Y94.059 E0.02452
G1 X98.170 Y92.378 E0.05971
G1 X98.485 Y92.572 F9000.000
G1 F1200.000
G1 X103.046 Y88.011 E0.20226
G1 X104.441 Y87.131 E0.05171
G1 X105.705 Y86.805 E0.04094
G1 X130.010 Y86.805 E0.76206
G1 X130.760 Y86.902 E0.02369
G1 X132.495 Y87.776 E0.06092
G1 X137.784 Y93.065 E0.23453
G1 X138.452 Y94.295 E0.04390
G1 X138.613 Y95.133 E0.02675
G1 X138.610 Y95.961 E0.02597
G1 X138.493 Y96.622 E0.02103
G1 X138.486 Y97.511 E0.02788
G1 X138.499 Y139.692 E1.32256
G1 X138.188 Y140.968 E0.04116
G1 X137.470 Y142.136 E0.04298
G1 X135.408 Y144.198 E0.09143
G1 X133.940 Y145.005 E0.05254
G1 X133.269 Y145.148 E0.02150
G1 X132.586 Y145.189 E0.02146
G1 X132.338 Y145.173 E0.00781
G1 X103.260 Y145.162 E0.91170
G1 X102.052 Y144.841 E0.03921
G1 X100.988 Y144.183 E0.03921
G1 X98.216 Y141.411 E0.12291
G1 X97.548 Y140.181 E0.04390
G1 X97.390 Y139.383 E0.02549
G1 X97.387 Y138.554 E0.02600
G1 X97.507 Y137.856 E0.02222
G1 X97.514 Y136.965 E0.02793
G1 X97.511 Y95.886 E1.28800
G1 X97.498 Y95.702 E0.00579
G1 X97.522 Y94.855 E0.02658
G1 X97.642 Y94.153 E0.02232
G1 X98.456 Y92.625 E0.05429
G1 X98.771 Y92.819 F9000.000
G1 F1200.000
G1 X103.297 Y88.293 E0.20071
G1 X104.616 Y87.466 E0.04879
G1 X105.729 Y87.182 E0.03601
G1 X129.998 Y87.182 E0.76093
G1 X130.679 Y87.271 E0.02154
G1 X132.249 Y88.064 E0.05516
G1 X137.498 Y93.313 E0.23274
G1 X138.088 Y94.397 E0.03870
G1 X138.236 Y95.151 E0.02410
G1 X138.233 Y95.943 E0.02484
G1 X138.117 Y96.586 E0.02050
G1 X138.109 Y97.510 E0.02896
G1 X138.122 Y139.669 E1.32187
G1 X137.829 Y140.848 E0.03809
G1 X137.189 Y141.884 E0.03821
G1 X135.161 Y143.912 E0.08992
G1 X133.834 Y144.643 E0.04749
G1 X133.232 Y144.772 E0.01930
G1 X132.577 Y144.812 E0.02059
G1 X132.352 Y144.795 E0.00706
G1 X103.331 Y144.791 E0.90994
G1 X102.224 Y144.504 E0.03586
G1 X101.239 Y143.901 E0.03623
G1 X98.502 Y141.164 E0.12135
G1 X97.912 Y140.080 E0.03869
G1 X97.764 Y139.329 E0.02401
G1 X97.764 Y138.571 E0.02375
G1 X97.883 Y137.890 E0.02168
G1 X97.891 Y136.967 E0.02897
G1 X97.888 Y95.871 E1.28854
G1 X97.875 Y95.702 E0.00530
G1 X97.899 Y94.879 E0.02581
G1 X98.008 Y94.248 E0.02010
G1 X98.743 Y92.872 E0.04889
G1 X99.057 Y93.066 F9000.000
G1 F1200.000
G1 X103.549 Y88.575 E0.19915
G1 X104.790 Y87.802 E0.04585
G1 X105.752 Y87.559 E0.03111
G1 X129.985 Y87.559 E0.75980
G1 X130.597 Y87.641 E0.01936
G1 X132.004 Y88.352 E0.04942
G1 X137.212 Y93.560 E0.23095
G1 X137.724 Y94.499 E0.03354
G1 X137.859 Y95.169 E0.02141
G1 X137.856 Y95.927 E0.02378
G1 X137.778 Y96.395 E0.01487
G1 X137.740 Y96.515 E0.00395
G1 X137.732 Y97.508 E0.03114
G1 X137.745 Y139.645 E1.32117
G1 X137.471 Y140.726 E0.03497
G1 X136.907 Y141.633 E0.03348
G1 X134.913 Y143.627 E0.08842
G1 X133.727 Y144.280 E0.04244
G1 X133.167 Y144.400 E0.01797
G1 X132.569 Y144.435 E0.01878
G1 X132.368 Y144.418 E0.00632
G1 X103.400 Y144.420 E0.90829
G1 X102.394 Y144.167 E0.03250
G1 X101.489 Y143.618 E0.03320
G1 X98.788 Y140.916 E0.11978
G1 X98.276 Y139.977 E0.03354
G1 X98.141 Y139.310 E0.02135
G1 X98.141 Y138.585 E0.02271
G1 X98.222 Y138.085 E0.01589
G1 X98.260 Y137.961 E0.00405
G1 X98.268 Y136.968 E0.03115
G1 X98.265 Y95.853 E1.28912
G1 X98.252 Y95.701 E0.00478
G1 X98.275 Y94.904 E0.02500
G1 X98.374 Y94.343 E0.01787
G1 X99.029 Y93.119 E0.04352
G1 X99.343 Y93.313 F9000.000
G1 F1200.000
G1 X103.799 Y88.857 E0.19759
G1 X104.963 Y88.139 E0.04287
G1 X105.775 Y87.936 E0.02624
G1 X129.972 Y87.936 E0.75868
G1 X130.515 Y88.010 E0.01717
G1 X131.758 Y88.639 E0.04371
G1 X136.927 Y93.808 E0.22917
G1 X137.361 Y94.604 E0.02843
G1 X137.482 Y95.187 E0.01869
G1 X137.479 Y95.909 E0.02264
G1 X137.409 Y96.314 E0.01288
G1 X137.363 Y96.450 E0.00449
G1 X137.355 Y97.507 E0.03313
G1 X137.368 Y139.622 E1.32050
G1 X137.135 Y140.554 E0.03011
G1 X136.624 Y141.382 E0.03050
G1 X134.665 Y143.341 E0.08688
G1 X133.620 Y143.917 E0.03743
G1 X133.130 Y144.025 E0.01571
G1 X132.562 Y144.057 E0.01783
G1 X132.386 Y144.041 E0.00554
G1 X103.466 Y144.048 E0.90677
G1 X102.563 Y143.828 E0.02915
G1 X101.739 Y143.334 E0.03012
G1 X99.073 Y140.669 E0.11820
G1 X98.639 Y139.873 E0.02843
G1 X98.518 Y139.290 E0.01867
G1 X98.518 Y138.601 E0.02159
G1 X98.591 Y138.163 E0.01391
G1 X98.637 Y138.026 E0.00454
G1 X98.645 Y136.970 E0.03313
G1 X98.643 Y95.834 E1.28977
G1 X98.629 Y95.699 E0.00424
G1 X98.652 Y94.930 E0.02415
G1 X98.740 Y94.439 E0.01561
G1 X99.315 Y93.366 E0.03818
G1 X99.630 Y93.560 F9000.000
G1 F1200.000
G1 X104.050 Y89.140 E0.19602
G1 X105.134 Y88.476 E0.03986
G1 X105.797 Y88.313 E0.02140
G1 X129.958 Y88.313 E0.75756
G1 X130.431 Y88.379 E0.01497
G1 X131.513 Y88.927 E0.03802
G1 X136.641 Y94.055 E0.22739
G1 X136.998 Y94.710 E0.02339
G1 X137.105 Y95.207 E0.01593
G1 X137.102 Y95.891 E0.02145
G1 X137.041 Y96.230 E0.01079
G1 X136.987 Y96.381 E0.00505
G1 X136.978 Y97.505 E0.03525
G1 X136.990 Y139.598 E1.31979
G1 X136.777 Y140.432 E0.02697
G1 X136.343 Y141.130 E0.02580
G1 X134.417 Y143.056 E0.08538
G1 X133.511 Y143.556 E0.03246
G1 X133.093 Y143.649 E0.01343
G1 X132.557 Y143.680 E0.01681
G1 X132.407 Y143.664 E0.00473
G1 X103.530 Y143.676 E0.90543
G1 X102.729 Y143.489 E0.02579
G1 X101.988 Y143.050 E0.02697
G1 X99.359 Y140.421 E0.11659
G1 X99.002 Y139.766 E0.02339
G1 X98.895 Y139.269 E0.01594
G1 X98.895 Y138.618 E0.02043
G1 X98.959 Y138.246 E0.01182
G1 X99.013 Y138.095 E0.00502
G1 X99.022 Y136.971 E0.03525
G1 X99.020 Y95.812 E1.29052
G1 X99.007 Y95.696 E0.00366
G1 X99.028 Y94.955 E0.02323
G1 X99.105 Y94.537 E0.01333
G1 X99.601 Y93.613 E0.03288
G1 X99.916 Y93.807 F9000.000
G1 F1200.000
G1 X104.300 Y89.423 E0.19443
G1 X105.304 Y88.814 E0.03681
G1 X105.819 Y88.690 E0.01660
G1 X129.945 Y88.690 E0.75645
G1 X130.347 Y88.748 E0.01273
G1 X131.267 Y89.215 E0.03237
G1 X136.355 Y94.303 E0.22561
G1 X136.636 Y94.819 E0.01842
G1 X136.728 Y95.229 E0.01318
G1 X136.728 Y95.841 E0.01920
G1 X136.674 Y96.143 E0.00962
G1 X136.610 Y96.307 E0.00551
G1 X136.601 Y97.504 E0.03752
G1 X136.613 Y139.575 E1.31912
G1 X136.440 Y140.260 E0.02214
G1 X136.060 Y140.880 E0.02281
G1 X134.170 Y142.769 E0.08379
G1 X133.357 Y143.210 E0.02899
G1 X133.032 Y143.277 E0.01041
G1 X132.556 Y143.303 E0.01495
G1 X132.390 Y143.282 E0.00526
G1 X132.279 Y143.299 E0.00352
G1 X103.553 Y143.299 E0.90068
G1 X102.845 Y143.129 E0.02281
G1 X102.239 Y142.768 E0.02214
G1 X99.645 Y140.174 E0.11502
G1 X99.364 Y139.658 E0.01842
G1 X99.272 Y139.248 E0.01318
G1 X99.272 Y138.635 E0.01920
G1 X99.326 Y138.333 E0.00962
G1 X99.390 Y138.169 E0.00551
G1 X99.399 Y136.972 E0.03752
G1 X99.387 Y95.932 E1.28679
G1 X99.402 Y95.827 E0.00334
G1 X99.384 Y95.690 E0.00434
G1 X99.405 Y94.982 E0.02221
G1 X99.470 Y94.636 E0.01102
G1 X99.887 Y93.860 E0.02763
G1 X100.202 Y94.055 F9000.000
G1 F1200.000
G1 X104.546 Y89.710 E0.19265
G1 X105.478 Y89.150 E0.03407
G1 X105.839 Y89.067 E0.01163
G1 X107.108 Y89.067 E0.03979
G1 X107.233 Y89.088 E0.00395
G1 X107.348 Y89.067 E0.00368
G1 X108.632 Y89.067 E0.04025
G1 X108.756 Y89.088 E0.00395
G1 X108.872 Y89.067 E0.00368
G1 X110.156 Y89.067 E0.04025
G1 X110.280 Y89.088 E0.00395
G1 X110.396 Y89.067 E0.00368
G1 X111.679 Y89.067 E0.04025
G1 X111.804 Y89.088 E0.00395
G1 X111.919 Y89.067 E0.00368
G1 X113.203 Y89.067 E0.04025
G1 X113.327 Y89.088 E0.00395
G1 X113.443 Y89.067 E0.00368
G1 X114.727 Y89.067 E0.04025
G1 X114.851 Y89.088 E0.00395
G1 X114.967 Y89.067 E0.00368
G1 X116.250 Y89.067 E0.04025
G1 X116.375 Y89.088 E0.00395
G1 X116.490 Y89.067 E0.00368
G1 X117.774 Y89.067 E0.04025
G1 X117.898 Y89.088 E0.00395
G1 X118.014 Y89.067 E0.00368
G1 X119.297 Y89.067 E0.04025
G1 X119.422 Y89.088 E0.00395
G1 X119.537 Y89.067 E0.00368
G1 X120.821 Y89.067 E0.04025
G1 X120.945 Y89.088 E0.00395
G1 X121.061 Y89.067 E0.00368
G1 X122.345 Y89.067 E0.04025
G1 X122.469 Y89.088 E0.00395
G1 X122.585 Y89.067 E0.00368
G1 X123.868 Y89.067 E0.04025
G1 X123.993 Y89.088 E0.00395
G1 X124.108 Y89.067 E0.00368
G1 X125.392 Y89.067 E0.04025
G1 X125.516 Y89.088 E0.00395
G1 X125.632 Y89.067 E0.00368
G1 X126.916 Y89.067 E0.04025
G1 X127.040 Y89.088 E0.00395
G1 X127.156 Y89.067 E0.00368
G1 X128.439 Y89.067 E0.04025
G1 X128.564 Y89.088 E0.00395
G1 X128.679 Y89.067 E0.00368
G1 X129.930 Y89.067 E0.03923
G1 X130.261 Y89.116 E0.01047
G1 X131.022 Y89.502 E0.02675
G1 X136.068 Y94.548 E0.22375
G1 X136.290 Y94.970 E0.01496
G1 X136.351 Y95.248 E0.00892
G1 X136.351 Y95.823 E0.01801
G1 X136.308 Y96.051 E0.00728
G1 X136.233 Y96.231 E0.00613
G1 X136.236 Y97.384 E0.03615
G1 X136.216 Y97.501 E0.00373
G1 X136.236 Y97.626 E0.00396
G1 X136.236 Y98.910 E0.04025
G1 X136.216 Y99.025 E0.00368
G1 X136.236 Y99.150 E0.00395
G1 X136.236 Y100.433 E0.04025
G1 X136.216 Y100.549 E0.00368
G1 X136.236 Y100.673 E0.00395
G1 X136.236 Y101.957 E0.04025
G1 X136.216 Y102.072 E0.00368
G1 X136.236 Y102.197 E0.00395
G1 X136.236 Y103.480 E0.04025
G1 X136.216 Y103.596 E0.00368
G1 X136.236 Y103.720 E0.00395
G1 X136.236 Y105.004 E0.04025
G1 X136.216 Y105.120 E0.00368
G1 X136.236 Y105.244 E0.00395
G1 X136.236 Y106.528 E0.04025
G1 X136.216 Y106.643 E0.00368
G1 X136.236 Y106.768 E0.00395
G1 X136.236 Y108.051 E0.04025
G1 X136.216 Y108.167 E0.00368
G1 X136.236 Y108.291 E0.00395
G1 X136.236 Y109.575 E0.04025
G1 X136.216 Y109.691 E0.00368
G1 X136.236 Y109.815 E0.00395
G1 X136.236 Y111.099 E0.04025
G1 X136.216 Y111.214 E0.00368
G1 X136.236 Y111.339 E0.00395
G1 X136.236 Y112.622 E0.04025
G1 X136.216 Y112.738 E0.00368
G1 X136.236 Y112.862 E0.00395
G1 X136.236 Y114.146 E0.04025
G1 X136.216 Y114.262 E0.00368
G1 X136.236 Y114.386 E0.00395
G1 X136.236 Y115.670 E0.04025
G1 X136.216 Y115.785 E0.00368
G1 X136.236 Y115.910 E0.00395
G1 X136.236 Y117.193 E0.04025
G1 X136.216 Y117.309 E0.00368
G1 X136.236 Y117.433 E0.00395
G1 X136.236 Y118.717 E0.04025
G1 X136.216 Y118.832 E0.00368
G1 X136.236 Y118.957 E0.00395
G1 X136.236 Y120.240 E0.04025
G1 X136.216 Y120.356 E0.00368
G1 X136.236 Y120.480 E0.00395
G1 X136.236 Y121.764 E0.04025
G1 X136.216 Y121.880 E0.00368
G1 X136.236 Y122.004 E0.00395
G1 X136.236 Y123.288 E0.04025
G1 X136.216 Y123.403 E0.00368
G1 X136.236 Y123.528 E0.00395
G1 X136.236 Y124.811 E0.04025
G1 X136.216 Y124.927 E0.00368
G1 X136.236 Y125.051 E0.00395
G1 X136.236 Y126.335 E0.04025
G1 X136.216 Y126.451 E0.00368
G1 X136.236 Y126.575 E0.00395
G1 X136.236 Y127.859 E0.04025
G1 X136.216 Y127.974 E0.00368
G1 X136.236 Y128.099 E0.00395
G1 X136.236 Y129.382 E0.04025
G1 X136.216 Y129.498 E0.00368
G1 X136.236 Y129.622 E0.00395
G1 X136.236 Y130.906 E0.04025
G1 X136.216 Y131.022 E0.00368
G1 X136.236 Y131.146 E0.00395
G1 X136.236 Y132.430 E0.04025
G1 X136.216 Y132.545 E0.00368
G1 X136.236 Y132.670 E0.00395
G1 X136.236 Y133.953 E0.04025
G1 X136.216 Y134.069 E0.00368
G1 X136.236 Y134.193 E0.00395
G1 X136.236 Y135.477 E0.04025
G1 X136.216 Y135.592 E0.00368
G1 X136.236 Y135.717 E0.00395
G1 X136.236 Y137.000 E0.04025
G1 X136.216 Y137.116 E0.00368
G1 X136.236 Y137.240 E0.00395
G1 X136.236 Y138.524 E0.04025
G1 X136.216 Y138.640 E0.00368
G1 X136.236 Y138.764 E0.00395
G1 X136.236 Y139.550 E0.02465
G1 X136.083 Y140.136 E0.01898
G1 X135.778 Y140.628 E0.01816
G1 X133.923 Y142.484 E0.08226
G1 X133.252 Y142.847 E0.02393
G1 X132.997 Y142.901 E0.00818
G1 X132.557 Y142.925 E0.01381
G1 X132.382 Y142.899 E0.00554
G1 X132.258 Y142.922 E0.00395
G1 X130.975 Y142.922 E0.04025
G1 X130.850 Y142.901 E0.00395
G1 X130.735 Y142.922 E0.00368
G1 X129.451 Y142.922 E0.04025
G1 X129.327 Y142.901 E0.00395
G1 X129.211 Y142.922 E0.00368
G1 X127.928 Y142.922 E0.04025
G1 X127.803 Y142.901 E0.00395
G1 X127.688 Y142.922 E0.00368
G1 X126.404 Y142.922 E0.04025
G1 X126.280 Y142.901 E0.00395
G1 X126.164 Y142.922 E0.00368
G1 X124.880 Y142.922 E0.04025
G1 X124.756 Y142.901 E0.00395
G1 X124.640 Y142.922 E0.00368
G1 X123.357 Y142.922 E0.04025
G1 X123.232 Y142.901 E0.00395
G1 X123.117 Y142.922 E0.00368
G1 X121.833 Y142.922 E0.04025
G1 X121.709 Y142.901 E0.00395
G1 X121.593 Y142.922 E0.00368
G1 X120.309 Y142.922 E0.04025
G1 X120.185 Y142.901 E0.00395
G1 X120.069 Y142.922 E0.00368
G1 X118.786 Y142.922 E0.04025
G1 X118.661 Y142.901 E0.00395
G1 X118.546 Y142.922 E0.00368
G1 X117.262 Y142.922 E0.04025
G1 X117.138 Y142.901 E0.00395
G1 X117.022 Y142.922 E0.00368
G1 X115.739 Y142.922 E0.04025
G1 X115.614 Y142.901 E0.00395
G1 X115.499 Y142.922 E0.00368
G1 X114.215 Y142.922 E0.04025
G1 X114.091 Y142.901 E0.00395
G1 X113.975 Y142.922 E0.00368
G1 X112.691 Y142.922 E0.04025
G1 X112.567 Y142.901 E0.00395
G1 X112.451 Y142.922 E0.00368
G1 X111.168 Y142.922 E0.04025
G1 X111.043 Y142.901 E0.00395
G1 X110.928 Y142.922 E0.00368
G1 X109.644 Y142.922 E0.04025
G1 X109.520 Y142.901 E0.00395
G1 X109.404 Y142.922 E0.00368
G1 X108.120 Y142.922 E0.04025
G1 X107.996 Y142.901 E0.00395
G1 X107.880 Y142.922 E0.00368
G1 X106.597 Y142.922 E0.04025
G1 X106.472 Y142.901 E0.00395
G1 X106.357 Y142.922 E0.00368
G1 X105.073 Y142.922 E0.04025
G1 X104.949 Y142.901 E0.00395
