; generated by PrusaSlicer 2.3.0-beta3+win64 on 2022-04-07 at 06:16:08 UTC

; 

; external perimeters extrusion width = 0.45mm
; perimeters extrusion width = 0.45mm
; infill extrusion width = 0.45mm
; solid infill extrusion width = 0.45mm
; top infill extrusion width = 0.40mm
; support material extrusion width = 0.35mm
; first layer extrusion width = 0.42mm

M201 X500 Y500 Z100 E5000 ; sets maximum accelerations, mm/sec^2
M203 X500 Y500 Z10 E60 ; sets maximum feedrates, mm/sec
M204 P500 R1000 T500 ; sets acceleration (P, T) and retract acceleration (R), mm/sec^2
M205 X8.00 Y8.00 Z0.40 E5.00 ; sets the jerk limits, mm/sec
M205 S0 T0 ; sets the minimum extruding and travel feed rate, mm/sec
M107
;TYPE:Custom
G90 ; use absolute coordinates
M83 ; extruder relative mode
M104 S230 ; set extruder temp
M140 S65 ; set bed temp
M190 S65 ; wait for bed temp
M109 S230 ; wait for extruder temp
G28 ; home all
G1 Z2 F240
G1 X2 Y10 F3000
G1 Z0.28 F240
G92 E0
G1 Y190 E15 F1500 ; intro line
G1 X2.3 F5000
G92 E0
G1 Y10 E15 F1200 ; intro line
G92 E0
G21 ; set units to millimeters
G90 ; use absolute coordinates
M83 ; use relative distances for extrusion
; Filament gcode
;LAYER_CHANGE
;Z:0.2
;HEIGHT:0.2
;BEFORE_LAYER_CHANGE
G92 E0
;0.2


G1 E-5.00000 F3600.000
G1 Z0.200 F9000.000
;AFTER_LAYER_CHANGE
;0.2
G1 X103.850 Y94.207
G1 E5.00000 F2400.000
;TYPE:Skirt
;WIDTH:0.42
G1 F1200.000
G1 X104.732 Y93.390 E0.03468
G1 X106.327 Y92.422 E0.05384
G1 X108.077 Y91.852 E0.05308
G1 X109.443 Y91.700 E0.03963
G1 X126.585 Y91.701 E0.49447
G1 X128.016 Y91.872 E0.04159
G1 X129.418 Y92.310 E0.04237
G1 X130.682 Y92.977 E0.04121
G1 X131.803 Y93.858 E0.04114
G1 X133.186 Y95.593 E0.06401
G1 X133.804 Y96.920 E0.04222
G1 X134.173 Y98.356 E0.04277
G1 X134.268 Y99.468 E0.03220
G1 X134.268 Y136.266 E1.06145
G1 X134.172 Y137.011 E0.02170
G1 X133.299 Y138.772 E0.05668
G1 X132.270 Y139.751 E0.04098
G1 X131.951 Y139.932 E0.01056
G1 X131.934 Y142.700 E0.07985
G1 X131.653 Y143.783 E0.03228
G1 X131.241 Y144.603 E0.02646
G1 X129.961 Y145.931 E0.05321
G1 X128.956 Y146.475 E0.03296
G1 X128.217 Y146.663 E0.02200
G1 X127.751 Y147.112 E0.01866
G1 X126.746 Y147.700 E0.03358
G1 X125.188 Y148.087 E0.04631
G1 X111.540 Y148.075 E0.39371
G1 X110.817 Y148.089 E0.02085
G1 X109.859 Y147.951 E0.02790
G1 X108.321 Y147.231 E0.04901
G1 X107.639 Y146.599 E0.02681
G1 X107.161 Y146.462 E0.01434
G1 X106.166 Y145.940 E0.03242
G1 X104.830 Y144.570 E0.05521
G1 X104.320 Y143.548 E0.03294
G1 X104.070 Y142.469 E0.03196
G1 X104.050 Y139.807 E0.07680
G1 X103.583 Y139.520 E0.01581
G1 X102.533 Y138.423 E0.04381
G1 X102.039 Y137.503 E0.03012
G1 X101.764 Y136.490 E0.03029
G1 X101.732 Y99.481 E1.06754
G1 X101.849 Y98.229 E0.03628
G1 X102.165 Y97.000 E0.03662
G1 X103.086 Y95.165 E0.05922
G1 X103.812 Y94.254 E0.03360
G1 X104.106 Y94.487 F9000.000
G1 F1200.000
G1 X104.974 Y93.680 E0.03419
G1 X106.503 Y92.756 E0.05155
G1 X108.174 Y92.217 E0.05065
G1 X109.453 Y92.077 E0.03710
G1 X126.573 Y92.078 E0.49386
G1 X127.921 Y92.238 E0.03915
G1 X129.259 Y92.652 E0.04038
G1 X130.463 Y93.284 E0.03923
G1 X131.553 Y94.141 E0.04000
G1 X132.854 Y95.772 E0.06019
G1 X133.454 Y97.063 E0.04106
G1 X133.804 Y98.434 E0.04081
G1 X133.891 Y99.476 E0.03017
G1 X133.891 Y136.253 E1.06087
G1 X133.802 Y136.930 E0.01970
G1 X132.977 Y138.572 E0.05300
G1 X132.032 Y139.458 E0.03737
G1 X131.575 Y139.704 E0.01497
G1 X131.563 Y142.628 E0.08437
G1 X131.293 Y143.669 E0.03100
G1 X130.918 Y144.407 E0.02390
G1 X129.756 Y145.613 E0.04831
G1 X128.798 Y146.131 E0.03141
G1 X128.026 Y146.321 E0.02295
G1 X127.540 Y146.799 E0.01966
G1 X126.579 Y147.361 E0.03209
G1 X125.166 Y147.710 E0.04200
G1 X111.536 Y147.698 E0.39316
G1 X110.824 Y147.711 E0.02055
G1 X109.993 Y147.597 E0.02419
G1 X108.509 Y146.903 E0.04727
G1 X107.830 Y146.260 E0.02695
G1 X107.318 Y146.119 E0.01534
G1 X106.368 Y145.620 E0.03095
G1 X105.154 Y144.376 E0.05014
G1 X104.668 Y143.400 E0.03143
G1 X104.442 Y142.406 E0.02942
G1 X104.426 Y139.590 E0.08124
G1 X103.835 Y139.239 E0.01982
G1 X102.853 Y138.221 E0.04081
G1 X102.382 Y137.344 E0.02872
G1 X102.134 Y136.416 E0.02770
G1 X102.109 Y99.490 E1.06518
G1 X102.223 Y98.280 E0.03507
G1 X102.525 Y97.113 E0.03475
G1 X103.393 Y95.384 E0.05582
G1 X104.068 Y94.534 E0.03131
G1 X104.364 Y94.769 F9000.000
G1 F1200.000
G1 X105.215 Y93.970 E0.03368
G1 X106.640 Y93.108 E0.04805
G1 X108.235 Y92.590 E0.04836
G1 X109.463 Y92.454 E0.03565
G1 X126.562 Y92.455 E0.49324
G1 X127.859 Y92.610 E0.03768
G1 X129.130 Y93.006 E0.03839
G1 X130.271 Y93.609 E0.03724
G1 X131.303 Y94.423 E0.03790
G1 X132.522 Y95.952 E0.05642
G1 X133.093 Y97.174 E0.03891
G1 X133.430 Y98.481 E0.03893
G1 X133.514 Y99.484 E0.02903
G1 X133.514 Y136.240 E1.06027
G1 X133.433 Y136.849 E0.01771
G1 X132.695 Y138.320 E0.04746
G1 X131.794 Y139.164 E0.03561
G1 X131.198 Y139.472 E0.01936
G1 X131.192 Y142.557 E0.08900
G1 X130.933 Y143.553 E0.02969
G1 X130.596 Y144.210 E0.02131
G1 X129.551 Y145.296 E0.04345
G1 X128.642 Y145.787 E0.02982
G1 X127.834 Y145.978 E0.02393
G1 X127.327 Y146.486 E0.02069
G1 X126.413 Y147.021 E0.03058
G1 X125.144 Y147.333 E0.03769
G1 X111.533 Y147.321 E0.39262
G1 X110.832 Y147.334 E0.02022
G1 X110.074 Y147.228 E0.02206
G1 X108.700 Y146.576 E0.04389
G1 X108.023 Y145.921 E0.02718
G1 X107.474 Y145.775 E0.01638
G1 X106.571 Y145.300 E0.02943
G1 X105.447 Y144.136 E0.04668
G1 X105.017 Y143.256 E0.02825
G1 X104.815 Y142.345 E0.02693
G1 X104.803 Y139.370 E0.08581
G1 X104.086 Y138.956 E0.02387
G1 X103.171 Y138.018 E0.03781
G1 X102.740 Y137.225 E0.02603
G1 X102.505 Y136.343 E0.02633
G1 X102.486 Y99.499 E1.06281
G1 X102.592 Y98.359 E0.03300
G1 X102.885 Y97.227 E0.03373
G1 X103.701 Y95.604 E0.05242
G1 X104.326 Y94.816 E0.02902
G1 X104.621 Y95.049 F9000.000
G1 F1200.000
G1 X105.457 Y94.260 E0.03315
G1 X106.816 Y93.442 E0.04578
G1 X108.295 Y92.962 E0.04486
G1 X109.474 Y92.832 E0.03419
G1 X126.551 Y92.832 E0.49262
G1 X127.764 Y92.976 E0.03524
G1 X128.969 Y93.348 E0.03638
G1 X130.079 Y93.934 E0.03622
G1 X131.051 Y94.705 E0.03578
G1 X132.190 Y96.133 E0.05268
G1 X132.733 Y97.286 E0.03677
G1 X133.055 Y98.529 E0.03703
G1 X133.136 Y99.492 E0.02788
G1 X133.137 Y136.227 E1.05966
G1 X133.063 Y136.767 E0.01571
G1 X132.413 Y138.067 E0.04195
G1 X131.557 Y138.869 E0.03381
G1 X130.821 Y139.237 E0.02376
G1 X130.821 Y142.486 E0.09371
G1 X130.574 Y143.437 E0.02836
G1 X130.274 Y144.012 E0.01869
G1 X129.346 Y144.978 E0.03865
G1 X128.486 Y145.443 E0.02821
G1 X127.642 Y145.635 E0.02495
G1 X127.114 Y146.174 E0.02176
G1 X126.246 Y146.682 E0.02903
G1 X125.121 Y146.956 E0.03338
G1 X111.529 Y146.944 E0.39208
G1 X110.840 Y146.957 E0.01989
G1 X110.157 Y146.859 E0.01990
G1 X108.893 Y146.251 E0.04048
G1 X108.216 Y145.580 E0.02748
G1 X107.629 Y145.430 E0.01747
G1 X106.774 Y144.981 E0.02787
G1 X105.741 Y143.898 E0.04315
G1 X105.367 Y143.115 E0.02505
G1 X105.187 Y142.285 E0.02449
G1 X105.179 Y139.149 E0.09048
G1 X104.335 Y138.672 E0.02796
G1 X103.488 Y137.812 E0.03481
G1 X103.099 Y137.105 E0.02330
G1 X102.876 Y136.269 E0.02494
G1 X102.863 Y99.507 E1.06044
G1 X102.966 Y98.410 E0.03179
G1 X103.245 Y97.342 E0.03185
G1 X104.008 Y95.822 E0.04906
G1 X104.583 Y95.096 E0.02673
G1 X104.879 Y95.330 F9000.000
G1 F1200.000
G1 X104.956 Y95.233 E0.00356
G1 X105.698 Y94.551 E0.02907
G1 X106.954 Y93.794 E0.04231
G1 X108.357 Y93.335 E0.04258
G1 X109.484 Y93.209 E0.03272
G1 X126.540 Y93.209 E0.49199
G1 X127.702 Y93.348 E0.03377
G1 X128.840 Y93.703 E0.03437
G1 X129.887 Y94.259 E0.03420
G1 X130.800 Y94.987 E0.03368
G1 X131.859 Y96.314 E0.04899
G1 X132.373 Y97.399 E0.03462
G1 X132.681 Y98.577 E0.03513
G1 X132.759 Y99.500 E0.02671
G1 X132.760 Y136.214 E1.05904
G1 X132.694 Y136.684 E0.01370
G1 X132.131 Y137.815 E0.03646
G1 X131.321 Y138.573 E0.03199
G1 X130.444 Y139.000 E0.02814
G1 X130.444 Y142.461 E0.09984
G1 X130.216 Y143.318 E0.02560
G1 X129.954 Y143.811 E0.01610
G1 X129.141 Y144.660 E0.03390
G1 X128.329 Y145.099 E0.02663
G1 X127.709 Y145.241 E0.01835
G1 X127.488 Y145.251 E0.00638
G1 X126.901 Y145.862 E0.02444
G1 X126.079 Y146.342 E0.02745
G1 X125.100 Y146.579 E0.02908
G1 X111.526 Y146.566 E0.39155
G1 X110.846 Y146.579 E0.01961
G1 X110.293 Y146.506 E0.01610
G1 X109.086 Y145.925 E0.03862
G1 X108.410 Y145.239 E0.02781
G1 X107.783 Y145.085 E0.01860
G1 X106.977 Y144.662 E0.02629
G1 X106.067 Y143.707 E0.03802
G1 X105.731 Y143.013 E0.02227
G1 X105.560 Y142.225 E0.02324
G1 X105.556 Y138.853 E0.09726
G1 X105.241 Y138.751 E0.00956
G1 X104.584 Y138.387 E0.02164
G1 X103.776 Y137.566 E0.03325
G1 X103.457 Y136.986 E0.01910
G1 X103.246 Y136.196 E0.02358
G1 X103.240 Y99.516 E1.05806
G1 X103.340 Y98.461 E0.03057
G1 X103.604 Y97.457 E0.02996
G1 X104.316 Y96.041 E0.04571
G1 X104.842 Y95.377 E0.02444
G1 X105.136 Y95.609 F9000.000
G1 F1200.000
G1 X105.222 Y95.500 E0.00399
G1 X105.939 Y94.842 E0.02807
G1 X107.129 Y94.128 E0.04005
G1 X108.418 Y93.707 E0.03911
G1 X109.495 Y93.586 E0.03125
G1 X126.528 Y93.586 E0.49135
G1 X127.639 Y93.720 E0.03228
G1 X128.709 Y94.057 E0.03236
G1 X129.693 Y94.583 E0.03218
G1 X130.548 Y95.268 E0.03158
G1 X131.528 Y96.496 E0.04534
G1 X132.013 Y97.513 E0.03248
G1 X132.307 Y98.626 E0.03321
G1 X132.382 Y99.508 E0.02554
G1 X132.383 Y136.200 E1.05841
G1 X132.325 Y136.600 E0.01167
G1 X131.848 Y137.563 E0.03100
G1 X131.084 Y138.279 E0.03021
G1 X130.490 Y138.570 E0.01906
G1 X130.067 Y138.677 E0.01260
G1 X130.067 Y142.435 E0.10840
G1 X129.858 Y143.197 E0.02279
G1 X129.635 Y143.609 E0.01354
G1 X128.933 Y144.344 E0.02931
G1 X128.218 Y144.738 E0.02354
G1 X127.646 Y144.869 E0.01694
G1 X127.323 Y144.874 E0.00931
G1 X126.686 Y145.550 E0.02680
G1 X125.913 Y146.003 E0.02583
G1 X125.078 Y146.202 E0.02478
G1 X111.670 Y146.202 E0.38675
G1 X111.554 Y146.189 E0.00336
G1 X110.854 Y146.202 E0.02021
G1 X110.375 Y146.137 E0.01395
G1 X109.283 Y145.602 E0.03506
G1 X108.605 Y144.897 E0.02823
G1 X107.937 Y144.740 E0.01979
G1 X107.179 Y144.342 E0.02468
G1 X106.394 Y143.517 E0.03286
G1 X106.080 Y142.869 E0.02075
G1 X105.933 Y142.167 E0.02069
G1 X105.933 Y138.572 E0.10371
G1 X105.401 Y138.409 E0.01606
G1 X104.832 Y138.102 E0.01864
G1 X104.063 Y137.321 E0.03164
G1 X103.816 Y136.867 E0.01490
G1 X103.617 Y136.122 E0.02223
G1 X103.617 Y99.525 E1.05569
G1 X103.709 Y98.542 E0.02847
G1 X103.964 Y97.572 E0.02894
G1 X104.624 Y96.259 E0.04238
G1 X105.099 Y95.656 E0.02216
G1 X105.396 Y95.889 F9000.000
G1 F1200.000
G1 X105.509 Y95.746 E0.00527
G1 X106.179 Y95.133 E0.02620
G1 X107.268 Y94.479 E0.03663
G1 X108.481 Y94.080 E0.03684
G1 X109.506 Y93.963 E0.02976
G1 X126.517 Y93.963 E0.49072
G1 X127.544 Y94.085 E0.02982
G1 X128.548 Y94.398 E0.03034
G1 X129.471 Y94.888 E0.03014
G1 X130.295 Y95.549 E0.03046
G1 X131.198 Y96.679 E0.04171
G1 X131.653 Y97.627 E0.03035
G1 X131.932 Y98.675 E0.03128
G1 X132.005 Y99.516 E0.02436
G1 X132.006 Y136.185 E1.05776
G1 X131.957 Y136.516 E0.00963
G1 X131.563 Y137.314 E0.02567
G1 X130.891 Y137.954 E0.02677
G1 X130.345 Y138.221 E0.01756
G1 X129.980 Y138.307 E0.01082
G1 X129.690 Y138.317 E0.00837
G1 X129.690 Y142.408 E0.11800
G1 X129.502 Y143.071 E0.01989
G1 X129.317 Y143.405 E0.01100
G1 X128.723 Y144.030 E0.02487
G1 X128.107 Y144.376 E0.02040
G1 X127.584 Y144.496 E0.01546
G1 X127.100 Y144.495 E0.01396
G1 X126.960 Y144.712 E0.00744
G1 X126.471 Y145.239 E0.02075
G1 X125.748 Y145.663 E0.02418
G1 X125.056 Y145.825 E0.02048
G1 X111.683 Y145.825 E0.38575
G1 X111.576 Y145.811 E0.00312
G1 X110.862 Y145.825 E0.02059
G1 X110.459 Y145.768 E0.01174
G1 X109.483 Y145.281 E0.03146
G1 X108.908 Y144.668 E0.02425
G1 X108.808 Y144.516 E0.00525
G1 X108.555 Y144.504 E0.00732
G1 X108.091 Y144.395 E0.01375
G1 X107.382 Y144.023 E0.02309
G1 X106.719 Y143.324 E0.02779
G1 X106.444 Y142.766 E0.01794
G1 X106.310 Y142.147 E0.01827
G1 X106.310 Y138.189 E0.11418
G1 X105.863 Y138.157 E0.01295
G1 X105.562 Y138.067 E0.00904
G1 X105.038 Y137.784 E0.01720
G1 X104.352 Y137.078 E0.02839
G1 X104.173 Y136.746 E0.01088
G1 X103.994 Y136.096 E0.01944
G1 X103.994 Y99.534 E1.05467
G1 X104.083 Y98.593 E0.02725
G1 X104.323 Y97.688 E0.02703
G1 X104.932 Y96.478 E0.03907
G1 X105.359 Y95.936 E0.01988
G1 X105.654 Y96.168 F9000.000
G1 F1200.000
G1 X105.775 Y96.013 E0.00566
G1 X106.419 Y95.424 E0.02518
G1 X107.443 Y94.814 E0.03438
G1 X108.543 Y94.452 E0.03341
G1 X109.517 Y94.340 E0.02827
G1 X126.506 Y94.340 E0.49007
G1 X127.481 Y94.457 E0.02834
G1 X128.418 Y94.752 E0.02832
G1 X129.277 Y95.212 E0.02812
G1 X130.043 Y95.829 E0.02835
G1 X130.868 Y96.862 E0.03814
G1 X131.294 Y97.743 E0.02822
G1 X131.558 Y98.725 E0.02933
G1 X131.628 Y99.525 E0.02316
G1 X131.629 Y136.170 E1.05708
G1 X131.589 Y136.427 E0.00750
G1 X131.243 Y137.112 E0.02214
G1 X130.658 Y137.656 E0.02305
G1 X130.204 Y137.871 E0.01447
G1 X129.922 Y137.934 E0.00834
G1 X129.312 Y137.931 E0.01760
G1 X129.312 Y142.380 E0.12832
G1 X129.147 Y142.942 E0.01691
G1 X129.002 Y143.197 E0.00845
G1 X128.473 Y143.747 E0.02202
G1 X127.952 Y144.031 E0.01712
G1 X127.528 Y144.123 E0.01250
G1 X126.890 Y144.114 E0.01841
G1 X126.670 Y144.470 E0.01209
G1 X126.215 Y144.961 E0.01931
G1 X125.586 Y145.321 E0.02091
G1 X125.035 Y145.448 E0.01628
G1 X123.765 Y145.448 E0.03663
G1 X123.656 Y145.432 E0.00318
G1 X123.547 Y145.448 E0.00318
G1 X122.257 Y145.448 E0.03721
G1 X122.148 Y145.432 E0.00318
G1 X122.039 Y145.448 E0.00318
G1 X120.749 Y145.448 E0.03721
G1 X120.640 Y145.432 E0.00318
G1 X120.530 Y145.448 E0.00318
G1 X119.240 Y145.448 E0.03721
G1 X119.131 Y145.432 E0.00318
G1 X119.022 Y145.448 E0.00318
G1 X117.732 Y145.448 E0.03721
G1 X117.623 Y145.432 E0.00318
G1 X117.514 Y145.448 E0.00318
G1 X116.224 Y145.448 E0.03721
G1 X116.115 Y145.432 E0.00318
G1 X116.005 Y145.448 E0.00318
G1 X114.716 Y145.448 E0.03721
G1 X114.606 Y145.432 E0.00318
G1 X114.497 Y145.448 E0.00318
G1 X113.207 Y145.448 E0.03721
G1 X113.098 Y145.432 E0.00318
G1 X112.989 Y145.448 E0.00318
G1 X111.699 Y145.448 E0.03721
G1 X111.602 Y145.434 E0.00284
G1 X110.871 Y145.448 E0.02107
G1 X110.546 Y145.400 E0.00949
G1 X109.687 Y144.961 E0.02783
G1 X109.202 Y144.431 E0.02072
G1 X109.028 Y144.141 E0.00976
G1 X108.620 Y144.132 E0.01177
G1 X108.202 Y144.034 E0.01239
G1 X107.588 Y143.705 E0.02009
G1 X107.045 Y143.132 E0.02278
G1 X106.792 Y142.621 E0.01645
G1 X106.688 Y142.127 E0.01454
G1 X106.688 Y137.828 E0.12402
G1 X105.947 Y137.789 E0.02138
G1 X105.687 Y137.711 E0.00783
G1 X105.285 Y137.498 E0.01312
G1 X104.669 Y136.871 E0.02537
G1 X104.529 Y136.619 E0.00831
G1 X104.371 Y136.069 E0.01652
G1 X104.371 Y99.543 E1.05362
G1 X104.456 Y98.645 E0.02601
G1 X104.682 Y97.804 E0.02511
G1 X105.241 Y96.695 E0.03582
G1 X105.617 Y96.215 E0.01761
G1 X105.914 Y96.447 F9000.000
G1 F1200.000
G1 X106.062 Y96.258 E0.00692
G1 X106.658 Y95.716 E0.02326
G1 X107.581 Y95.165 E0.03100
G1 X108.606 Y94.824 E0.03115
G1 X109.528 Y94.717 E0.02676
G1 X126.494 Y94.717 E0.48942
G1 X127.418 Y94.830 E0.02683
G1 X128.286 Y95.106 E0.02629
G1 X129.082 Y95.536 E0.02610
G1 X129.789 Y96.109 E0.02625
G1 X130.538 Y97.047 E0.03462
G1 X130.935 Y97.860 E0.02610
G1 X131.184 Y98.775 E0.02736
G1 X131.251 Y99.533 E0.02195
G1 X131.252 Y136.154 E1.05638
G1 X131.222 Y136.338 E0.00537
G1 X130.961 Y136.860 E0.01681
G1 X130.424 Y137.359 E0.02117
G1 X130.098 Y137.509 E0.01035
G1 X129.900 Y137.557 E0.00587
G1 X128.935 Y137.553 E0.02782
G1 X128.935 Y142.350 E0.13839
G1 X128.794 Y142.807 E0.01380
G1 X128.690 Y142.984 E0.00592
G1 X128.225 Y143.461 E0.01922
G1 X127.801 Y143.685 E0.01383
G1 X127.513 Y143.745 E0.00848
G1 X126.606 Y143.732 E0.02617
G1 X126.482 Y144.062 E0.01015
G1 X126.380 Y144.228 E0.00563
G1 X125.959 Y144.682 E0.01787
G1 X125.427 Y144.978 E0.01755
G1 X125.015 Y145.071 E0.01219
G1 X123.785 Y145.071 E0.03549
G1 X123.656 Y145.048 E0.00377
G1 X123.528 Y145.071 E0.00377
G1 X122.276 Y145.071 E0.03609
G1 X122.148 Y145.048 E0.00377
G1 X122.019 Y145.071 E0.00377
G1 X120.768 Y145.071 E0.03609
G1 X120.640 Y145.048 E0.00377
G1 X120.511 Y145.071 E0.00377
G1 X119.260 Y145.071 E0.03609
G1 X119.131 Y145.048 E0.00377
G1 X119.003 Y145.071 E0.00377
G1 X117.752 Y145.071 E0.03609
G1 X117.623 Y145.048 E0.00377
G1 X117.494 Y145.071 E0.00377
G1 X116.243 Y145.071 E0.03609
G1 X116.115 Y145.048 E0.00377
G1 X115.986 Y145.071 E0.00377
G1 X114.735 Y145.071 E0.03609
G1 X114.606 Y145.048 E0.00377
