; generated by PrusaSlicer 2.3.0-beta3+win64 on 2022-04-07 at 04:42:05 UTC

; 

; external perimeters extrusion width = 0.45mm
; perimeters extrusion width = 0.45mm
; infill extrusion width = 0.45mm
; solid infill extrusion width = 0.45mm
; top infill extrusion width = 0.40mm
; support material extrusion width = 0.38mm
; first layer extrusion width = 0.42mm

M201 X500 Y500 Z100 E5000 ; sets maximum accelerations, mm/sec^2
M203 X500 Y500 Z10 E60 ; sets maximum feedrates, mm/sec
M204 P500 R1000 T500 ; sets acceleration (P, T) and retract acceleration (R), mm/sec^2
M205 X8.00 Y8.00 Z0.40 E5.00 ; sets the jerk limits, mm/sec
M205 S0 T0 ; sets the minimum extruding and travel feed rate, mm/sec
M107
;TYPE:Custom
G90 ; use absolute coordinates
M83 ; extruder relative mode
M104 S230 ; set extruder temp
M140 S65 ; set bed temp
M190 S65 ; wait for bed temp
M109 S230 ; wait for extruder temp
G28 ; home all
G1 Z2 F240
G1 X2 Y10 F3000
G1 Z0.28 F240
G92 E0
G1 Y190 E15 F1500 ; intro line
G1 X2.3 F5000
G92 E0
G1 Y10 E15 F1200 ; intro line
G92 E0
G21 ; set units to millimeters
G90 ; use absolute coordinates
M83 ; use relative distances for extrusion
; Filament gcode
;LAYER_CHANGE
;Z:0.2
;HEIGHT:0.2
;BEFORE_LAYER_CHANGE
G92 E0
;0.2


G1 E-5.00000 F3600.000
G1 Z0.200 F9000.000
;AFTER_LAYER_CHANGE
;0.2
G1 X97.912 Y92.078
G1 E5.00000 F2400.000
;TYPE:Skirt
;WIDTH:0.42
G1 F1200.000
G1 X102.543 Y87.447 E0.19507
G1 X104.089 Y86.462 E0.05461
G1 X105.658 Y86.050 E0.04833
G1 X130.034 Y86.050 E0.72607
G1 X130.979 Y86.180 E0.02844
G1 X132.985 Y87.200 E0.06702
G1 X138.355 Y92.570 E0.22622
G1 X139.182 Y94.096 E0.05169
G1 X139.368 Y95.099 E0.03039
G1 X139.364 Y95.997 E0.02674
G1 X139.247 Y96.691 E0.02096
G1 X139.241 Y97.514 E0.02452
G1 X139.253 Y139.737 E1.25769
G1 X138.884 Y141.259 E0.04663
G1 X138.035 Y142.638 E0.04823
G1 X135.904 Y144.769 E0.08976
G1 X134.151 Y145.731 E0.05957
G1 X133.398 Y145.891 E0.02292
G1 X132.608 Y145.943 E0.02360
G1 X132.316 Y145.927 E0.00871
G1 X129.558 Y145.936 E0.08215
G1 X129.157 Y146.116 E0.01311
G1 X128.663 Y146.396 E0.01689
G1 X127.959 Y146.651 E0.02232
G1 X126.515 Y146.736 E0.04307
G1 X125.989 Y147.234 E0.02158
G1 X125.125 Y147.719 E0.02952
G1 X123.608 Y148.113 E0.04669
G1 X112.895 Y148.078 E0.31908
G1 X111.719 Y147.781 E0.03615
G1 X110.778 Y147.294 E0.03153
G1 X110.185 Y146.775 E0.02349
G1 X108.886 Y146.775 E0.03869
G1 X108.032 Y146.668 E0.02563
G1 X106.559 Y146.053 E0.04755
G1 X106.388 Y145.938 E0.00613
G1 X103.393 Y145.938 E0.08922
G1 X101.636 Y145.483 E0.05407
G1 X100.483 Y144.744 E0.04079
G1 X97.645 Y141.906 E0.11955
G1 X96.819 Y140.384 E0.05159
G1 X96.640 Y139.459 E0.02804
G1 X96.633 Y138.525 E0.02783
G1 X96.753 Y137.789 E0.02222
G1 X96.759 Y136.962 E0.02462
G1 X96.757 Y95.914 E1.22268
G1 X96.743 Y95.700 E0.00639
G1 X96.769 Y94.806 E0.02664
G1 X96.909 Y93.966 E0.02536
G1 X97.884 Y92.131 E0.06189
G1 X98.198 Y92.325 F9000.000
G1 F1200.000
G1 X102.794 Y87.729 E0.19361
G1 X104.265 Y86.796 E0.05188
G1 X105.682 Y86.428 E0.04360
G1 X130.022 Y86.428 E0.72503
G1 X130.840 Y86.532 E0.02454
G1 X132.740 Y87.488 E0.06336
G1 X138.070 Y92.818 E0.22450
G1 X138.817 Y94.195 E0.04668
G1 X138.991 Y95.116 E0.02792
G1 X138.987 Y95.979 E0.02572
G1 X138.870 Y96.657 E0.02047
G1 X138.863 Y97.512 E0.02549
G1 X138.876 Y139.714 E1.25705
G1 X138.525 Y141.139 E0.04372
G1 X137.753 Y142.386 E0.04368
G1 X135.656 Y144.483 E0.08832
G1 X134.046 Y145.368 E0.05474
G1 X133.334 Y145.520 E0.02168
G1 X132.596 Y145.566 E0.02201
G1 X132.327 Y145.550 E0.00803
G1 X129.477 Y145.559 E0.08490
G1 X128.985 Y145.780 E0.01606
G1 X128.519 Y146.047 E0.01600
G1 X127.857 Y146.287 E0.02098
G1 X126.354 Y146.366 E0.04482
G1 X125.783 Y146.917 E0.02365
G1 X124.961 Y147.378 E0.02805
G1 X123.584 Y147.735 E0.04238
G1 X112.964 Y147.706 E0.31635
G1 X111.872 Y147.435 E0.03351
G1 X110.973 Y146.971 E0.03014
G1 X110.329 Y146.398 E0.02567
G1 X108.898 Y146.398 E0.04262
G1 X108.106 Y146.298 E0.02379
G1 X106.728 Y145.715 E0.04456
G1 X106.512 Y145.561 E0.00789
G1 X103.417 Y145.561 E0.09221
G1 X101.812 Y145.149 E0.04933
G1 X100.735 Y144.463 E0.03806
G1 X97.930 Y141.659 E0.11812
G1 X97.183 Y140.282 E0.04665
G1 X97.017 Y139.438 E0.02562
G1 X97.010 Y138.539 E0.02680
G1 X97.130 Y137.822 E0.02165
G1 X97.137 Y136.964 E0.02556
G1 X97.134 Y95.901 E1.22312
G1 X97.120 Y95.702 E0.00595
G1 X97.146 Y94.830 E0.02596
G1 X97.276 Y94.059 E0.02329
G1 X98.170 Y92.378 E0.05673
G1 X98.485 Y92.572 F9000.000
G1 F1200.000
G1 X103.046 Y88.011 E0.19215
G1 X104.441 Y87.131 E0.04913
G1 X105.705 Y86.805 E0.03889
G1 X130.010 Y86.805 E0.72395
G1 X130.760 Y86.902 E0.02251
G1 X132.495 Y87.776 E0.05788
G1 X137.784 Y93.065 E0.22280
G1 X138.452 Y94.295 E0.04170
G1 X138.613 Y95.133 E0.02542
G1 X138.610 Y95.961 E0.02467
G1 X138.493 Y96.622 E0.01998
G1 X138.486 Y97.511 E0.02649
G1 X138.499 Y139.692 E1.25643
G1 X138.188 Y140.968 E0.03911
G1 X137.470 Y142.136 E0.04083
G1 X135.408 Y144.198 E0.08686
G1 X133.940 Y145.005 E0.04991
G1 X133.269 Y145.148 E0.02043
G1 X132.586 Y145.189 E0.02039
G1 X132.340 Y145.173 E0.00736
G1 X129.396 Y145.183 E0.08769
G1 X128.812 Y145.444 E0.01904
G1 X128.374 Y145.698 E0.01509
G1 X127.756 Y145.923 E0.01960
G1 X126.192 Y145.996 E0.04662
G1 X125.575 Y146.601 E0.02574
G1 X124.798 Y147.037 E0.02656
G1 X123.561 Y147.358 E0.03807
G1 X113.031 Y147.335 E0.31366
G1 X112.025 Y147.090 E0.03084
G1 X111.168 Y146.647 E0.02871
G1 X110.475 Y146.021 E0.02783
G1 X108.910 Y146.021 E0.04660
G1 X108.181 Y145.927 E0.02192
G1 X106.899 Y145.379 E0.04151
G1 X106.641 Y145.184 E0.00965
G1 X103.440 Y145.184 E0.09534
G1 X101.988 Y144.814 E0.04462
G1 X100.986 Y144.181 E0.03531
G1 X98.216 Y141.411 E0.11668
G1 X97.548 Y140.181 E0.04171
G1 X97.390 Y139.383 E0.02422
G1 X97.387 Y138.554 E0.02470
G1 X97.507 Y137.856 E0.02111
G1 X97.514 Y136.965 E0.02653
G1 X97.511 Y95.886 E1.22360
G1 X97.498 Y95.702 E0.00550
G1 X97.522 Y94.855 E0.02525
G1 X97.642 Y94.153 E0.02120
G1 X98.456 Y92.625 E0.05158
G1 X98.771 Y92.819 F9000.000
G1 F1200.000
G1 X103.297 Y88.293 E0.19067
G1 X104.616 Y87.466 E0.04636
G1 X105.729 Y87.182 E0.03421
G1 X129.998 Y87.182 E0.72288
G1 X130.679 Y87.271 E0.02046
G1 X132.249 Y88.064 E0.05240
G1 X137.498 Y93.313 E0.22110
G1 X138.088 Y94.397 E0.03676
G1 X138.236 Y95.151 E0.02289
G1 X138.233 Y95.943 E0.02360
G1 X138.117 Y96.586 E0.01947
G1 X138.109 Y97.510 E0.02751
G1 X138.122 Y139.669 E1.25578
G1 X137.829 Y140.848 E0.03618
G1 X137.189 Y141.884 E0.03630
G1 X135.161 Y143.912 E0.08542
G1 X133.834 Y144.643 E0.04512
G1 X133.232 Y144.772 E0.01833
G1 X132.577 Y144.812 E0.01956
G1 X132.354 Y144.796 E0.00666
G1 X129.269 Y144.806 E0.09187
G1 X129.127 Y144.898 E0.00505
G1 X128.642 Y145.107 E0.01573
G1 X128.229 Y145.350 E0.01428
G1 X127.655 Y145.558 E0.01819
G1 X126.029 Y145.625 E0.04846
G1 X125.368 Y146.285 E0.02785
G1 X124.635 Y146.697 E0.02504
G1 X123.537 Y146.981 E0.03376
G1 X113.096 Y146.963 E0.31101
G1 X112.177 Y146.744 E0.02814
G1 X111.364 Y146.324 E0.02725
G1 X110.622 Y145.644 E0.02998
G1 X108.923 Y145.644 E0.05061
G1 X108.256 Y145.557 E0.02002
G1 X107.074 Y145.044 E0.03839
G1 X106.774 Y144.807 E0.01139
G1 X103.463 Y144.807 E0.09861
G1 X102.163 Y144.479 E0.03994
G1 X101.237 Y143.899 E0.03253
G1 X98.502 Y141.164 E0.11523
G1 X97.912 Y140.080 E0.03676
G1 X97.764 Y139.329 E0.02280
G1 X97.764 Y138.571 E0.02256
G1 X97.883 Y137.890 E0.02059
G1 X97.891 Y136.967 E0.02752
G1 X97.888 Y95.871 E1.22411
G1 X97.875 Y95.702 E0.00503
G1 X97.899 Y94.879 E0.02452
G1 X98.008 Y94.248 E0.01910
G1 X98.743 Y92.872 E0.04645
G1 X99.057 Y93.066 F9000.000
G1 F1200.000
G1 X103.549 Y88.575 E0.18920
G1 X104.790 Y87.802 E0.04356
G1 X105.752 Y87.559 E0.02955
G1 X129.985 Y87.559 E0.72181
G1 X130.597 Y87.641 E0.01840
G1 X132.004 Y88.352 E0.04695
G1 X137.212 Y93.560 E0.21940
G1 X137.724 Y94.499 E0.03186
G1 X137.859 Y95.169 E0.02034
G1 X137.856 Y95.927 E0.02259
G1 X137.778 Y96.395 E0.01412
G1 X137.740 Y96.515 E0.00375
G1 X137.732 Y97.508 E0.02959
G1 X137.745 Y139.645 E1.25512
G1 X137.471 Y140.726 E0.03322
G1 X136.907 Y141.633 E0.03180
G1 X134.913 Y143.627 E0.08400
G1 X133.727 Y144.280 E0.04032
G1 X133.167 Y144.400 E0.01707
G1 X132.569 Y144.435 E0.01784
G1 X132.369 Y144.418 E0.00598
G1 X129.150 Y144.429 E0.09588
G1 X128.959 Y144.559 E0.00689
G1 X128.469 Y144.771 E0.01589
G1 X128.083 Y145.002 E0.01341
G1 X127.555 Y145.193 E0.01673
G1 X125.868 Y145.253 E0.05027
G1 X125.121 Y145.999 E0.03147
G1 X124.474 Y146.355 E0.02197
G1 X123.514 Y146.604 E0.02956
G1 X113.160 Y146.591 E0.30841
G1 X112.329 Y146.398 E0.02541
G1 X111.561 Y146.001 E0.02575
G1 X110.771 Y145.267 E0.03212
G1 X108.936 Y145.267 E0.05467
G1 X108.333 Y145.187 E0.01809
G1 X107.252 Y144.710 E0.03520
G1 X106.911 Y144.430 E0.01315
G1 X103.486 Y144.430 E0.10201
G1 X102.336 Y144.143 E0.03530
G1 X101.488 Y143.617 E0.02971
G1 X98.788 Y140.916 E0.11376
G1 X98.276 Y139.977 E0.03186
G1 X98.141 Y139.310 E0.02028
G1 X98.141 Y138.585 E0.02158
G1 X98.222 Y138.085 E0.01510
G1 X98.260 Y137.961 E0.00384
G1 X98.268 Y136.968 E0.02959
G1 X98.265 Y95.853 E1.22467
G1 X98.252 Y95.701 E0.00454
G1 X98.275 Y94.904 E0.02375
G1 X98.374 Y94.343 E0.01698
G1 X99.029 Y93.119 E0.04135
G1 X99.343 Y93.313 F9000.000
G1 F1200.000
G1 X103.799 Y88.857 E0.18771
G1 X104.963 Y88.139 E0.04073
G1 X105.775 Y87.936 E0.02492
G1 X129.972 Y87.936 E0.72075
G1 X130.515 Y88.010 E0.01632
G1 X131.758 Y88.639 E0.04152
G1 X136.927 Y93.808 E0.21771
G1 X137.361 Y94.604 E0.02701
G1 X137.482 Y95.187 E0.01776
G1 X137.479 Y95.909 E0.02151
G1 X137.409 Y96.314 E0.01223
G1 X137.363 Y96.450 E0.00427
G1 X137.355 Y97.507 E0.03148
G1 X137.368 Y139.622 E1.25448
G1 X137.135 Y140.554 E0.02860
G1 X136.624 Y141.382 E0.02897
G1 X134.665 Y143.341 E0.08254
G1 X133.620 Y143.917 E0.03556
G1 X133.130 Y144.025 E0.01493
G1 X132.562 Y144.057 E0.01694
G1 X132.387 Y144.041 E0.00526
G1 X129.027 Y144.053 E0.10008
G1 X128.789 Y144.222 E0.00869
G1 X128.295 Y144.435 E0.01604
G1 X127.936 Y144.654 E0.01252
G1 X127.455 Y144.828 E0.01523
G1 X125.705 Y144.880 E0.05213
G1 X124.912 Y145.684 E0.03365
G1 X124.353 Y145.997 E0.01908
G1 X123.489 Y146.227 E0.02665
G1 X113.224 Y146.218 E0.30575
G1 X112.438 Y146.036 E0.02404
G1 X111.760 Y145.680 E0.02281
G1 X110.921 Y144.890 E0.03432
G1 X108.949 Y144.890 E0.05876
G1 X108.412 Y144.817 E0.01613
G1 X107.433 Y144.378 E0.03196
G1 X107.052 Y144.053 E0.01492
G1 X103.509 Y144.053 E0.10554
G1 X102.508 Y143.806 E0.03071
G1 X101.739 Y143.334 E0.02686
G1 X99.073 Y140.669 E0.11229
G1 X98.639 Y139.873 E0.02701
G1 X98.518 Y139.290 E0.01773
G1 X98.518 Y138.601 E0.02051
G1 X98.591 Y138.163 E0.01321
G1 X98.637 Y138.026 E0.00431
G1 X98.645 Y136.970 E0.03147
G1 X98.643 Y95.834 E1.22529
G1 X98.629 Y95.699 E0.00403
G1 X98.652 Y94.930 E0.02294
G1 X98.740 Y94.439 E0.01483
G1 X99.315 Y93.366 E0.03627
G1 X99.630 Y93.560 F9000.000
G1 F1200.000
G1 X104.050 Y89.140 E0.18621
G1 X105.134 Y88.476 E0.03787
G1 X105.797 Y88.313 E0.02033
G1 X129.958 Y88.313 E0.71968
G1 X130.431 Y88.379 E0.01422
G1 X131.513 Y88.927 E0.03612
G1 X136.641 Y94.055 E0.21602
G1 X136.998 Y94.710 E0.02222
G1 X137.105 Y95.207 E0.01514
G1 X137.102 Y95.891 E0.02038
G1 X137.041 Y96.230 E0.01025
G1 X136.987 Y96.381 E0.00479
G1 X136.978 Y97.505 E0.03349
G1 X136.990 Y139.598 E1.25380
G1 X136.777 Y140.432 E0.02563
G1 X136.343 Y141.130 E0.02451
G1 X134.417 Y143.056 E0.08111
G1 X133.511 Y143.556 E0.03084
G1 X133.093 Y143.649 E0.01276
G1 X132.557 Y143.680 E0.01597
G1 X132.407 Y143.664 E0.00450
G1 X128.899 Y143.676 E0.10449
G1 X128.618 Y143.885 E0.01044
G1 X128.121 Y144.099 E0.01612
G1 X127.757 Y144.321 E0.01271
G1 X127.358 Y144.463 E0.01259
G1 X125.474 Y144.508 E0.05614
G1 X125.322 Y144.742 E0.00832
G1 X124.702 Y145.370 E0.02629
G1 X124.229 Y145.640 E0.01622
G1 X123.463 Y145.850 E0.02367
G1 X113.285 Y145.846 E0.30315
G1 X112.591 Y145.690 E0.02120
G1 X111.959 Y145.359 E0.02125
G1 X111.073 Y144.513 E0.03649
G1 X108.962 Y144.513 E0.06288
G1 X108.492 Y144.447 E0.01413
G1 X107.617 Y144.048 E0.02865
G1 X107.197 Y143.676 E0.01672
G1 X103.531 Y143.676 E0.10920
G1 X102.678 Y143.468 E0.02616
G1 X101.989 Y143.051 E0.02397
G1 X99.359 Y140.421 E0.11079
G1 X99.002 Y139.766 E0.02222
G1 X98.895 Y139.269 E0.01515
G1 X98.895 Y138.618 E0.01940
G1 X98.959 Y138.246 E0.01123
G1 X99.013 Y138.095 E0.00477
G1 X99.022 Y136.971 E0.03349
G1 X99.020 Y95.812 E1.22599
G1 X99.007 Y95.696 E0.00348
G1 X99.028 Y94.955 E0.02207
G1 X99.105 Y94.537 E0.01267
G1 X99.601 Y93.613 E0.03124
G1 X99.916 Y93.807 F9000.000
G1 F1200.000
G1 X104.300 Y89.423 E0.18471
G1 X105.304 Y88.814 E0.03497
G1 X105.819 Y88.690 E0.01577
G1 X129.945 Y88.690 E0.71862
G1 X130.347 Y88.748 E0.01210
G1 X131.267 Y89.215 E0.03075
G1 X136.355 Y94.303 E0.21433
G1 X136.636 Y94.819 E0.01750
G1 X136.728 Y95.229 E0.01252
G1 X136.728 Y95.841 E0.01824
G1 X136.674 Y96.143 E0.00914
G1 X136.610 Y96.307 E0.00524
G1 X136.601 Y97.504 E0.03565
G1 X136.613 Y139.575 E1.25316
G1 X136.440 Y140.260 E0.02103
G1 X136.060 Y140.880 E0.02167
G1 X134.170 Y142.769 E0.07960
G1 X133.357 Y143.210 E0.02754
G1 X133.032 Y143.277 E0.00989
G1 X132.556 Y143.303 E0.01421
G1 X132.390 Y143.282 E0.00500
G1 X132.279 Y143.299 E0.00335
G1 X128.768 Y143.299 E0.10456
G1 X128.445 Y143.549 E0.01218
G1 X127.947 Y143.764 E0.01614
G1 X127.579 Y143.988 E0.01286
G1 X127.265 Y144.096 E0.00988
G1 X125.258 Y144.134 E0.05978
G1 X125.036 Y144.496 E0.01266
G1 X124.489 Y145.058 E0.02337
G1 X124.102 Y145.284 E0.01334
G1 X123.436 Y145.473 E0.02061
G1 X113.344 Y145.473 E0.30061
G1 X112.743 Y145.344 E0.01832
G1 X112.159 Y145.038 E0.01963
G1 X111.226 Y144.136 E0.03865
G1 X108.976 Y144.136 E0.06704
G1 X108.574 Y144.078 E0.01208
G1 X107.804 Y143.720 E0.02529
G1 X107.345 Y143.299 E0.01855
G1 X103.553 Y143.299 E0.11297
G1 X102.845 Y143.129 E0.02167
G1 X102.239 Y142.768 E0.02103
G1 X99.645 Y140.174 E0.10927
G1 X99.364 Y139.658 E0.01750
G1 X99.272 Y139.248 E0.01252
G1 X99.272 Y138.635 E0.01824
G1 X99.326 Y138.333 E0.00914
G1 X99.390 Y138.169 E0.00524
G1 X99.399 Y136.972 E0.03565
G1 X99.387 Y95.932 E1.22245
G1 X99.402 Y95.827 E0.00317
G1 X99.384 Y95.690 E0.00412
G1 X99.405 Y94.982 E0.02110
G1 X99.470 Y94.636 E0.01047
G1 X99.887 Y93.860 E0.02625
G1 X100.202 Y94.055 F9000.000
G1 F1200.000
G1 X104.546 Y89.710 E0.18302
G1 X105.478 Y89.150 E0.03237
G1 X105.839 Y89.067 E0.01105
G1 X107.108 Y89.067 E0.03780
G1 X107.233 Y89.088 E0.00375
G1 X107.348 Y89.067 E0.00350
G1 X108.632 Y89.067 E0.03824
G1 X108.756 Y89.088 E0.00375
G1 X108.872 Y89.067 E0.00350
G1 X110.156 Y89.067 E0.03824
G1 X110.280 Y89.088 E0.00375
G1 X110.396 Y89.067 E0.00350
G1 X111.679 Y89.067 E0.03824
G1 X111.804 Y89.088 E0.00375
G1 X111.919 Y89.067 E0.00350
G1 X113.203 Y89.067 E0.03824
G1 X113.327 Y89.088 E0.00375
G1 X113.443 Y89.067 E0.00350
G1 X114.727 Y89.067 E0.03824
G1 X114.851 Y89.088 E0.00375
G1 X114.967 Y89.067 E0.00350
G1 X116.250 Y89.067 E0.03824
G1 X116.375 Y89.088 E0.00375
G1 X116.490 Y89.067 E0.00350
G1 X117.774 Y89.067 E0.03824
G1 X117.898 Y89.088 E0.00375
G1 X118.014 Y89.067 E0.00350
G1 X119.297 Y89.067 E0.03824
G1 X119.422 Y89.088 E0.00375
G1 X119.537 Y89.067 E0.00350
G1 X120.821 Y89.067 E0.03824
G1 X120.945 Y89.088 E0.00375
G1 X121.061 Y89.067 E0.00350
G1 X122.345 Y89.067 E0.03824
G1 X122.469 Y89.088 E0.00375
G1 X122.585 Y89.067 E0.00350
G1 X123.868 Y89.067 E0.03824
G1 X123.993 Y89.088 E0.00375
G1 X124.108 Y89.067 E0.00350
G1 X125.392 Y89.067 E0.03824
G1 X125.516 Y89.088 E0.00375
G1 X125.632 Y89.067 E0.00350
G1 X126.916 Y89.067 E0.03824
G1 X127.040 Y89.088 E0.00375
G1 X127.156 Y89.067 E0.00350
G1 X128.439 Y89.067 E0.03824
G1 X128.564 Y89.088 E0.00375
G1 X128.679 Y89.067 E0.00350
G1 X129.930 Y89.067 E0.03727
G1 X130.261 Y89.116 E0.00995
G1 X131.022 Y89.502 E0.02542
G1 X136.068 Y94.548 E0.21256
G1 X136.290 Y94.970 E0.01421
G1 X136.351 Y95.248 E0.00848
G1 X136.351 Y95.823 E0.01711
G1 X136.308 Y96.051 E0.00691
G1 X136.233 Y96.231 E0.00582
G1 X136.236 Y97.384 E0.03435
G1 X136.216 Y97.501 E0.00354
G1 X136.236 Y97.626 E0.00376
G1 X136.236 Y98.910 E0.03824
G1 X136.216 Y99.025 E0.00350
G1 X136.236 Y99.150 E0.00375
G1 X136.236 Y100.433 E0.03824
G1 X136.216 Y100.549 E0.00350
G1 X136.236 Y100.673 E0.00375
G1 X136.236 Y101.957 E0.03824
G1 X136.216 Y102.072 E0.00350
