; generated by PrusaSlicer 2.3.0-beta3+win64 on 2022-04-16 at 19:44:59 UTC

; 

; external perimeters extrusion width = 0.45mm
; perimeters extrusion width = 0.45mm
; infill extrusion width = 0.45mm
; solid infill extrusion width = 0.45mm
; top infill extrusion width = 0.40mm
; support material extrusion width = 0.38mm
; first layer extrusion width = 0.42mm

M201 X500 Y500 Z100 E5000 ; sets maximum accelerations, mm/sec^2
M203 X500 Y500 Z10 E60 ; sets maximum feedrates, mm/sec
M204 P500 R1000 T500 ; sets acceleration (P, T) and retract acceleration (R), mm/sec^2
M205 X8.00 Y8.00 Z0.40 E5.00 ; sets the jerk limits, mm/sec
M205 S0 T0 ; sets the minimum extruding and travel feed rate, mm/sec
M107
;TYPE:Custom
G90 ; use absolute coordinates
M83 ; extruder relative mode
M104 S220 ; set extruder temp
M140 S60 ; set bed temp
M190 S60 ; wait for bed temp
M109 S220 ; wait for extruder temp
G28 ; home all
G1 Z2 F240
G1 X2 Y10 F3000
G1 Z0.28 F240
G92 E0
G1 Y190 E15 F1500 ; intro line
G1 X2.3 F5000
G92 E0
G1 Y10 E15 F1200 ; intro line
G92 E0
G21 ; set units to millimeters
G90 ; use absolute coordinates
M83 ; use relative distances for extrusion
; Filament gcode
;LAYER_CHANGE
;Z:0.2
;HEIGHT:0.2
;BEFORE_LAYER_CHANGE
G92 E0
;0.2


G1 E-5.00000 F3600.000
G1 Z0.200 F9000.000
;AFTER_LAYER_CHANGE
;0.2
G1 X99.244 Y96.233
G1 E5.00000 F2400.000
;TYPE:Skirt
;WIDTH:0.42
G1 F1200.000
G1 X103.217 Y92.272 E0.17590
G1 X103.846 Y91.889 E0.02308
G1 X104.950 Y91.559 E0.03612
G1 X130.472 Y91.528 E0.80024
G1 X131.353 Y91.697 E0.02813
G1 X132.111 Y92.184 E0.02825
G1 X136.998 Y97.074 E0.21676
G1 X137.373 Y97.636 E0.02119
G1 X137.575 Y98.285 E0.02130
G1 X137.435 Y130.527 E1.01094
G1 X137.281 Y131.701 E0.03713
G1 X136.998 Y132.393 E0.02343
G1 X133.902 Y136.230 E0.15458
G1 X133.266 Y136.689 E0.02461
G1 X132.515 Y136.916 E0.02461
G1 X104.244 Y137.105 E0.88643
G1 X103.612 Y137.016 E0.02000
G1 X103.023 Y136.761 E0.02012
G1 X101.977 Y135.801 E0.04452
G1 X99.047 Y132.089 E0.14828
G1 X98.730 Y131.522 E0.02036
G1 X98.577 Y130.895 E0.02024
G1 X98.565 Y97.874 E1.03534
G1 X98.655 Y97.247 E0.01989
G1 X98.909 Y96.665 E0.01989
G1 X99.208 Y96.280 E0.01528
G1 X98.217 Y95.289 F9000.000
G1 F1200.000
G1 X100.063 Y93.443 E0.08189
G1 X100.318 Y93.269 E0.00968
G1 X100.533 Y93.033 E0.01000
G1 X100.702 Y92.804 E0.00892
G1 X102.360 Y91.146 E0.07351
G1 X103.484 Y90.512 E0.04047
G1 X103.743 Y90.443 E0.00840
G1 X104.104 Y90.286 E0.01234
G1 X104.881 Y90.134 E0.02481
G1 X130.664 Y90.134 E0.80842
G1 X131.345 Y90.223 E0.02154
G1 X132.916 Y91.016 E0.05516
G1 X138.170 Y96.270 E0.23297
G1 X138.691 Y97.119 E0.03124
G1 X138.944 Y98.099 E0.03174
G1 X138.939 Y98.954 E0.02682
G1 X138.824 Y99.561 E0.01936
G1 X138.817 Y100.503 E0.02952
G1 X138.815 Y131.075 E0.95858
G1 X138.720 Y131.493 E0.01344
G1 X138.698 Y131.809 E0.00994
G1 X138.605 Y132.237 E0.01373
G1 X137.993 Y133.436 E0.04220
G1 X135.854 Y135.581 E0.09500
G1 X135.790 Y135.810 E0.00746
G1 X135.229 Y136.850 E0.03704
G1 X134.502 Y137.570 E0.03207
G1 X133.672 Y138.054 E0.03013
G1 X132.597 Y138.329 E0.03479
G1 X106.859 Y138.317 E0.80701
G1 X105.935 Y138.324 E0.02896
G1 X105.248 Y138.444 E0.02188
G1 X103.467 Y138.412 E0.05586
G1 X102.717 Y138.192 E0.02450
G1 X102.142 Y137.886 E0.02041
G1 X100.868 Y136.658 E0.05550
G1 X100.255 Y135.579 E0.03890
G1 X100.145 Y135.178 E0.01305
G1 X98.107 Y133.152 E0.09009
G1 X97.440 Y132.056 E0.04020
G1 X97.171 Y130.932 E0.03624
G1 X97.171 Y97.663 E1.04314
G1 X97.419 Y96.549 E0.03579
G1 X98.072 Y95.434 E0.04053
G1 X98.174 Y95.332 E0.00451
G1 X98.441 Y95.599 F9000.000
G1 F1200.000
G1 X100.316 Y93.724 E0.08314
G1 X100.565 Y93.558 E0.00938
G1 X100.826 Y93.271 E0.01218
G1 X100.980 Y93.060 E0.00818
G1 X102.608 Y91.432 E0.07218
G1 X103.643 Y90.855 E0.03715
G1 X103.864 Y90.802 E0.00715
G1 X104.200 Y90.651 E0.01154
G1 X104.899 Y90.511 E0.02236
G1 X130.651 Y90.511 E0.80743
G1 X131.264 Y90.593 E0.01937
G1 X132.671 Y91.304 E0.04942
G1 X137.888 Y96.521 E0.23135
G1 X138.334 Y97.243 E0.02661
G1 X138.567 Y98.123 E0.02853
G1 X138.562 Y98.934 E0.02544
G1 X138.447 Y99.522 E0.01880
G1 X138.440 Y100.501 E0.03069
G1 X138.443 Y131.012 E0.95664
G1 X138.345 Y131.439 E0.01375
G1 X138.326 Y131.749 E0.00974
G1 X138.256 Y132.093 E0.01098
G1 X137.704 Y133.192 E0.03856
G1 X135.511 Y135.391 E0.09738
G1 X135.445 Y135.657 E0.00860
G1 X134.942 Y136.604 E0.03363
G1 X134.288 Y137.258 E0.02899
G1 X133.550 Y137.697 E0.02692
G1 X132.573 Y137.952 E0.03167
G1 X106.857 Y137.940 E0.80629
G1 X105.864 Y137.948 E0.03114
G1 X105.741 Y137.986 E0.00405
G1 X105.238 Y138.067 E0.01598
G1 X103.548 Y138.043 E0.05298
G1 X102.843 Y137.836 E0.02305
G1 X102.344 Y137.567 E0.01775
G1 X101.150 Y136.407 E0.05220
G1 X100.597 Y135.418 E0.03554
G1 X100.485 Y134.985 E0.01404
G1 X98.389 Y132.900 E0.09270
G1 X97.800 Y131.938 E0.03538
G1 X97.548 Y130.909 E0.03320
G1 X97.548 Y97.683 E1.04179
G1 X97.760 Y96.712 E0.03117
G1 X98.357 Y95.683 E0.03730
G1 X98.398 Y95.641 E0.00185
G1 X98.665 Y95.908 F9000.000
G1 F1200.000
G1 X100.567 Y94.006 E0.08434
G1 X100.841 Y93.829 E0.01022
G1 X100.933 Y93.698 E0.00503
G1 X101.113 Y93.518 E0.00796
G1 X101.258 Y93.315 E0.00784
G1 X102.856 Y91.717 E0.07084
G1 X103.756 Y91.216 E0.03231
G1 X103.991 Y91.159 E0.00757
G1 X104.299 Y91.015 E0.01068
G1 X104.919 Y90.888 E0.01984
G1 X130.638 Y90.888 E0.80641
G1 X131.181 Y90.962 E0.01718
G1 X132.425 Y91.592 E0.04371
G1 X137.606 Y96.773 E0.22975
G1 X137.978 Y97.370 E0.02205
G1 X138.190 Y98.147 E0.02525
G1 X138.185 Y98.917 E0.02415
G1 X138.111 Y99.326 E0.01305
G1 X138.071 Y99.446 E0.00396
G1 X138.063 Y100.500 E0.03304
G1 X138.070 Y130.949 E0.95471
G1 X137.970 Y131.387 E0.01409
G1 X137.953 Y131.688 E0.00947
G1 X137.892 Y131.994 E0.00977
G1 X137.415 Y132.948 E0.03345
G1 X135.372 Y135.013 E0.09109
G1 X135.177 Y135.148 E0.00742
G1 X135.097 Y135.508 E0.01156
G1 X134.654 Y136.359 E0.03009
G1 X134.038 Y136.975 E0.02733
G1 X133.427 Y137.339 E0.02232
G1 X132.548 Y137.575 E0.02854
G1 X106.856 Y137.563 E0.80554
G1 X105.799 Y137.571 E0.03313
G1 X105.662 Y137.617 E0.00454
G1 X105.224 Y137.689 E0.01393
G1 X103.629 Y137.674 E0.05001
G1 X102.969 Y137.480 E0.02157
G1 X102.549 Y137.250 E0.01503
G1 X101.435 Y136.158 E0.04891
G1 X100.940 Y135.261 E0.03213
G1 X100.828 Y134.794 E0.01504
G1 X98.671 Y132.648 E0.09542
G1 X98.158 Y131.817 E0.03060
G1 X97.925 Y130.886 E0.03011
G1 X97.925 Y97.704 E1.04038
G1 X98.122 Y96.823 E0.02831
G1 X98.628 Y95.954 E0.03153
G1 E-3.50000 F3600.000
;WIPE_START
G1 F7200.000
G1 X100.567 Y94.006 E-1.30583
G1 X100.778 Y93.870 E-0.11917
;WIPE_END
G1 E-0.07500 F3600.000
G1 X104.939 Y91.265 F9000.000
G1 E5.00000 F2400.000
G1 F1200.000
G1 X104.402 Y91.379 E0.01722
G1 X104.120 Y91.516 E0.00982
G1 X103.869 Y91.576 E0.00809
G1 X103.104 Y92.002 E0.02747
G1 X101.537 Y93.569 E0.06946
G1 X101.404 Y93.761 E0.00733
G1 X101.215 Y93.949 E0.00836
G1 X101.116 Y94.101 E0.00569
G1 X101.108 Y94.109 F9000.000
G1 F1200.000
G1 X100.817 Y94.289 E0.01073
G1 X98.925 Y96.181 E0.08390
G1 X98.464 Y96.985 E0.02907
G1 X98.302 Y97.724 E0.02373
G1 X98.302 Y130.862 E1.03900
G1 X98.516 Y131.695 E0.02698
G1 X98.952 Y132.396 E0.02588
G1 X99.407 Y132.849 E0.02015
G1 E-3.50000 F3600.000
;WIPE_START
G1 F7200.000
G1 X98.952 Y132.396 E-0.30531
G1 X98.516 Y131.695 E-0.39207
G1 X98.302 Y130.862 E-0.40869
G1 X98.302 Y130.190 E-0.31893
;WIPE_END
G1 E-0.07500 F3600.000
G1 X101.495 Y135.494 F9000.000
G1 E5.00000 F2400.000
G1 F1200.000
G1 X101.720 Y135.910 E0.01484
G1 X102.756 Y136.934 E0.04566
G1 X103.097 Y137.124 E0.01224
G1 X103.710 Y137.305 E0.02003
G1 X105.208 Y137.312 E0.04699
G1 X105.361 Y137.286 E0.00484
G1 E-3.50000 F3600.000
;WIPE_START
G1 F7200.000
G1 X105.208 Y137.312 E-0.07339
G1 X103.710 Y137.305 E-0.71183
G1 X103.097 Y137.124 E-0.30347
G1 X102.756 Y136.934 E-0.18544
G1 X102.530 Y136.711 E-0.15087
;WIPE_END
G1 E-0.07500 F3600.000
G1 X119.494 Y137.192 F9000.000
G1 E5.00000 F2400.000
G1 F1200.000
G1 X132.522 Y137.198 E0.40847
G1 X133.301 Y136.983 E0.02535
G1 X133.788 Y136.692 E0.01778
G1 X134.366 Y136.114 E0.02564
G1 X134.584 Y135.685 E0.01507
G1 E-3.50000 F3600.000
;WIPE_START
G1 F7200.000
G1 X134.366 Y136.114 E-0.22834
G1 X133.788 Y136.692 E-0.38848
G1 X133.301 Y136.983 E-0.26932
G1 X132.522 Y137.198 E-0.38407
G1 X132.196 Y137.198 E-0.15478
;WIPE_END
G1 E-0.07500 F3600.000
G1 X136.382 Y133.456 F9000.000
G1 E5.00000 F2400.000
G1 F1200.000
G1 X137.126 Y132.705 E0.03314
G1 X137.527 Y131.895 E0.02832
G1 X137.581 Y131.628 E0.00854
G1 X137.595 Y131.336 E0.00918
G1 X137.698 Y130.885 E0.01448
G1 X137.691 Y114.909 E0.50092
G1 E-3.50000 F3600.000
;WIPE_START
G1 F7200.000
G1 X137.693 Y117.909 E-1.42500
;WIPE_END
G1 E-0.07500 F3600.000
G1 X137.760 Y99.156 F9000.000
G1 E5.00000 F2400.000
G1 F1200.000
G1 X137.808 Y98.897 E0.00826
G1 X137.813 Y98.172 E0.02274
G1 X137.623 Y97.499 E0.02192
G1 X137.325 Y97.025 E0.01756
G1 X132.179 Y91.879 E0.22816
G1 X131.098 Y91.331 E0.03802
G1 X130.625 Y91.265 E0.01497
G1 X104.939 Y91.265 E0.80536
G1 E-3.50000 F3600.000
;WIPE_START
G1 F7200.000
G1 X107.939 Y91.265 E-1.42500
;WIPE_END
G1 E-0.07500 F3600.000
G1 X101.410 Y94.340 F9000.000
G1 E5.00000 F2400.000
G1 F1200.000
G1 X101.339 Y94.411 E0.00312
G1 E-3.50000 F3600.000
;WIPE_START
G1 F7200.000
G1 X101.410 Y94.340 E-0.04734
;WIPE_END
G1 E-1.45266 F3600.000
G1 X137.383 Y99.123 F9000.000
G1 E5.00000 F2400.000
G1 F1200.000
G1 X137.318 Y99.300 E0.00592
G1 X137.308 Y100.497 E0.03751
G1 X137.314 Y114.909 E0.45187
G1 E-3.50000 F3600.000
;WIPE_START
G1 F7200.000
G1 X137.313 Y111.909 E-1.42500
;WIPE_END
G1 E-0.07500 F3600.000
G1 X136.066 Y133.248 F9000.000
G1 E5.00000 F2400.000
G1 F1200.000
G1 X134.868 Y134.450 E0.05322
G1 X134.493 Y134.688 E0.01392
G1 X134.398 Y135.222 E0.01699
G1 X134.277 Y135.465 E0.00853
G1 E-3.50000 F3600.000
;WIPE_START
G1 F7200.000
G1 X134.398 Y135.222 E-0.12917
G1 X134.493 Y134.688 E-0.25741
G1 X134.868 Y134.450 E-0.21087
G1 X136.066 Y133.248 E-0.80622
;WIPE_END
G1 E-0.09633 F3600.000
G1 X119.493 Y136.815 F9000.000
G1 E5.00000 F2400.000
G1 F1200.000
G1 X106.853 Y136.808 E0.39630
G1 X105.657 Y136.818 E0.03752
G1 X105.492 Y136.881 E0.00551
G1 X105.336 Y136.909 E0.00498
G1 E-3.50000 F3600.000
;WIPE_START
G1 F7200.000
G1 X105.492 Y136.881 E-0.07548
G1 X105.657 Y136.818 E-0.08353
G1 X106.853 Y136.808 E-0.56846
G1 X108.322 Y136.809 E-0.69754
;WIPE_END
G1 E-0.07500 F3600.000
G1 X101.798 Y135.269 F9000.000
G1 E5.00000 F2400.000
G1 F1200.000
G1 X101.632 Y134.955 E0.01114
G1 X101.521 Y134.419 E0.01716
G1 X99.689 Y132.598 E0.08100
G1 X99.955 Y132.330 F9000.000
G1 F1200.000
G1 X99.515 Y131.893 E0.01946
G1 X99.209 Y131.399 E0.01820
G1 X99.056 Y130.813 E0.01898
G1 X99.056 Y129.527 E0.04035
G1 X99.077 Y129.411 E0.00368
G1 X99.056 Y129.287 E0.00395
G1 X99.056 Y128.003 E0.04025
G1 X99.077 Y127.887 E0.00368
G1 X99.056 Y127.763 E0.00395
G1 X99.056 Y126.479 E0.04025
G1 X99.077 Y126.364 E0.00368
G1 X99.056 Y126.239 E0.00395
G1 X99.056 Y124.956 E0.04025
G1 X99.077 Y124.840 E0.00368
G1 X99.056 Y124.716 E0.00395
G1 X99.056 Y123.432 E0.04025
G1 X99.077 Y123.316 E0.00368
G1 X99.056 Y123.192 E0.00395
G1 X99.056 Y121.908 E0.04025
G1 X99.077 Y121.793 E0.00368
G1 X99.056 Y121.668 E0.00395
G1 X99.056 Y120.385 E0.04025
G1 X99.077 Y120.269 E0.00368
G1 X99.056 Y120.145 E0.00395
G1 X99.056 Y118.861 E0.04025
G1 X99.077 Y118.746 E0.00368
G1 X99.056 Y118.621 E0.00395
G1 X99.056 Y117.337 E0.04025
G1 X99.077 Y117.222 E0.00368
G1 X99.056 Y117.098 E0.00395
G1 X99.056 Y115.814 E0.04025
G1 X99.077 Y115.698 E0.00368
G1 X99.056 Y115.574 E0.00395
G1 X99.056 Y114.290 E0.04025
G1 X99.077 Y114.175 E0.00368
G1 X99.056 Y114.050 E0.00395
G1 X99.056 Y112.767 E0.04025
G1 X99.077 Y112.651 E0.00368
G1 X99.056 Y112.527 E0.00395
G1 X99.056 Y111.243 E0.04025
G1 X99.077 Y111.127 E0.00368
G1 X99.056 Y111.003 E0.00395
G1 X99.056 Y109.719 E0.04025
G1 X99.077 Y109.604 E0.00368
G1 X99.056 Y109.479 E0.00395
G1 X99.056 Y108.196 E0.04025
G1 X99.077 Y108.080 E0.00368
G1 X99.056 Y107.956 E0.00395
G1 X99.056 Y106.672 E0.04025
G1 X99.077 Y106.556 E0.00368
G1 X99.056 Y106.432 E0.00395
G1 X99.056 Y105.148 E0.04025
G1 X99.077 Y105.033 E0.00368
G1 X99.056 Y104.908 E0.00395
G1 X99.056 Y103.625 E0.04025
G1 X99.077 Y103.509 E0.00368
G1 X99.056 Y103.385 E0.00395
G1 X99.056 Y102.101 E0.04025
G1 X99.077 Y101.986 E0.00368
G1 X99.056 Y101.861 E0.00395
G1 X99.056 Y100.578 E0.04025
G1 X99.077 Y100.462 E0.00368
G1 X99.056 Y100.338 E0.00395
G1 X99.056 Y99.054 E0.04025
G1 X99.077 Y98.938 E0.00368
G1 X99.056 Y98.814 E0.00395
G1 X99.056 Y97.764 E0.03291
G1 X99.168 Y97.253 E0.01641
G1 X99.495 Y96.678 E0.02075
G1 X101.314 Y94.859 E0.08064
G1 X101.644 Y94.671 E0.01192
G1 X101.820 Y94.403 E0.01006
G1 X101.985 Y94.250 E0.00706
G1 X102.100 Y94.072 E0.00663
G1 X103.599 Y92.574 E0.06644
G1 X104.135 Y92.283 E0.01914
G1 X104.385 Y92.230 E0.00800
G1 X104.621 Y92.102 E0.00842
G1 X104.982 Y92.019 E0.01163
G1 X106.252 Y92.019 E0.03979
G1 X106.376 Y92.040 E0.00395
G1 X106.492 Y92.019 E0.00368
G1 X107.775 Y92.019 E0.04025
G1 X107.900 Y92.040 E0.00395
G1 X108.015 Y92.019 E0.00368
G1 X109.299 Y92.019 E0.04025
G1 X109.423 Y92.040 E0.00395
G1 X109.539 Y92.019 E0.00368
G1 X110.822 Y92.019 E0.04025
G1 X110.947 Y92.040 E0.00395
G1 X111.062 Y92.019 E0.00368
G1 X112.346 Y92.019 E0.04025
G1 X112.471 Y92.040 E0.00396
G1 X112.588 Y92.019 E0.00375
G1 X113.895 Y92.023 E0.04095
G1 X113.999 Y92.039 E0.00330
G1 X114.111 Y92.019 E0.00358
G1 X115.393 Y92.019 E0.04019
G1 X115.518 Y92.040 E0.00395
G1 X115.633 Y92.019 E0.00368
G1 X116.917 Y92.019 E0.04025
G1 X117.041 Y92.040 E0.00395
G1 X117.157 Y92.019 E0.00368
G1 X118.441 Y92.019 E0.04025
G1 X118.565 Y92.040 E0.00395
G1 X118.681 Y92.019 E0.00368
G1 X119.964 Y92.019 E0.04025
G1 X120.089 Y92.040 E0.00395
G1 X120.204 Y92.019 E0.00368
G1 X121.488 Y92.019 E0.04025
G1 X121.612 Y92.040 E0.00395
G1 X121.728 Y92.019 E0.00368
G1 X123.011 Y92.019 E0.04025
G1 X123.136 Y92.040 E0.00395
G1 X123.251 Y92.019 E0.00368
G1 X124.535 Y92.019 E0.04025
G1 X124.659 Y92.040 E0.00395
G1 X124.775 Y92.019 E0.00368
G1 X126.059 Y92.019 E0.04025
G1 X126.183 Y92.040 E0.00395
G1 X126.299 Y92.019 E0.00368
G1 X127.582 Y92.019 E0.04025
G1 X127.707 Y92.040 E0.00395
G1 X127.822 Y92.019 E0.00368
G1 X129.106 Y92.019 E0.04025
G1 X129.230 Y92.040 E0.00395
G1 X129.346 Y92.019 E0.00368
G1 X130.597 Y92.019 E0.03923
G1 X130.928 Y92.068 E0.01047
G1 X131.688 Y92.455 E0.02675
G1 X136.764 Y97.530 E0.22504
G1 X136.917 Y97.769 E0.00892
G1 X137.058 Y98.226 E0.01499
G1 X137.055 Y98.854 E0.01969
G1 X137.014 Y99.048 E0.00622
G1 X136.940 Y99.224 E0.00597
G1 X136.944 Y100.377 E0.03617
G1 X136.923 Y100.494 E0.00373
G1 X136.944 Y100.619 E0.00396
G1 X136.944 Y101.903 E0.04025
G1 X136.923 Y102.018 E0.00368
G1 X136.944 Y102.142 E0.00395
G1 X136.944 Y103.426 E0.04025
G1 X136.923 Y103.542 E0.00368
G1 X136.944 Y103.666 E0.00395
G1 X136.944 Y104.950 E0.04025
G1 X136.923 Y105.065 E0.00368
G1 X136.944 Y105.190 E0.00395
G1 X136.944 Y106.473 E0.04025
G1 X136.923 Y106.589 E0.00368
G1 X136.944 Y106.713 E0.00395
G1 X136.944 Y107.997 E0.04025
G1 X136.923 Y108.113 E0.00368
G1 X136.944 Y108.237 E0.00395
G1 X136.944 Y109.521 E0.04025
G1 X136.923 Y109.636 E0.00368
G1 X136.944 Y109.761 E0.00395
G1 X136.944 Y111.044 E0.04025
G1 X136.923 Y111.160 E0.00368
G1 X136.944 Y111.284 E0.00395
G1 X136.944 Y112.568 E0.04025
G1 X136.923 Y112.684 E0.00368
G1 X136.944 Y112.808 E0.00395
G1 X136.944 Y114.092 E0.04025
G1 X136.923 Y114.207 E0.00368
G1 X136.944 Y114.332 E0.00395
G1 X136.944 Y115.615 E0.04025
G1 X136.923 Y115.731 E0.00368
G1 X136.944 Y115.855 E0.00395
G1 X136.944 Y117.139 E0.04025
G1 X136.923 Y117.254 E0.00368
G1 X136.944 Y117.379 E0.00395
G1 X136.944 Y118.662 E0.04025
G1 X136.923 Y118.778 E0.00368
G1 X136.944 Y118.902 E0.00395
G1 X136.944 Y120.186 E0.04025
G1 X136.923 Y120.302 E0.00368
G1 X136.944 Y120.426 E0.00395
G1 X136.944 Y121.710 E0.04025
G1 X136.923 Y121.825 E0.00368
G1 X136.944 Y121.950 E0.00395
G1 X136.944 Y123.233 E0.04025
G1 X136.923 Y123.349 E0.00368
G1 X136.944 Y123.473 E0.00395
G1 X136.944 Y124.757 E0.04025
G1 X136.923 Y124.873 E0.00368
G1 X136.944 Y124.997 E0.00395
G1 X136.944 Y126.281 E0.04025
G1 X136.923 Y126.396 E0.00368
G1 X136.944 Y126.521 E0.00395
